(VECTRIC POST REVISION)
(FC16A22438222CB0A5088D1738135480)
T1
G17
G21
G90
G0Z5.080
G0X0.000Y0.000
S18000M3
G0X15.221Y64.006Z5.080
G1Z0.000F889.0
G1X15.225Y64.639Z-0.169
G1X15.237Y65.273Z-0.337
G1X15.257Y65.907Z-0.506
G1X15.284Y66.541Z-0.675
G1X15.320Y67.176Z-0.843
G1X15.364Y67.809Z-1.012
G1X15.416Y68.443Z-1.181
G1X15.475Y69.076Z-1.349
G1X15.543Y69.708Z-1.518
G1X15.618Y70.339Z-1.687
G1X15.702Y70.969Z-1.855
G1X15.793Y71.599Z-2.024
G1X15.892Y72.226Z-2.193
G1X15.999Y72.853Z-2.361
G1X16.114Y73.478Z-2.530
G1X16.237Y74.101Z-2.699
G1X16.367Y74.722Z-2.867
G1X16.505Y75.341Z-3.036
G1X16.651Y75.958Z-3.205
G1X16.805Y76.573Z-3.373
G2X21.456Y88.355I49.077J-12.567F1778.0
G2X28.885Y98.614I44.425J-24.349
G2X38.627Y106.710I36.996J-34.609
G2X65.881Y114.666I27.254J-42.704
G1X82.137
G1X87.712
G1X93.287
G1X315.119
G2X365.779Y64.006I0.000J-50.660
G2X315.119Y13.345I-50.660J0.000
G1X299.298
G1X293.723
G1X288.147
G1X65.881
G2X15.221Y64.006I0.000J50.660
G2X16.805Y76.573I50.660J0.000
G1X16.966Y77.186Z-3.542F889.0
G1X17.134Y77.797Z-3.711
G1X17.311Y78.406Z-3.879
G1X17.495Y79.014Z-4.048
G1X17.687Y79.619Z-4.217
G1X17.887Y80.222Z-4.385
G1X18.094Y80.823Z-4.554
G1X18.309Y81.421Z-4.723
G1X18.531Y82.017Z-4.891
G1X18.761Y82.610Z-5.060
G1X18.998Y83.200Z-5.229
G1X19.242Y83.787Z-5.398
G1X19.494Y84.370Z-5.566
G1X19.753Y84.951Z-5.735
G1X20.020Y85.527Z-5.904
G1X20.293Y86.101Z-6.072
G1X20.574Y86.670Z-6.241
G1X20.861Y87.236Z-6.410
G1X21.155Y87.797Z-6.578
G1X21.456Y88.355Z-6.747
G2X28.885Y98.614I44.425J-24.349F1778.0
G2X38.627Y106.710I36.996J-34.609
G2X65.881Y114.666I27.254J-42.704
G1X82.137
G1X87.712
G1X93.287
G1X315.119
G2X365.779Y64.006I0.000J-50.660
G2X315.119Y13.345I-50.660J0.000
G1X299.298
G1X293.723
G1X288.147
G1X65.881
G2X15.221Y64.006I0.000J50.660
G2X16.805Y76.573I50.660J0.000
G2X21.456Y88.355I49.077J-12.567
G1X21.764Y88.909Z-6.916F889.0
G1X22.079Y89.459Z-7.084
G1X22.401Y90.005Z-7.253
G1X22.731Y90.548Z-7.422
G1X23.067Y91.087Z-7.590
G1X23.410Y91.622Z-7.759
G1X23.760Y92.152Z-7.928
G1X24.116Y92.679Z-8.096
G1X24.479Y93.200Z-8.265
G1X24.849Y93.718Z-8.434
G1X25.225Y94.230Z-8.602
G1X25.607Y94.738Z-8.771
G1X25.996Y95.241Z-8.940
G1X26.391Y95.739Z-9.108
G1X26.792Y96.232Z-9.277
G1X27.199Y96.719Z-9.446
G1X27.612Y97.201Z-9.614
G1X28.031Y97.678Z-9.783
G1X28.455Y98.149Z-9.952
G1X28.885Y98.614Z-10.120
G2X38.627Y106.710I36.996J-34.609F1778.0
G2X65.881Y114.666I27.254J-42.704
G1X82.137
G1X87.712Z-8.414
G1X93.287Z-10.120
G1X315.119
G2X365.779Y64.006I0.000J-50.660
G2X315.119Y13.345I-50.660J0.000
G1X299.298
G1X293.723Z-8.414
G1X288.147Z-10.120
G1X65.881
G2X15.221Y64.006I0.000J50.660
G2X16.805Y76.573I50.660J0.000
G2X21.456Y88.355I49.077J-12.567
G2X28.885Y98.614I44.425J-24.349
G1X29.321Y99.074Z-10.289F889.0
G1X29.763Y99.529Z-10.458
G1X30.210Y99.979Z-10.626
G1X30.664Y100.423Z-10.795
G1X31.123Y100.861Z-10.964
G1X31.588Y101.294Z-11.132
G1X32.059Y101.722Z-11.301
G1X32.534Y102.143Z-11.470
G1X33.016Y102.559Z-11.638
G1X33.502Y102.968Z-11.807
G1X33.994Y103.371Z-11.976
G1X34.490Y103.768Z-12.144
G1X34.992Y104.159Z-12.313
G1X35.498Y104.543Z-12.482
G1X36.008Y104.921Z-12.650
G1X36.524Y105.293Z-12.819
G1X37.043Y105.657Z-12.988
G1X37.567Y106.015Z-13.156
G1X38.095Y106.366Z-13.325
G1X38.627Y106.710Z-13.494
G2X65.881Y114.666I27.254J-42.704F1778.0
G1X82.137
G1X87.712Z-8.414
G1X93.287Z-13.494
G1X315.119
G2X365.779Y64.006I0.000J-50.660
G2X315.119Y13.345I-50.660J0.000
G1X299.298
G1X293.723Z-8.414
G1X288.147Z-13.494
G1X65.881
G2X15.221Y64.006I0.000J50.660
G2X16.805Y76.573I50.660J0.000
G2X21.456Y88.355I49.077J-12.567
G2X28.885Y98.614I44.425J-24.349
G2X38.627Y106.710I36.996J-34.609
G0Z5.080
M5
G0Z5.080
G0X0.000Y0.000
M2
