(VECTRIC POST REVISION)
(FC16A22438222CB0A5088D1738135480)
T1
G17
G21
G90
G0Z5.080
G0X0.000Y0.000
S18000M3
G0X3.257Y3.139Z5.080
G1Z0.000F889.0
G1X2.899Y3.553Z-0.082
G1X2.631Y3.901Z-0.148
G1X2.483Y4.101Z-0.185
G1X2.257Y4.406Z-0.242
G1X1.852Y4.908Z-0.339
G1X1.571Y5.271Z-0.408
G1X1.259Y5.766Z-0.496
G1X0.945Y6.422Z-0.605
G1X0.835Y6.891Z-0.677
G1X0.815Y6.981Z-0.691
G1X0.767Y7.106Z-0.711
G1X0.520Y7.651Z-0.801
G1X0.026Y8.666Z-0.970
G1X-0.143Y9.117Z-1.042
G1X-0.261Y9.612Z-1.119
G1X-0.330Y10.078Z-1.189
G1X-0.348Y10.386Z-1.236
G1X-0.359Y10.549Z-1.260
G1X-0.392Y10.810Z-1.300
G1X-0.550Y11.758Z-1.444
G1X-0.702Y12.688Z-1.585
G1X-0.764Y13.220Z-1.665
G1X-0.804Y13.732Z-1.742
G1X-0.823Y14.246Z-1.819
G1X-0.820Y14.762Z-1.897
G1X-0.817Y14.816Z-1.905
G1X-0.794Y15.278F1778.0
G1X-0.744Y15.796
G1X-0.672Y16.312
G1X-0.572Y16.855
G1X-0.329Y17.857
G1X-0.002Y18.907
G1X0.378Y19.955
G1X0.679Y20.784
G1X0.812Y21.213
G1X0.862Y21.375
G1X1.011Y21.800
G1X1.261Y22.344
G1X1.538Y22.880
G1X1.830Y23.400
G1X2.474Y24.492
G1X3.063Y25.212
G1X3.214Y25.409
G1X3.462Y25.707
G1X3.803Y26.071
G1X4.032Y26.289
G1X4.163Y26.416
G1X4.459Y26.666
G1X4.622Y26.796
G1X4.813Y27.032
G1X5.056Y27.304
G1X5.428Y27.656
G1X5.815Y27.984
G1X6.247Y28.322
G1X7.139Y28.965
G1X7.790Y29.442
G1X7.932Y29.557
G1X8.037Y29.654
G1X8.348Y29.937
G1X8.901Y30.296
G1X9.267Y30.456
G1X9.775Y30.625
G1X9.823Y30.655
G1X10.086Y30.811
G1X10.360Y30.974
G1X11.056Y31.305
G1X11.777Y31.591
G1X12.531Y31.848
G1X13.322Y32.081
G1X14.147Y32.293
G1X14.867Y32.456
G1X15.002Y32.487
G1X15.881Y32.660
G1X16.153Y32.707
G1X16.779Y32.814
G1X17.689Y32.946
G1X18.604Y33.056
G1X19.517Y33.141
G1X20.422Y33.200
G1X21.314Y33.231
G1X22.188Y33.231
G1X23.042Y33.196
G1X24.162Y33.093
G1X25.291Y32.932
G1X26.418Y32.714
G1X27.443Y32.467
G1X27.538Y32.444
G1X28.648Y32.121
G1X29.640Y31.782
G1X29.743Y31.747
G1X30.816Y31.323
G1X31.828Y30.866
G1X34.079Y29.781
G1X34.669Y29.216
G1X34.901Y29.026
G1X35.345Y28.716
G1X35.630Y28.516
G1X35.672Y28.483
G1X36.004Y28.219
G1X36.693Y27.615
G1X37.428Y26.919
G1X38.161Y26.183
G1X38.213Y26.128
G1X38.853Y25.450
G1X39.471Y24.750
G1X39.989Y24.086
G1X40.175Y23.782
G1X40.367Y23.417
G1X40.373Y23.408
G1X40.588Y23.156
G1X41.134Y22.489
G1X41.499Y21.954
G1X41.661Y21.591
G1X41.831Y21.098
G1X43.227Y18.212
G1X43.408Y17.855
G1X43.548Y17.513
G1X43.573Y17.452
G1X43.703Y16.995
G1X43.759Y16.696
G1X43.785Y16.527
G1X44.063Y15.751
G1X44.417Y14.070
G1X44.569Y13.300
G1X44.706Y12.506
G1X44.815Y11.765
G1X44.845Y11.491
G2X45.244Y9.986I-2.636J-1.504
G1Y8.170
G1X44.482Y3.221
G1X43.989Y1.080
G2X42.107Y-1.077I-2.958J0.682
G2X41.031Y-1.274I-1.076J2.838
G1X35.299Y-1.274
G1X28.468Y-1.274
G1X27.402Y-1.274
G1X26.945Y-1.250
G1X26.420Y-1.166
G1X25.911Y-1.029
G1X25.571Y-0.899
G2X23.884Y3.162I1.089J2.833
G1X24.543Y4.653
G1X25.131Y8.474
G1X25.053Y9.204
G1X24.852Y10.646
G1X24.823Y10.783
G1X24.769Y10.950
G1X24.668Y11.196
G1X24.528Y11.483
G1X24.358Y11.782
G1X24.172Y12.070
G1X23.984Y12.323
G1X23.813Y12.523
G1X23.702Y12.634
G1X23.497Y12.813
G1X23.235Y13.023
G1X22.960Y13.227
G1X22.717Y13.393
G1X22.661Y13.427
G1X22.424Y13.508
G1X22.141Y13.617
G1X21.500Y13.911
G1X21.419Y13.948
G1X21.360Y13.953
G1X21.112Y13.961
G1X20.264Y13.956
G1X20.535Y13.798
G1X21.167Y13.265
G1X21.666Y12.703
G1X22.055Y12.160
G1X22.287Y11.796
G1X22.518Y11.370
G1X22.732Y10.843
G1X22.879Y10.280
G1X22.952Y9.754
G1X22.982Y9.261
G1X22.987Y8.308
G1X22.959Y7.409
G1X22.920Y6.941
G1X22.858Y6.488
G1X22.764Y6.033
G1X22.628Y5.550
G1X22.343Y4.813
G1X22.082Y4.271
G1X21.804Y3.773
G1X21.460Y3.251
G1X21.186Y2.938
G1X21.055Y2.798
G1X20.994Y2.693
G1X20.796Y2.387
G1X20.496Y2.023
G1X20.028Y1.551
G1X19.498Y1.090
G1X18.928Y0.653
G1X18.230Y0.189
G1X17.487Y-0.221
G1X16.724Y-0.545
G1X16.265Y-0.698
G1X15.801Y-0.824
G1X15.579Y-0.866
G1X14.976Y-0.981
G1X14.445Y-1.034
G1X14.098Y-1.069
G1X13.196Y-1.098
G1X12.266Y-1.083
G1X10.408Y-1.022
G2X9.043Y-0.647I0.100J3.034
G1X8.779Y-0.501
G1X8.560Y-0.392
G1X8.264Y-0.261
G1X7.799Y-0.059
G1X7.427Y0.102
G1X6.536Y0.533
G1X5.765Y0.949
G1X5.341Y1.214
G1X4.982Y1.489
G1X3.984Y2.408
G1X3.635Y2.741
G1X3.257Y3.139
G1X2.899Y3.553
G1X2.631Y3.901
G1X2.483Y4.101
G1X2.257Y4.406
G1X1.852Y4.908
G1X1.571Y5.271
G1X1.259Y5.766
G1X0.945Y6.422
G1X0.835Y6.891
G1X0.815Y6.981
G1X0.767Y7.106
G1X0.520Y7.651
G1X0.026Y8.666
G1X-0.143Y9.117
G1X-0.261Y9.612
G1X-0.330Y10.078
G1X-0.348Y10.386
G1X-0.359Y10.549
G1X-0.392Y10.810
G1X-0.550Y11.758
G1X-0.702Y12.688
G1X-0.764Y13.220
G1X-0.804Y13.732
G1X-0.823Y14.246
G1X-0.820Y14.762
G1X-0.817Y14.816
G1X-0.794Y15.278Z-1.974F889.0
G1X-0.744Y15.796Z-2.052
G1X-0.672Y16.312Z-2.131
G1X-0.572Y16.855Z-2.213
G1X-0.329Y17.857Z-2.368
G1X-0.002Y18.907Z-2.533
G1X0.378Y19.955Z-2.700
G1X0.679Y20.784Z-2.833
G1X0.812Y21.213Z-2.900
G1X0.862Y21.375Z-2.925
G1X1.011Y21.800Z-2.993
G1X1.261Y22.344Z-3.083
G1X1.538Y22.880Z-3.173
G1X1.830Y23.400Z-3.263
G1X2.474Y24.492Z-3.453
G1X3.063Y25.212Z-3.592
G1X3.214Y25.409Z-3.630
G1X3.462Y25.707Z-3.688
G1X3.803Y26.071Z-3.763
G1X4.032Y26.289Z-3.810
G1X4.163Y26.416F1778.0
G1X4.459Y26.666
G1X4.622Y26.796Z-3.810
G1X4.813Y27.032Z-3.810
G1X5.056Y27.304
G1X5.428Y27.656
G1X5.815Y27.984
G1X6.247Y28.322
G1X7.139Y28.965
G1X7.790Y29.442
G1X7.932Y29.557
G1X8.037Y29.654
G1X8.348Y29.937
G1X8.901Y30.296
G1X9.267Y30.456
G1X9.775Y30.625
G1X9.823Y30.655
G1X10.086Y30.811
G1X10.360Y30.974
G1X11.056Y31.305
G1X11.777Y31.591
G1X12.531Y31.848
G1X13.322Y32.081
G1X14.147Y32.293
G1X14.867Y32.456
G1X15.002Y32.487
G1X15.881Y32.660
G1X16.153Y32.707
G1X16.779Y32.814
G1X17.689Y32.946
G1X18.604Y33.056
G1X19.517Y33.141
G1X20.422Y33.200
G1X21.314Y33.231
G1X22.188Y33.231
G1X23.042Y33.196
G1X24.162Y33.093
G1X25.291Y32.932
G1X26.418Y32.714
G1X27.443Y32.467
G1X27.538Y32.444
G1X28.648Y32.121
G1X29.640Y31.782
G1X29.743Y31.747
G1X30.816Y31.323
G1X31.828Y30.866
G1X34.079Y29.781
G1X34.669Y29.216
G1X34.901Y29.026
G1X35.345Y28.716
G1X35.630Y28.516
G1X35.672Y28.483
G1X36.004Y28.219
G1X36.693Y27.615
G1X37.428Y26.919
G1X38.161Y26.183
G1X38.213Y26.128
G1X38.853Y25.450
G1X39.471Y24.750
G1X39.989Y24.086
G1X40.175Y23.782
G1X40.367Y23.417
G1X40.373Y23.408
G1X40.588Y23.156
G1X41.134Y22.489
G1X41.499Y21.954
G1X41.661Y21.591
G1X41.831Y21.098
G1X43.227Y18.212
G1X43.408Y17.855
G1X43.548Y17.513
G1X43.573Y17.452
G1X43.703Y16.995
G1X43.759Y16.696
G1X43.785Y16.527
G1X44.063Y15.751
G1X44.417Y14.070
G1X44.569Y13.300
G1X44.706Y12.506
G1X44.815Y11.765
G1X44.845Y11.491
G2X45.244Y9.986I-2.636J-1.504
G1Y8.170
G1X44.482Y3.221
G1X43.989Y1.080
G2X42.107Y-1.077I-2.958J0.682
G2X41.031Y-1.274I-1.076J2.838
G1X35.299Y-1.274Z-3.810
G1X28.468Y-1.274Z-3.810
G1X27.402Y-1.274
G1X26.945Y-1.250
G1X26.420Y-1.166
G1X25.911Y-1.029
G1X25.571Y-0.899
G2X23.884Y3.162I1.089J2.833
G1X24.543Y4.653
G1X25.131Y8.474
G1X25.053Y9.204
G1X24.852Y10.646
G1X24.823Y10.783
G1X24.769Y10.950
G1X24.668Y11.196
G1X24.528Y11.483
G1X24.358Y11.782
G1X24.172Y12.070
G1X23.984Y12.323
G1X23.813Y12.523
G1X23.702Y12.634
G1X23.497Y12.813
G1X23.235Y13.023
G1X22.960Y13.227
G1X22.717Y13.393
G1X22.661Y13.427
G1X22.424Y13.508
G1X22.141Y13.617
G1X21.500Y13.911
G1X21.419Y13.948
G1X21.360Y13.953
G1X21.112Y13.961
G1X20.264Y13.956
G1X20.535Y13.798
G1X21.167Y13.265
G1X21.666Y12.703
G1X22.055Y12.160
G1X22.287Y11.796
G1X22.518Y11.370
G1X22.732Y10.843
G1X22.879Y10.280
G1X22.952Y9.754
G1X22.982Y9.261
G1X22.987Y8.308
G1X22.959Y7.409
G1X22.920Y6.941
G1X22.858Y6.488
G1X22.764Y6.033
G1X22.628Y5.550
G1X22.343Y4.813
G1X22.082Y4.271
G1X21.804Y3.773
G1X21.460Y3.251
G1X21.186Y2.938
G1X21.055Y2.798
G1X20.994Y2.693
G1X20.796Y2.387
G1X20.496Y2.023
G1X20.028Y1.551
G1X19.498Y1.090
G1X18.928Y0.653
G1X18.230Y0.189
G1X17.487Y-0.221
G1X16.724Y-0.545
G1X16.265Y-0.698
G1X15.801Y-0.824
G1X15.579Y-0.866
G1X14.976Y-0.981
G1X14.445Y-1.034
G1X14.098Y-1.069
G1X13.196Y-1.098
G1X12.266Y-1.083
G1X10.408Y-1.022
G2X9.043Y-0.647I0.100J3.034
G1X8.779Y-0.501
G1X8.560Y-0.392
G1X8.264Y-0.261
G1X7.799Y-0.059Z-3.810
G1X7.427Y0.102Z-3.810
G1X6.536Y0.533
G1X5.765Y0.949
G1X5.341Y1.214
G1X4.982Y1.489
G1X3.984Y2.408
G1X3.635Y2.741
G1X3.257Y3.139
G1X2.899Y3.553
G1X2.631Y3.901
G1X2.483Y4.101
G1X2.257Y4.406
G1X1.852Y4.908
G1X1.571Y5.271
G1X1.259Y5.766
G1X0.945Y6.422
G1X0.835Y6.891
G1X0.815Y6.981
G1X0.767Y7.106
G1X0.520Y7.651
G1X0.026Y8.666
G1X-0.143Y9.117
G1X-0.261Y9.612
G1X-0.330Y10.078
G1X-0.348Y10.386
G1X-0.359Y10.549
G1X-0.392Y10.810
G1X-0.550Y11.758
G1X-0.702Y12.688
G1X-0.764Y13.220
G1X-0.804Y13.732
G1X-0.823Y14.246
G1X-0.820Y14.762
G1X-0.817Y14.816
G1X-0.794Y15.278
G1X-0.744Y15.796
G1X-0.672Y16.312
G1X-0.572Y16.855
G1X-0.329Y17.857
G1X-0.002Y18.907
G1X0.378Y19.955
G1X0.679Y20.784
G1X0.812Y21.213
G1X0.862Y21.375
G1X1.011Y21.800
G1X1.261Y22.344
G1X1.538Y22.880
G1X1.830Y23.400
G1X2.474Y24.492
G1X3.063Y25.212
G1X3.214Y25.409
G1X3.462Y25.707
G1X3.803Y26.071
G1X4.032Y26.289
G1X4.163Y26.416Z-3.837F889.0
G1X4.459Y26.666Z-3.895
G1X4.622Y26.796Z-3.810
G1X4.813Y27.032Z-3.972
G1X5.056Y27.304Z-4.027
G1X5.428Y27.656Z-4.104
G1X5.815Y27.984Z-4.180
G1X6.247Y28.322Z-4.262
G1X7.139Y28.965Z-4.427
G1X7.790Y29.442Z-4.548
G1X7.932Y29.557Z-4.576
G1X8.037Y29.654Z-4.597
G1X8.348Y29.937Z-4.660
G1X8.901Y30.296Z-4.759
G1X9.267Y30.456Z-4.819
G1X9.775Y30.625Z-4.899
G1X9.823Y30.655Z-4.908
G1X10.086Y30.811Z-4.954
G1X10.360Y30.974Z-5.001
G1X11.056Y31.305Z-5.117
G1X11.777Y31.591Z-5.233
G1X12.531Y31.848Z-5.353
G1X13.322Y32.081Z-5.477
G1X14.147Y32.293Z-5.604
G1X14.867Y32.456Z-5.715
G1X15.002Y32.487F1778.0
G1X15.881Y32.660
G1X16.153Y32.707
G1X16.779Y32.814
G1X17.689Y32.946
G1X18.604Y33.056
G1X19.517Y33.141
G1X20.422Y33.200
G1X21.314Y33.231Z-5.650
G1X22.188Y33.231Z-4.677
G1X23.042Y33.196Z-3.894
G1X24.162Y33.093Z-5.146
G1X25.291Y32.932Z-5.715
G1X26.418Y32.714
G1X27.443Y32.467
G1X27.538Y32.444
G1X28.648Y32.121
G1X29.640Y31.782
G1X29.743Y31.747
G1X30.816Y31.323
G1X31.828Y30.866
G1X34.079Y29.781
G1X34.669Y29.216
G1X34.901Y29.026
G1X35.345Y28.716
G1X35.630Y28.516
G1X35.672Y28.483
G1X36.004Y28.219
G1X36.693Y27.615
G1X37.428Y26.919
G1X38.161Y26.183
G1X38.213Y26.128
G1X38.853Y25.450
G1X39.471Y24.750Z-5.494
G1X39.989Y24.086Z-4.556
G1X40.175Y23.782Z-4.159
G1X40.367Y23.417Z-3.920
G1X40.373Y23.408Z-3.932
G1X40.588Y23.156Z-4.301
G1X41.134Y22.489Z-5.260
G1X41.499Y21.954Z-5.715
G1X41.661Y21.591
G1X41.831Y21.098
G1X43.227Y18.212
G1X43.408Y17.855
G1X43.548Y17.513
G1X43.573Y17.452
G1X43.703Y16.995
G1X43.759Y16.696
G1X43.785Y16.527
G1X44.063Y15.751
G1X44.417Y14.070
G1X44.569Y13.300
G1X44.706Y12.506
G1X44.815Y11.765
G1X44.845Y11.491
G2X45.244Y9.986I-2.636J-1.504
G1Y8.170
G1X44.482Y3.221
G1X43.989Y1.080
G2X42.107Y-1.077I-2.958J0.682
G2X41.031Y-1.274I-1.076J2.838
G1X35.299Y-1.274Z-3.810
G1X28.468Y-1.274Z-5.715
G1X27.402Y-1.274
G1X26.945Y-1.250
G1X26.420Y-1.166
G1X25.911Y-1.029
G1X25.571Y-0.899
G2X23.884Y3.162I1.089J2.833
G1X24.543Y4.653
G1X25.131Y8.474
G1X25.053Y9.204
G1X24.852Y10.646
G1X24.823Y10.783
G1X24.769Y10.950
G1X24.668Y11.196
G1X24.528Y11.483
G1X24.358Y11.782
G1X24.172Y12.070
G1X23.984Y12.323
G1X23.813Y12.523
G1X23.702Y12.634
G1X23.497Y12.813
G1X23.235Y13.023
G1X22.960Y13.227
G1X22.717Y13.393
G1X22.661Y13.427
G1X22.424Y13.508
G1X22.141Y13.617
G1X21.500Y13.911
G1X21.419Y13.948
G1X21.360Y13.953
G1X21.112Y13.961
G1X20.264Y13.956
G1X20.535Y13.798
G1X21.167Y13.265
G1X21.666Y12.703
G1X22.055Y12.160
G1X22.287Y11.796
G1X22.518Y11.370
G1X22.732Y10.843
G1X22.879Y10.280
G1X22.952Y9.754
G1X22.982Y9.261
G1X22.987Y8.308
G1X22.959Y7.409
G1X22.920Y6.941
G1X22.858Y6.488
G1X22.764Y6.033
G1X22.628Y5.550
G1X22.343Y4.813
G1X22.082Y4.271Z-5.710
G1X21.804Y3.773Z-5.076
G1X21.460Y3.251Z-4.380
G1X21.186Y2.938Z-3.917
G1X21.055Y2.798Z-3.916
G1X20.994Y2.693Z-4.052
G1X20.796Y2.387Z-4.458
G1X20.496Y2.023Z-4.983
G1X20.028Y1.551Z-5.715
G1X19.498Y1.090
G1X18.928Y0.653
G1X18.230Y0.189
G1X17.487Y-0.221
G1X16.724Y-0.545
G1X16.265Y-0.698
G1X15.801Y-0.824
G1X15.579Y-0.866
G1X14.976Y-0.981
G1X14.445Y-1.034
G1X14.098Y-1.069
G1X13.196Y-1.098
G1X12.266Y-1.083
G1X10.408Y-1.022
G1X10.266Y-1.014Z-5.678
G1X10.125Y-1.000Z-5.640
G1X9.983Y-0.978Z-5.603
G1X9.842Y-0.950Z-5.566
G1X9.703Y-0.915Z-5.529
G1X9.566Y-0.874Z-5.491
G1X9.430Y-0.826Z-5.454
G1X9.298Y-0.772Z-5.417
G1X9.169Y-0.712Z-5.380
G1X9.043Y-0.647Z-5.342
G1X8.779Y-0.501Z-5.007
G1X8.560Y-0.392Z-4.734
G1X8.264Y-0.261Z-4.375
G1X7.799Y-0.059Z-3.810
G1X7.427Y0.102Z-4.261
G1X6.536Y0.533Z-5.363
G1X5.765Y0.949Z-5.715
G1X5.341Y1.214
G1X4.982Y1.489
G1X3.984Y2.408
G1X3.635Y2.741
G1X3.257Y3.139
G1X2.899Y3.553
G1X2.631Y3.901
G1X2.483Y4.101
G1X2.257Y4.406
G1X1.852Y4.908
G1X1.571Y5.271
G1X1.259Y5.766
G1X0.945Y6.422
G1X0.835Y6.891
G1X0.815Y6.981
G1X0.767Y7.106
G1X0.520Y7.651
G1X0.026Y8.666
G1X-0.143Y9.117
G1X-0.261Y9.612
G1X-0.330Y10.078
G1X-0.348Y10.386
G1X-0.359Y10.549
G1X-0.392Y10.810
G1X-0.550Y11.758
G1X-0.702Y12.688
G1X-0.764Y13.220
G1X-0.804Y13.732
G1X-0.823Y14.246
G1X-0.820Y14.762
G1X-0.817Y14.816
G1X-0.794Y15.278
G1X-0.744Y15.796
G1X-0.672Y16.312
G1X-0.572Y16.855
G1X-0.329Y17.857
G1X-0.002Y18.907
G1X0.378Y19.955
G1X0.679Y20.784
G1X0.812Y21.213
G1X0.862Y21.375
G1X1.011Y21.800
G1X1.261Y22.344
G1X1.538Y22.880
G1X1.830Y23.400
G1X2.474Y24.492
G1X3.063Y25.212
G1X3.214Y25.409
G1X3.462Y25.707Z-5.583
G1X3.803Y26.071Z-5.028
G1X4.032Y26.289Z-4.677
G1X4.163Y26.416Z-4.473
G1X4.459Y26.666Z-4.042
G1X4.622Y26.796Z-3.810
G1X4.813Y27.032Z-4.148
G1X5.056Y27.304Z-4.554
G1X5.428Y27.656Z-5.124
G1X5.815Y27.984Z-5.688
G1X6.247Y28.322Z-5.715
G1X7.139Y28.965
G1X7.790Y29.442
G1X7.932Y29.557
G1X8.037Y29.654
G1X8.348Y29.937
G1X8.901Y30.296
G1X9.267Y30.456
G1X9.775Y30.625
G1X9.823Y30.655
G1X10.086Y30.811
G1X10.360Y30.974
G1X11.056Y31.305
G1X11.777Y31.591
G1X12.531Y31.848
G1X13.322Y32.081
G1X14.147Y32.293
G1X14.867Y32.456
G1X15.002Y32.487Z-5.736F889.0
G1X15.881Y32.660Z-5.870
G1X16.153Y32.707Z-5.912
G1X16.779Y32.814Z-6.007
G1X17.689Y32.946Z-6.145
G1X18.604Y33.056Z-6.283
G1X19.517Y33.141Z-6.421
G1X20.422Y33.200Z-6.557
G1X21.314Y33.231Z-5.650
G1X22.188Y33.231Z-4.677
G1X23.042Y33.196Z-3.894
G1X24.162Y33.093Z-5.146
G1X25.291Y32.932Z-6.416
G1X26.418Y32.714Z-7.462
G1X27.443Y32.467Z-7.620
G1X27.538Y32.444F1778.0
G1X28.648Y32.121
G1X29.640Y31.782
G1X29.743Y31.747
G1X30.816Y31.323
G1X31.828Y30.866
G1X34.079Y29.781
G1X34.669Y29.216
G1X34.901Y29.026
G1X35.345Y28.716
G1X35.630Y28.516
G1X35.672Y28.483
G1X36.004Y28.219
G1X36.693Y27.615
G1X37.428Y26.919
G1X38.161Y26.183
G1X38.213Y26.128Z-7.571
G1X38.853Y25.450Z-6.533
G1X39.471Y24.750Z-5.494
G1X39.989Y24.086Z-4.556
G1X40.175Y23.782Z-4.159
G1X40.367Y23.417Z-3.920
G1X40.373Y23.408Z-3.932
G1X40.588Y23.156Z-4.301
G1X41.134Y22.489Z-5.260
G1X41.499Y21.954Z-5.981
G1X41.661Y21.591Z-6.424
G1X41.831Y21.098Z-7.005
G1X43.227Y18.212Z-7.620
G1X43.408Y17.855
G1X43.548Y17.513
G1X43.573Y17.452
G1X43.703Y16.995
G1X43.759Y16.696
G1X43.785Y16.527
G1X44.063Y15.751
G1X44.417Y14.070
G1X44.569Y13.300
G1X44.706Y12.506
G1X44.815Y11.765
G1X44.845Y11.491
G2X45.244Y9.986I-2.636J-1.504
G1Y8.170
G1X44.482Y3.221
G1X43.989Y1.080
G2X42.107Y-1.077I-2.958J0.682
G2X41.031Y-1.274I-1.076J2.838
G1X35.299Y-1.274Z-3.810
G1X28.468Y-1.274Z-7.620
G1X27.402Y-1.274
G1X26.945Y-1.250
G1X26.420Y-1.166
G1X25.911Y-1.029
G1X25.571Y-0.899
G2X23.884Y3.162I1.089J2.833
G1X24.543Y4.653
G1X25.131Y8.474
G1X25.053Y9.204
G1X24.852Y10.646
G1X24.823Y10.783
G1X24.769Y10.950
G1X24.668Y11.196
G1X24.528Y11.483
G1X24.358Y11.782
G1X24.172Y12.070
G1X23.984Y12.323
G1X23.813Y12.523
G1X23.702Y12.634
G1X23.497Y12.813
G1X23.235Y13.023
G1X22.960Y13.227
G1X22.717Y13.393
G1X22.661Y13.427
G1X22.424Y13.508
G1X22.141Y13.617
G1X21.500Y13.911
G1X21.419Y13.948
G1X21.360Y13.953
G1X21.112Y13.961
G1X20.264Y13.956
G1X20.535Y13.798
G1X21.167Y13.265
G1X21.666Y12.703
G1X22.055Y12.160
G1X22.287Y11.796
G1X22.518Y11.370
G1X22.732Y10.843
G1X22.879Y10.280
G1X22.952Y9.754
G1X22.982Y9.261
G1X22.987Y8.308
G1X22.959Y7.409
G1X22.920Y6.941
G1X22.858Y6.488
G1X22.764Y6.033
G1X22.628Y5.550Z-7.260
G1X22.343Y4.813Z-6.381
G1X22.082Y4.271Z-5.710
G1X21.804Y3.773Z-5.076
G1X21.460Y3.251Z-4.380
G1X21.186Y2.938Z-3.917
G1X21.055Y2.798Z-3.916
G1X20.994Y2.693Z-4.052
G1X20.796Y2.387Z-4.458
G1X20.496Y2.023Z-4.983
G1X20.028Y1.551Z-5.723
G1X19.498Y1.090Z-6.505
G1X18.928Y0.653Z-7.304
G1X18.230Y0.189Z-7.620
G1X17.487Y-0.221
G1X16.724Y-0.545
G1X16.265Y-0.698
G1X15.801Y-0.824
G1X15.579Y-0.866
G1X14.976Y-0.981
G1X14.445Y-1.034
G1X14.098Y-1.069
G1X13.196Y-1.098
G1X12.266Y-1.083
G1X10.408Y-1.022Z-6.933
G1X10.266Y-1.014Z-6.774
G1X10.125Y-1.000Z-6.615
G1X9.983Y-0.978Z-6.456
G1X9.842Y-0.950Z-6.297
G1X9.703Y-0.915Z-6.138
G1X9.566Y-0.874Z-5.979
G1X9.430Y-0.826Z-5.820
G1X9.298Y-0.772Z-5.661
G1X9.169Y-0.712Z-5.501
G1X9.043Y-0.647Z-5.342
G1X8.779Y-0.501Z-5.007
G1X8.560Y-0.392Z-4.734
G1X8.264Y-0.261Z-4.375
G1X7.799Y-0.059Z-3.810
G1X7.427Y0.102Z-4.261
G1X6.536Y0.533Z-5.363
G1X5.765Y0.949Z-6.338
G1X5.341Y1.214Z-6.895
G1X4.982Y1.489Z-7.398
G1X3.984Y2.408Z-7.620
G1X3.635Y2.741
G1X3.257Y3.139
G1X2.899Y3.553
G1X2.631Y3.901
G1X2.483Y4.101
G1X2.257Y4.406
G1X1.852Y4.908
G1X1.571Y5.271
G1X1.259Y5.766
G1X0.945Y6.422
G1X0.835Y6.891
G1X0.815Y6.981
G1X0.767Y7.106
G1X0.520Y7.651
G1X0.026Y8.666
G1X-0.143Y9.117
G1X-0.261Y9.612
G1X-0.330Y10.078
G1X-0.348Y10.386
G1X-0.359Y10.549
G1X-0.392Y10.810
G1X-0.550Y11.758
G1X-0.702Y12.688
G1X-0.764Y13.220
G1X-0.804Y13.732
G1X-0.823Y14.246
G1X-0.820Y14.762
G1X-0.817Y14.816
G1X-0.794Y15.278
G1X-0.744Y15.796
G1X-0.672Y16.312
G1X-0.572Y16.855
G1X-0.329Y17.857
G1X-0.002Y18.907
G1X0.378Y19.955
G1X0.679Y20.784
G1X0.812Y21.213
G1X0.862Y21.375
G1X1.011Y21.800
G1X1.261Y22.344
G1X1.538Y22.880
G1X1.830Y23.400
G1X2.474Y24.492Z-7.327
G1X3.063Y25.212Z-6.292
G1X3.214Y25.409Z-6.015
G1X3.462Y25.707Z-5.583
G1X3.803Y26.071Z-5.028
G1X4.032Y26.289Z-4.677
G1X4.163Y26.416Z-4.473
G1X4.459Y26.666Z-4.042
G1X4.622Y26.796Z-3.810
G1X4.813Y27.032Z-4.148
G1X5.056Y27.304Z-4.554
G1X5.428Y27.656Z-5.124
G1X5.815Y27.984Z-5.688
G1X6.247Y28.322Z-6.299
G1X7.139Y28.965Z-7.523
G1X7.790Y29.442Z-7.620
G1X7.932Y29.557
G1X8.037Y29.654
G1X8.348Y29.937
G1X8.901Y30.296
G1X9.267Y30.456
G1X9.775Y30.625
G1X9.823Y30.655
G1X10.086Y30.811
G1X10.360Y30.974
G1X11.056Y31.305
G1X11.777Y31.591
G1X12.531Y31.848
G1X13.322Y32.081
G1X14.147Y32.293
G1X14.867Y32.456
G1X15.002Y32.487
G1X15.881Y32.660
G1X16.153Y32.707
G1X16.779Y32.814
G1X17.689Y32.946
G1X18.604Y33.056
G1X19.517Y33.141
G1X20.422Y33.200Z-6.643
G1X21.314Y33.231Z-5.650
G1X22.188Y33.231Z-4.677
G1X23.042Y33.196Z-3.894
G1X24.162Y33.093Z-5.146
G1X25.291Y32.932Z-6.416
G1X26.418Y32.714Z-7.620
G1X27.443Y32.467
G1X27.538Y32.444Z-7.635F889.0
G1X28.648Y32.121Z-7.808
G1X29.640Y31.782Z-7.965
G1X29.743Y31.747Z-7.981
G1X30.816Y31.323Z-8.155
G1X31.828Y30.866Z-8.321
G1X34.079Y29.781Z-8.696
G1X34.669Y29.216Z-8.819
G1X34.901Y29.026Z-8.863
G1X35.345Y28.716Z-8.945
G1X35.630Y28.516Z-8.997
G1X35.672Y28.483Z-9.005
G1X36.004Y28.219Z-9.069
G1X36.693Y27.615Z-9.206
G1X37.428Y26.919Z-8.811
G1X38.161Y26.183Z-7.654
G1X38.213Y26.128Z-7.571
G1X38.853Y25.450Z-6.533F1778.0
G1X39.471Y24.750Z-5.494
G1X39.989Y24.086Z-4.556
G1X40.175Y23.782Z-4.159
G1X40.367Y23.417Z-3.920
G1X40.373Y23.408Z-3.932
G1X40.588Y23.156Z-4.301
G1X41.134Y22.489Z-5.260
G1X41.499Y21.954Z-5.981
G1X41.661Y21.591Z-6.424
G1X41.831Y21.098Z-7.005
G1X43.227Y18.212Z-9.525
G1X43.408Y17.855
G1X43.548Y17.513
G1X43.573Y17.452
G1X43.703Y16.995
G1X43.759Y16.696
G1X43.785Y16.527
G1X44.063Y15.751
G1X44.417Y14.070
G1X44.569Y13.300
G1X44.706Y12.506
G1X44.815Y11.765
G1X44.845Y11.491
G2X45.244Y9.986I-2.636J-1.504
G1Y8.170
G1X44.482Y3.221
G1X43.989Y1.080
G2X42.107Y-1.077I-2.958J0.682
G2X41.031Y-1.274I-1.076J2.838
G1X35.299Y-1.274Z-3.810
G1X28.468Y-1.274Z-9.525
G1X27.402Y-1.274
G1X26.945Y-1.250
G1X26.420Y-1.166
G1X25.911Y-1.029
G1X25.571Y-0.899
G2X23.884Y3.162I1.089J2.833
G1X24.543Y4.653
G1X25.131Y8.474
G1X25.053Y9.204
G1X24.852Y10.646
G1X24.823Y10.783
G1X24.769Y10.950
G1X24.668Y11.196
G1X24.528Y11.483
G1X24.358Y11.782
G1X24.172Y12.070
G1X23.984Y12.323
G1X23.813Y12.523
G1X23.702Y12.634
G1X23.497Y12.813
G1X23.235Y13.023
G1X22.960Y13.227
G1X22.717Y13.393
G1X22.661Y13.427
G1X22.424Y13.508
G1X22.141Y13.617
G1X21.500Y13.911
G1X21.419Y13.948
G1X21.360Y13.953
G1X21.112Y13.961
G1X20.264Y13.956
G1X20.535Y13.798
G1X21.167Y13.265
G1X21.666Y12.703
G1X22.055Y12.160
G1X22.287Y11.796
G1X22.518Y11.370
G1X22.732Y10.843
G1X22.879Y10.280
G1X22.952Y9.754
G1X22.982Y9.261
G1X22.987Y8.308
G1X22.959Y7.409Z-9.368
G1X22.920Y6.941Z-8.845
G1X22.858Y6.488Z-8.336
G1X22.764Y6.033Z-7.819
G1X22.628Y5.550Z-7.260
G1X22.343Y4.813Z-6.381
G1X22.082Y4.271Z-5.710
G1X21.804Y3.773Z-5.076
G1X21.460Y3.251Z-4.380
G1X21.186Y2.938Z-3.917
G1X21.055Y2.798Z-3.916
G1X20.994Y2.693Z-4.052
G1X20.796Y2.387Z-4.458
G1X20.496Y2.023Z-4.983
G1X20.028Y1.551Z-5.723
G1X19.498Y1.090Z-6.505
G1X18.928Y0.653Z-7.304
G1X18.230Y0.189Z-8.238
G1X17.487Y-0.221Z-9.182
G1X16.724Y-0.545Z-9.525
G1X16.265Y-0.698
G1X15.801Y-0.824
G1X15.579Y-0.866
G1X14.976Y-0.981
G1X14.445Y-1.034
G1X14.098Y-1.069
G1X13.196Y-1.098
G1X12.266Y-1.083Z-9.003
G1X10.408Y-1.022Z-6.933
G1X10.266Y-1.014Z-6.774
G1X10.125Y-1.000Z-6.615
G1X9.983Y-0.978Z-6.456
G1X9.842Y-0.950Z-6.297
G1X9.703Y-0.915Z-6.138
G1X9.566Y-0.874Z-5.979
G1X9.430Y-0.826Z-5.820
G1X9.298Y-0.772Z-5.661
G1X9.169Y-0.712Z-5.501
G1X9.043Y-0.647Z-5.342
G1X8.779Y-0.501Z-5.007
G1X8.560Y-0.392Z-4.734
G1X8.264Y-0.261Z-4.375
G1X7.799Y-0.059Z-3.810
G1X7.427Y0.102Z-4.261
G1X6.536Y0.533Z-5.363
G1X5.765Y0.949Z-6.338
G1X5.341Y1.214Z-6.895
G1X4.982Y1.489Z-7.398
G1X3.984Y2.408Z-8.908
G1X3.635Y2.741Z-9.445
G1X3.257Y3.139Z-9.525
G1X2.899Y3.553
G1X2.631Y3.901
G1X2.483Y4.101
G1X2.257Y4.406
G1X1.852Y4.908
G1X1.571Y5.271
G1X1.259Y5.766
G1X0.945Y6.422
G1X0.835Y6.891
G1X0.815Y6.981
G1X0.767Y7.106
G1X0.520Y7.651
G1X0.026Y8.666
G1X-0.143Y9.117
G1X-0.261Y9.612
G1X-0.330Y10.078
G1X-0.348Y10.386
G1X-0.359Y10.549
G1X-0.392Y10.810
G1X-0.550Y11.758
G1X-0.702Y12.688
G1X-0.764Y13.220
G1X-0.804Y13.732
G1X-0.823Y14.246
G1X-0.820Y14.762
G1X-0.817Y14.816
G1X-0.794Y15.278
G1X-0.744Y15.796
G1X-0.672Y16.312
G1X-0.572Y16.855
G1X-0.329Y17.857
G1X-0.002Y18.907
G1X0.378Y19.955
G1X0.679Y20.784
G1X0.812Y21.213
G1X0.862Y21.375
G1X1.011Y21.800
G1X1.261Y22.344
G1X1.538Y22.880Z-9.403
G1X1.830Y23.400Z-8.738
G1X2.474Y24.492Z-7.327
G1X3.063Y25.212Z-6.292
G1X3.214Y25.409Z-6.015
G1X3.462Y25.707Z-5.583
G1X3.803Y26.071Z-5.028
G1X4.032Y26.289Z-4.677
G1X4.163Y26.416Z-4.473
G1X4.459Y26.666Z-4.042
G1X4.622Y26.796Z-3.810
G1X4.813Y27.032Z-4.148
G1X5.056Y27.304Z-4.554
G1X5.428Y27.656Z-5.124
G1X5.815Y27.984Z-5.688
G1X6.247Y28.322Z-6.299
G1X7.139Y28.965Z-7.523
G1X7.790Y29.442Z-8.422
G1X7.932Y29.557Z-8.625
G1X8.037Y29.654Z-8.784
G1X8.348Y29.937Z-9.252
G1X8.901Y30.296Z-9.525
G1X9.267Y30.456
G1X9.775Y30.625
G1X9.823Y30.655
G1X10.086Y30.811
G1X10.360Y30.974
G1X11.056Y31.305
G1X11.777Y31.591
G1X12.531Y31.848
G1X13.322Y32.081
G1X14.147Y32.293
G1X14.867Y32.456
G1X15.002Y32.487
G1X15.881Y32.660
G1X16.153Y32.707
G1X16.779Y32.814
G1X17.689Y32.946
G1X18.604Y33.056Z-8.674
G1X19.517Y33.141Z-7.653
G1X20.422Y33.200Z-6.643
G1X21.314Y33.231Z-5.650
G1X22.188Y33.231Z-4.677
G1X23.042Y33.196Z-3.894
G1X24.162Y33.093Z-5.146
G1X25.291Y32.932Z-6.416
G1X26.418Y32.714Z-7.693
G1X27.443Y32.467Z-8.868
G1X27.538Y32.444Z-8.977
G1X28.648Y32.121Z-9.525
G1X29.640Y31.782
G1X29.743Y31.747
G1X30.816Y31.323
G1X31.828Y30.866
G1X34.079Y29.781
G1X34.669Y29.216
G1X34.901Y29.026
G1X35.345Y28.716
G1X35.630Y28.516
G1X35.672Y28.483
G1X36.004Y28.219
G1X36.693Y27.615
G1X37.428Y26.919Z-8.811
G1X38.161Y26.183Z-7.654
G1X38.213Y26.128Z-7.571
G1X38.853Y25.450Z-6.533
G1X39.471Y24.750Z-5.494
G1X39.989Y24.086Z-4.556
G1X40.175Y23.782Z-4.159
G1X40.367Y23.417Z-3.920
G1X40.373Y23.408Z-3.932
G1X40.588Y23.156Z-4.301
G1X41.134Y22.489Z-5.260
G1X41.499Y21.954Z-5.981
G1X41.661Y21.591Z-6.424
G1X41.831Y21.098Z-7.005
G1X43.227Y18.212Z-10.573
G1X43.408Y17.855Z-11.019
G1X43.548Y17.513Z-11.430
G1X43.573Y17.452
G1X43.703Y16.995
G1X43.759Y16.696
G1X43.785Y16.527
G1X44.063Y15.751
G1X44.417Y14.070
G1X44.569Y13.300
G1X44.706Y12.506
G1X44.815Y11.765
G1X44.845Y11.491
G2X45.244Y9.986I-2.636J-1.504
G1Y8.170
G1X44.482Y3.221
G1X43.989Y1.080
G2X42.107Y-1.077I-2.958J0.682
G1X41.978Y-1.123Z-11.277
G1X41.846Y-1.163Z-11.123
G1X41.713Y-1.196Z-10.970
G1X41.578Y-1.224Z-10.817
G1X41.442Y-1.246Z-10.663
G1X41.305Y-1.262Z-10.510
G1X41.168Y-1.271Z-10.357
G1X41.031Y-1.274Z-10.203
G1X35.299Y-1.274Z-3.810
G1X28.468Y-1.274Z-11.430
G1X27.402Y-1.274
G1X26.945Y-1.250
G1X26.420Y-1.166
G1X25.911Y-1.029
G1X25.571Y-0.899
G2X23.884Y3.162I1.089J2.833
G1X24.543Y4.653
G1X25.131Y8.474
G1X25.053Y9.204
G1X24.852Y10.646
G1X24.823Y10.783
G1X24.769Y10.950
G1X24.668Y11.196
G1X24.528Y11.483
G1X24.358Y11.782
G1X24.172Y12.070
G1X23.984Y12.323
G1X23.813Y12.523
G1X23.702Y12.634
G1X23.497Y12.813
G1X23.235Y13.023
G1X22.960Y13.227
G1X22.717Y13.393
G1X22.661Y13.427
G1X22.424Y13.508
G1X22.141Y13.617
G1X21.500Y13.911
G1X21.419Y13.948
G1X21.360Y13.953
G1X21.112Y13.961
G1X20.264Y13.956
G1X20.535Y13.798
G1X21.167Y13.265
G1X21.666Y12.703
G1X22.055Y12.160
G1X22.287Y11.796
G1X22.518Y11.370
G1X22.732Y10.843
G1X22.879Y10.280
G1X22.952Y9.754
G1X22.982Y9.261
G1X22.987Y8.308Z-10.369
G1X22.959Y7.409Z-9.368
G1X22.920Y6.941Z-8.845
G1X22.858Y6.488Z-8.336
G1X22.764Y6.033Z-7.819
G1X22.628Y5.550Z-7.260
G1X22.343Y4.813Z-6.381
G1X22.082Y4.271Z-5.710
G1X21.804Y3.773Z-5.076
G1X21.460Y3.251Z-4.380
G1X21.186Y2.938Z-3.917
G1X21.055Y2.798Z-3.916
G1X20.994Y2.693Z-4.052
G1X20.796Y2.387Z-4.458
G1X20.496Y2.023Z-4.983
G1X20.028Y1.551Z-5.723
G1X19.498Y1.090Z-6.505
G1X18.928Y0.653Z-7.304
G1X18.230Y0.189Z-8.238
G1X17.487Y-0.221Z-9.182
G1X16.724Y-0.545Z-10.105
G1X16.265Y-0.698Z-10.643
G1X15.801Y-0.824Z-11.179
G1X15.579Y-0.866Z-11.430
G1X14.976Y-0.981
G1X14.445Y-1.034
G1X14.098Y-1.069Z-11.042
G1X13.196Y-1.098Z-10.038
G1X12.266Y-1.083Z-9.003
G1X10.408Y-1.022Z-6.933
G1X10.266Y-1.014Z-6.774
G1X10.125Y-1.000Z-6.615
G1X9.983Y-0.978Z-6.456
G1X9.842Y-0.950Z-6.297
G1X9.703Y-0.915Z-6.138
G1X9.566Y-0.874Z-5.979
G1X9.430Y-0.826Z-5.820
G1X9.298Y-0.772Z-5.661
G1X9.169Y-0.712Z-5.501
G1X9.043Y-0.647Z-5.342
G1X8.779Y-0.501Z-5.007
G1X8.560Y-0.392Z-4.734
G1X8.264Y-0.261Z-4.375
G1X7.799Y-0.059Z-3.810
G1X7.427Y0.102Z-4.261
G1X6.536Y0.533Z-5.363
G1X5.765Y0.949Z-6.338
G1X5.341Y1.214Z-6.895
G1X4.982Y1.489Z-7.398
G1X3.984Y2.408Z-8.908
G1X3.635Y2.741Z-9.445
G1X3.257Y3.139Z-10.056
G1X2.899Y3.553Z-10.665
G1X2.631Y3.901Z-11.153
G1X2.483Y4.101Z-11.430
G1X2.257Y4.406
G1X1.852Y4.908
G1X1.571Y5.271
G1X1.259Y5.766
G1X0.945Y6.422
G1X0.835Y6.891
G1X0.815Y6.981
G1X0.767Y7.106
G1X0.520Y7.651
G1X0.026Y8.666
G1X-0.143Y9.117
G1X-0.261Y9.612
G1X-0.330Y10.078
G1X-0.348Y10.386
G1X-0.359Y10.549
G1X-0.392Y10.810
G1X-0.550Y11.758
G1X-0.702Y12.688
G1X-0.764Y13.220
G1X-0.804Y13.732
G1X-0.823Y14.246
G1X-0.820Y14.762
G1X-0.817Y14.816
G1X-0.794Y15.278
G1X-0.744Y15.796
G1X-0.672Y16.312
G1X-0.572Y16.855
G1X-0.329Y17.857
G1X-0.002Y18.907
G1X0.378Y19.955
G1X0.679Y20.784
G1X0.812Y21.213
G1X0.862Y21.375Z-11.242
G1X1.011Y21.800Z-10.740
G1X1.261Y22.344Z-10.073
G1X1.538Y22.880Z-9.403
G1X1.830Y23.400Z-8.738
G1X2.474Y24.492Z-7.327
G1X3.063Y25.212Z-6.292
G1X3.214Y25.409Z-6.015
G1X3.462Y25.707Z-5.583
G1X3.803Y26.071Z-5.028
G1X4.032Y26.289Z-4.677
G1X4.163Y26.416Z-4.473
G1X4.459Y26.666Z-4.042
G1X4.622Y26.796Z-3.810
G1X4.813Y27.032Z-4.148
G1X5.056Y27.304Z-4.554
G1X5.428Y27.656Z-5.124
G1X5.815Y27.984Z-5.688
G1X6.247Y28.322Z-6.299
G1X7.139Y28.965Z-7.523
G1X7.790Y29.442Z-8.422
G1X7.932Y29.557Z-8.625
G1X8.037Y29.654Z-8.784
G1X8.348Y29.937Z-9.252
G1X8.901Y30.296Z-9.986
G1X9.267Y30.456Z-10.431
G1X9.775Y30.625Z-11.027
G1X9.823Y30.655Z-11.090
G1X10.086Y30.811Z-11.430
G1X10.360Y30.974
G1X11.056Y31.305
G1X11.777Y31.591
G1X12.531Y31.848
G1X13.322Y32.081
G1X14.147Y32.293
G1X14.867Y32.456
G1X15.002Y32.487
G1X15.881Y32.660
G1X16.153Y32.707
G1X16.779Y32.814Z-10.723
G1X17.689Y32.946Z-9.699
G1X18.604Y33.056Z-8.674
G1X19.517Y33.141Z-7.653
G1X20.422Y33.200Z-6.643
G1X21.314Y33.231Z-5.650
G1X22.188Y33.231Z-4.677
G1X23.042Y33.196Z-3.894
G1X24.162Y33.093Z-5.146
G1X25.291Y32.932Z-6.416
G1X26.418Y32.714Z-7.693
G1X27.443Y32.467Z-8.868
G1X27.538Y32.444Z-8.977
G1X28.648Y32.121Z-10.264
G1X29.640Y31.782Z-11.430
G1X29.743Y31.747
G1X30.816Y31.323
G1X31.828Y30.866
G1X34.079Y29.781
G1X34.669Y29.216
G1X34.901Y29.026
G1X35.345Y28.716
G1X35.630Y28.516
G1X35.672Y28.483
G1X36.004Y28.219Z-10.957
G1X36.693Y27.615Z-9.939
G1X37.428Y26.919Z-8.811
G1X38.161Y26.183Z-7.654
G1X38.213Y26.128Z-7.571
G0Z5.080
M5
G0Z5.080
G0X0.000Y0.000
M2
