(VECTRIC POST REVISION)
(FC16A22438222CB0A5088D1738135480)
T1
G17
G21
G90
G0Z5.080
G0X0.000Y0.000
S18000M3
G0X17.377Y0.001Z5.080
G1Z-2.794F1016.0
G1X8.265F2032.0
G1X7.321Y0.421
G1X6.339Y0.914
G1X5.705Y1.271
G1X5.209Y1.620
G1X4.195Y2.541
G1X11.135Z-2.793
G1X11.766Z-2.740
G1X12.239Z-2.735
G1X13.344Z-2.794
G1X20.599
G1X20.881Y2.966
G1X21.258Y3.404
G1X21.633Y3.963
G1X21.989Y4.634
G1X22.188Y5.081
G1X17.147
G1X16.989Z-2.775
G1X16.674Z-2.549
G1X16.044Z-2.208
G1X15.414Z-1.951
G1X14.941Z-1.810
G1X14.468Z-1.695
G1X13.996Z-1.570
G1X13.366Z-1.460
G1X12.263Z-1.339
G1X11.790Z-1.309
G1X11.160Z-1.233
G1X10.530Z-1.101
G1X9.742Z-1.056
G1X8.797Z-1.113
G1X8.167Z-1.250
G1X7.537Z-1.465
G1X7.064Z-1.695
G1X6.434Z-2.048
G1X5.961Z-2.349
G1X5.489Z-2.714
G1X5.331Z-2.794
G1X2.023
G1X1.698Y5.523
G1X1.400Y6.029
G1X1.176Y6.547
G1X1.050Y7.042
G1X0.799Y7.621
G1X3.480Z-2.792
G1X3.953Z-2.322
G1X4.900Z-1.549
G1X5.215Z-1.356
G1X5.689Z-1.137
G1X6.319Z-0.911
G1X6.950Z-0.762
G1X7.739Z-0.642
G1X8.370Z-0.609
G1X9.159Z-0.667
G1X9.632Z-0.748
G1X10.421Z-0.944
G1X11.209Z-1.252
G1X11.683Z-1.492
G1X12.314Z-1.743
G1X14.364Z-2.078
G1X15.626Z-2.348
G1X16.099Z-2.508
G1X16.572Z-2.738
G1X16.730Z-2.794
G1X22.724
G1X22.744Y8.686
G1X22.728Y9.476
G1X22.656Y10.117
G1X22.648Y10.161
G1X11.245
G1X11.086Z-2.661
G1X10.611Z-2.167
G1X9.819Z-1.524
G1X9.503Z-1.307
G1X8.869Z-0.977
G1X8.394Z-0.786
G1X7.919Z-0.668
G1X7.444Z-0.591
G1X6.969Z-0.559
G1X6.177Z-0.572
G1X5.702Z-0.653
G1X5.226Z-0.777
G1X4.751Z-0.969
G1X3.959Z-1.445
G1X3.484Z-1.808
G1X3.009Z-2.257
G1X2.534Z-2.789
G1X0.000Z-2.794
G1Y12.701
G1X2.055
G1X2.214Z-2.629
G1X2.530Z-2.237
G1X3.004Z-1.744
G1X3.637Z-1.214
G1X3.953Z-1.005
G1X4.427Z-0.764
G1X5.060Z-0.545
G1X5.534Z-0.446
G1X6.008Z-0.410
G1X6.641Z-0.456
G1X7.273Z-0.595
G1X7.747Z-0.758
G1X8.222Z-0.998
G1X8.538Z-1.206
G1X9.170Z-1.742
G1X9.487Z-2.051
G1X9.803Z-2.443
G1X9.961Z-2.665
G1X10.119Z-2.794
G1X21.345
G1X20.989Y13.083
G1X20.557Y13.463
G1X20.184Y13.723
G1X19.647Y14.017
G1X19.246Y14.172
G1X20.949Y14.201
G1X21.482Y14.185
G1X22.313Y13.809
G1X22.754Y13.654
G1X23.382Y13.214
G1X23.866Y12.810
G1X23.977Y12.701
G0Z5.080
G0X24.985Y2.541
G1Z-2.794F1016.0
G1X32.905F2032.0
G1X33.063Z-2.656
G1X33.380Z-2.232
G1X33.855Z-1.708
G1X34.330Z-1.293
G1X34.647Z-1.054
G1X34.964Z-0.870
G1X35.756Z-0.547
G1X36.231Z-0.415
G1X36.706Z-0.335
G1X37.182Z-0.312
G1X37.657Z-0.352
G1X38.290Z-0.493
G1X38.766Z-0.664
G1X39.399Z-0.983
G1X39.874Z-1.318
G1X40.508Z-1.877
G1X40.983Z-2.327
G1X41.300Z-2.690
G1X41.459Z-2.794
G1X43.993
G0Z5.080
G0X24.985
G1Z-2.794F1016.0
G1X24.795Y3.033F2032.0
G1X24.709Y3.461
G1X24.690Y3.876
G1X24.742Y4.362
G1X24.853Y5.081
G1X33.420
G1X33.578Z-2.775
G1X33.896Z-2.364
G1X34.372Z-1.847
G1X34.847Z-1.429
G1X35.323Z-1.090
G1X35.799Z-0.837
G1X36.275Z-0.656
G1X37.068Z-0.481
G1X37.544Z-0.432
G1X38.020Z-0.455
G1X38.496Z-0.531
G1X38.972Z-0.656
G1X39.448Z-0.837
G1X39.924Z-1.081
G1X40.400Z-1.423
G1X40.876Z-1.829
G1X41.193Z-2.165
G1X41.669Z-2.747
G1X41.828Z-2.794
G1X44.525
G1X44.915Y7.621
G1X42.060
G1X41.901Z-2.694
G1X41.267Z-2.015
G1X40.632Z-1.467
G1X40.156Z-1.137
G1X39.680Z-0.881
G1X39.204Z-0.689
G1X38.570Z-0.546
G1X38.094Z-0.489
G1X37.459Z-0.508
G1X36.825Z-0.626
G1X36.349Z-0.764
G1X35.873Z-0.991
G1X35.397Z-1.276
G1X34.921Z-1.652
G1X34.604Z-1.947
G1X34.286Z-2.289
G1X33.969Z-2.683
G1X33.810Z-2.794
G1X25.244
G1X25.374Y8.468
G1X25.228Y9.697
G1X25.163Y10.161
G1X33.729
G1X33.888Z-2.716
G1X34.205Z-2.329
G1X34.681Z-1.849
G1X35.315Z-1.314
G1X35.791Z-1.028
G1X36.267Z-0.791
G1X36.743Z-0.639
G1X37.377Z-0.510
G1X37.853Z-0.484
G1X38.329Z-0.507
G1X38.964Z-0.620
G1X39.440Z-0.768
G1X39.915Z-0.985
G1X40.391Z-1.265
G1X40.867Z-1.638
G1X41.343Z-2.068
G1X41.660Z-2.407
G1X41.978Z-2.794
G1X44.991
G1X44.959Y10.467
G1X44.853Y10.882
G1X44.685Y11.276
G1X44.612Y11.399
G1X44.462Y12.501
G1X44.427Y12.701
G1X41.573
G1X41.415Z-2.708
G1X40.939Z-2.232
G1X40.464Z-1.825
G1X39.671Z-1.262
G1X39.196Z-0.994
G1X38.720Z-0.804
G1X38.086Z-0.629
G1X37.610Z-0.549
G1X37.135Z-0.540
G1X36.501Z-0.627
G1X35.708Z-0.821
G1X35.232Z-1.019
G1X34.757Z-1.296
G1X34.281Z-1.670
G1X33.806Z-2.130
G1X33.330Z-2.649
G1X33.171Z-2.794
G1X23.977
G0Z5.080
G0X43.924Y15.241
G1Z-2.794F1016.0
G1X40.922F2032.0
G1X40.764Z-2.723
G1X40.448Z-2.370
G1X39.974Z-1.953
G1X39.342Z-1.498
G1X38.868Z-1.182
G1X38.552Z-1.000
G1X38.078Z-0.805
G1X37.604Z-0.673
G1X37.130Z-0.577
G1X36.498Z-0.536
G1X35.866Z-0.550
G1X35.392Z-0.614
G1X34.760Z-0.779
G1X34.286Z-0.964
G1X33.970Z-1.132
G1X33.496Z-1.473
G1X32.864Z-2.042
G1X32.548Z-2.379
G1X32.232Z-2.783
G1X30.178Z-2.794
G1X10.270
G1X10.112Z-2.704
G1X9.638Z-2.061
G1X9.322Z-1.703
G1X8.690Z-1.167
G1X8.216Z-0.840
G1X7.742Z-0.618
G1X7.268Z-0.462
G1X6.794Z-0.363
G1X6.320Z-0.325
G1X5.846Z-0.338
G1X5.214Z-0.445
G1X4.740Z-0.581
G1X4.266Z-0.786
G1X3.792Z-1.060
G1X3.476Z-1.297
G1X3.002Z-1.710
G1X2.370Z-2.377
G1X2.054Z-2.782
G1X1.106Z-2.794
G1X0.000
G1Y17.781
G1X2.372
G1X2.530Z-2.690
G1X3.005Z-2.166
G1X3.321Z-1.860
G1X3.953Z-1.344
G1X4.270Z-1.132
G1X4.744Z-0.897
G1X5.377Z-0.648
G1X6.009Z-0.503
G1X6.484Z-0.443
G1X7.116Z-0.432
G1X7.749Z-0.509
G1X8.381Z-0.673
G1X8.856Z-0.849
G1X9.330Z-1.081
G1X9.805Z-1.383
G1X10.279Z-1.780
G1X11.228Z-2.713
G1X11.386Z-2.794
G1X30.521
G1X30.679Z-2.726
G1X31.153Z-2.238
G1X31.628Z-1.817
G1X31.944Z-1.578
G1X32.893Z-1.013
G1X33.367Z-0.773
G1X33.842Z-0.594
G1X34.474Z-0.451
G1X35.265Z-0.396
G1X35.739Z-0.419
G1X36.372Z-0.526
G1X37.004Z-0.687
G1X37.479Z-0.868
G1X37.953Z-1.129
G1X38.586Z-1.555
G1X39.060Z-1.963
G1X39.693Z-2.601
G1X39.851Z-2.773
G1X40.009Z-2.794
G1X43.172
G1X41.939Y20.321
G1X38.772
G1X38.614Z-2.702
G1X38.138Z-2.220
G1X37.347Z-1.578
G1X36.872Z-1.266
G1X36.397Z-1.035
G1X35.922Z-0.866
G1X34.496Z-0.510
G1X34.021Z-0.429
G1X33.388Z-0.406
G1X32.913Z-0.437
G1X32.279Z-0.560
G1X31.804Z-0.705
G1X31.488Z-0.807
G1X30.854Z-0.966
G1X30.379Z-1.134
G1X29.904Z-1.359
G1X29.112Z-1.806
G1X28.637Z-2.154
G1X28.321Z-2.414
G1X27.846Z-2.772
G1X27.687Z-2.794
G1X14.227
G1X14.069Z-2.759
G1X13.594Z-2.424
G1X11.852Z-1.373
G1X11.219Z-1.072
G1X10.744Z-0.906
G1X9.477Z-0.593
G1X8.685Z-0.482
G1X8.210Z-0.448
G1X7.577Z-0.469
G1X7.102Z-0.533
G1X6.310Z-0.734
G1X5.677Z-0.980
G1X5.201Z-1.205
G1X4.885Z-1.400
G1X4.410Z-1.787
G1X3.618Z-2.585
G1X3.460Z-2.776
G1X3.143Z-2.794
G1X0.768
G1X0.991Y20.977
G1X1.205Y21.621
G1X1.581Y22.436
G1X1.804Y22.861
G1X4.964
G1X5.122Z-2.680
G1X5.438Z-2.374
G1X6.070Z-1.848
G1X6.545Z-1.547
G1X7.177Z-1.223
G1X7.651Z-1.035
G1X8.441Z-0.799
G1X9.073Z-0.598
G1X9.705Z-0.471
G1X10.179Z-0.406
G1X10.653Z-0.403
G1X10.969Z-0.417
G1X11.443Z-0.425
G1X12.707Z-0.518
G1X13.497Z-0.644
G1X13.971Z-0.697
G1X14.761Z-0.866
G1X15.709Z-1.130
G1X16.025Z-1.216
G1X16.657Z-1.376
G1X16.973Z-1.450
G1X17.605Z-1.552
G1X18.711Z-1.676
G1X20.291Z-1.754
G1X21.714Z-1.779
G1X22.504Z-1.759
G1X23.768Z-1.587
G1X24.242Z-1.507
G1X24.874Z-1.429
G1X25.822Z-1.228
G1X27.244Z-0.898
G1X28.824Z-0.608
G1X30.088Z-0.446
G1X31.352Z-0.410
G1X32.142Z-0.460
G1X33.090Z-0.601
G1X33.722Z-0.768
G1X34.829Z-1.177
G1X35.303Z-1.416
G1X35.777Z-1.733
G1X36.409Z-2.262
G1X36.883Z-2.734
G1X37.041Z-2.794
G1X40.517
G1X40.152Y23.301
G1X39.970Y23.656
G1X39.694Y24.071
G1X39.124Y24.778
G1X38.567Y25.401
G1X34.621
G1X34.463Z-2.713
G1X34.147Z-2.468
G1X33.674Z-2.189
G1X31.937Z-1.287
G1X31.306Z-1.018
G1X30.516Z-0.779
G1X29.885Z-0.660
G1X27.833Z-0.444
G1X27.043Z-0.446
G1X25.938Z-0.485
G1X25.307Z-0.452
G1X24.991Z-0.459
G1X24.360Z-0.419
G1X23.728Z-0.437
G1X23.097Z-0.479
G1X21.676Z-0.453
G1X19.308Z-0.488
G1X17.413Z-0.491
G1X16.151Z-0.416
G1X15.519Z-0.410
G1X15.046Z-0.394
G1X14.256Z-0.414
G1X13.625Z-0.397
G1X13.151Z-0.431
G1X12.362Z-0.550
G1X11.257Z-0.816
G1X10.467Z-1.082
G1X9.994Z-1.267
G1X9.362Z-1.482
G1X8.889Z-1.717
G1X8.099Z-2.233
G1X7.626Z-2.613
G1X7.468Z-2.756
G1X7.310Z-2.794
G1X3.521
G1X4.028Y25.951
G1X4.615Y26.482
G1X4.804Y26.629
G1X5.150Y27.048
G1X5.647Y27.526
G1X6.152Y27.941
G1X11.066
G1X12.334Z-2.199
G1X13.761Z-1.651
G1X14.554Z-1.417
G1X15.188Z-1.270
G1X16.139Z-1.149
G1X18.993Z-0.982
G1X19.627Z-0.941
G1X20.261Z-0.903
G1X21.846Z-0.874
G1X22.639Z-0.917
G1X23.114Z-0.994
G1X24.382Z-1.017
G1X25.017Z-1.081
G1X25.968Z-1.301
G1X26.602Z-1.443
G1X28.029Z-1.706
G1X28.663Z-1.873
G1X29.772Z-2.360
G1X30.565Z-2.794
G1X35.955
G1X35.420Y28.369
G1X34.755Y28.833
G1X34.384Y29.154
G1X34.006Y29.488
G1X33.762Y29.652
G1X32.512Y30.269
G1X32.071Y30.481
G1X10.002
G1X10.589Y30.816
G1X11.377Y31.173
G1X12.083Y31.441
G1X13.000Y31.734
G1X14.244Y32.068
G1X15.730Y32.384
G1X17.185Y32.629
G1X18.666Y32.819
G1X20.065Y32.935
G1X21.435Y32.989
G1X22.181
G0Z5.080
G0X17.377Y0.001
G1Z-5.588F1016.0
G1X8.265F2032.0
G1X7.321Y0.421
G1X6.339Y0.914
G1X5.705Y1.271
G1X5.209Y1.620
G1X4.195Y2.541
G1X6.088
G1X6.719Z-4.811
G1X7.034Z-4.481
G1X7.192Z-4.344
G1X7.981Z-3.800
G1X8.454Z-3.556
G1X9.558Z-3.119
G1X10.820Z-2.840
G1X11.451Z-2.758
G1X12.082Z-2.730
G1X13.028Z-2.787
G1X13.659Z-2.901
G1X14.132Z-3.043
G1X14.921Z-3.347
G1X15.394Z-3.573
G1X16.025Z-3.992
G1X16.498Z-4.344
G1X17.129Z-4.951
G1X17.602Z-5.517
G1X17.760Z-5.588
G1X20.599
G1X20.881Y2.966
G1X21.258Y3.404
G1X21.633Y3.963
G1X21.989Y4.634
G1X22.188Y5.081
G1X19.651
G1X19.334Z-5.160
G1X19.176Z-4.930
G1X18.383Z-4.021
G1X17.908Z-3.540
G1X16.956Z-2.748
G1X16.639Z-2.527
G1X16.005Z-2.190
G1X15.371Z-1.937
G1X15.212Z-1.887
G1X15.638Y5.477Z-1.964
G1X15.852Y5.675Z-2.028
G1X16.097Y6.106Z-2.141
G1X16.179Y6.249Z-2.185
G1X16.199Y6.665Z-2.254
G1X15.992Y6.945Z-2.239
G1X15.458Y7.148Z-2.123
G1X14.490Y7.187Z-1.897
G1X13.360Y7.233Z-1.710
G1X12.715Y7.259Z-1.628
G1X12.247Y7.350Z-1.607
G1X11.779Y7.440Z-1.460
G1X11.630Y7.531Z-1.436
G1X11.480Y7.621Z-1.388
G1X11.797Z-1.535
G1X12.272Z-1.731
G1X13.064Z-1.864
G1X14.489Z-2.101
G1X15.598Z-2.340
G1X16.073Z-2.498
G1X16.865Z-2.882
G1X17.498Z-3.265
G1X18.290Z-3.850
G1X18.765Z-4.179
G1X19.557Z-4.813
G1X19.874Z-5.111
G1X20.190Z-5.463
G1X20.349Z-5.588
G1X22.724
G1X22.744Y8.686
G1X22.728Y9.476
G1X22.656Y10.117
G1X22.648Y10.161
G1X19.314
G1X19.156Z-5.528
G1X18.680Z-5.269
G1X18.203Z-5.075
G1X17.410Z-4.875
G1X16.934Z-4.808
G1X15.981Z-4.773
G1X15.505Z-4.812
G1X15.188Z-4.881
G1X14.394Z-4.974
G1X13.759Z-5.124
G1X13.124Z-5.004
G1X12.965Z-4.956
G1X12.807Z-4.863
G1X12.648Z-4.739
G1X12.331Z-4.362
G1X11.854Z-3.666
G1X11.061Z-2.630
G1X10.743Z-2.291
G1X10.108Z-1.753
G1X9.632Z-1.390
G1X9.156Z-1.118
G1X8.765Y10.966Z-1.107
G1X8.593Y11.578Z-1.164
G1X8.463Y12.037Z-1.167
G1X8.395Y12.701Z-1.106
G1X8.869Z-1.478
G1X9.343Z-1.899
G1X9.658Z-2.262
G1X9.974Z-2.683
G1X10.290Z-3.153
G1X11.711Z-5.475
G1X11.869Z-5.588
G1X21.345
G1X20.989Y13.083
G1X20.557Y13.463
G1X20.184Y13.723
G1X19.647Y14.017
G1X19.246Y14.172
G1X20.949Y14.201
G1X21.482Y14.185
G1X22.313Y13.809
G1X22.754Y13.654
G1X23.382Y13.214
G1X23.866Y12.810
G1X23.977Y12.701
G0Z5.080
G0X24.985Y2.541
G1Z-5.588F1016.0
G1X31.010F2032.0
G1X31.327Z-5.210
G1X31.962Z-4.385
G1X33.072Z-2.644
G1X33.389Z-2.222
G1X33.864Z-1.699
G1X34.340Z-1.285
G1X34.657Z-1.047
G1X34.816Z-0.950
G0Z5.080
G0X24.985
G1Z-5.588F1016.0
G1X24.795Y3.033F2032.0
G1X24.709Y3.461
G1X24.690Y3.876
G1X24.742Y4.362
G1X24.853Y5.081
G1X31.605
G1X31.762Z-5.451
G1X32.390Z-4.623
G1X33.489Z-2.901
G1X33.803Z-2.472
G1X34.274Z-1.945
G1X34.745Z-1.516
G1X35.059Z-1.266
G1X35.373Z-1.058
G1X35.396Y5.235Z-1.075
G1X35.602Y6.623Z-1.090
G1X35.625Y6.778Z-1.098
G1X35.634Y7.115Z-1.143
G1X35.648Y7.621Z-1.119
G1X35.175Z-1.438
G1X34.702Z-1.853
G1X34.229Z-2.356
G1X33.914Z-2.760
G1X32.653Z-4.746
G1X32.180Z-5.447
G1X32.022Z-5.588
G1X25.244
G1X25.374Y8.468
G1X25.228Y9.697
G1X25.163Y10.161
G1X31.776
G1X31.934Z-5.497
G1X32.564Z-4.681
G1X33.823Z-2.803
G1X34.138Z-2.405
G1X34.611Z-1.917
G1X35.240Z-1.369
G1X35.555Z-1.158
G1X35.491Y10.857Z-1.120
G1X35.265Y11.933Z-1.122
G1X35.103Y12.701Z-1.089
G1X34.785Z-1.277
G1X34.309Z-1.645
G1X33.832Z-2.103
G1X33.355Z-2.617
G1X32.878Z-3.274
G1X31.606Z-5.166
G1X31.288Z-5.578
G1X23.977Z-5.588
G0Z5.080
G0X34.219Y15.241
G1Z-0.996F1016.0
G1X33.903Z-1.174F2032.0
G1X33.428Z-1.530
G1X32.953Z-1.956
G1X32.477Z-2.464
G1X31.844Z-3.340
G1X31.211Z-4.227
G1X30.419Z-5.291
G1X30.261Z-5.490
G1X30.102Z-5.588
G1X12.050
G1X11.892Z-5.475
G1X10.942Z-4.109
G1X10.308Z-3.000
G1X9.833Z-2.313
G1X9.517Z-1.910
G1X9.200Z-1.589
G1X8.566Z-1.074
G1X8.408Z-0.960
G1X8.541Y15.855Z-1.025
G1X8.608Y16.162Z-1.070
G1X8.641Y16.315Z-1.083
G1X8.828Y16.732Z-1.179
G1X9.140Y17.426Z-1.087
G1X9.202Y17.565Z-1.075
G1X9.339Y17.781Z-1.085
G1X9.813Z-1.388
G1X10.286Z-1.787
G1X11.233Z-2.719
G1X11.706Z-3.264
G1X12.180Z-3.874
G1X13.127Z-4.961
G1X13.442Z-5.343
G1X13.600Z-5.494
G1X13.758Z-5.588
G1X27.962
G1X28.120Z-5.528
G1X28.909Z-4.863
G1X29.224Z-4.529
G1X29.698Z-3.993
G1X30.645Z-2.763
G1X31.118Z-2.271
G1X31.592Z-1.846
G1X31.907Z-1.602
G1X32.854Z-1.033
G1X32.693Y18.040Z-1.070
G1X32.533Y18.298Z-1.044
G1X31.950Y19.022Z-1.004
G1X31.465Y19.625Z-1.026
G1X31.227Y19.857Z-1.057
G1X30.752Y20.321Z-0.997
G1X30.121Z-1.246
G1X29.175Z-1.767
G1X28.702Z-2.103
G1X28.387Z-2.366
G1X27.599Z-2.966
G1X27.126Z-3.326
G1X26.338Z-3.896
G1X26.022Z-4.068
G1X24.288Z-4.860
G1X23.185Z-5.202
G1X22.554Z-5.286
G1X21.609Z-5.361
G1X20.032Z-5.390
G1X19.559Z-5.334
G1X18.140Z-5.030
G1X17.825Z-4.978
G1X16.722Z-4.579
G1X15.776Z-4.083
G1X15.461Z-3.870
G1X14.200Z-2.854
G1X13.569Z-2.407
G1X11.835Z-1.363
G1X11.204Z-1.067
G1X12.091Y21.112Z-1.052
G1X12.215Y21.222Z-1.036
G1X12.745Y21.555Z-0.999
G1X13.673Y22.136Z-0.993
G1X14.821Y22.663Z-0.985
G1X15.252Y22.861Z-0.996
G1X15.885Z-1.185
G1X16.518Z-1.333
G1X16.835Z-1.425
G1X17.468Z-1.538
G1X18.734Z-1.678
G1X20.476Z-1.759
G1X21.742Z-1.778
G1X22.534Z-1.756
G1X23.642Z-1.613
G1X24.275Z-1.503
G1X24.908Z-1.422
G1X25.858Z-1.218
G1X26.650Z-1.036
G0Z5.080
G0X39.552Y2.541
G1Z-1.081F1016.0
G1X40.028Z-1.446F2032.0
G1X40.980Z-2.324
G1X41.297Z-2.686
G1X41.773Z-3.328
G1X41.931Z-3.575
G1X42.407Z-4.505
G1X42.566Z-4.880
G1X42.724Z-5.321
G1X42.883Z-5.588
G1X43.993
G1X44.163Y2.955
G1X44.261Y3.368
G1X44.525Y5.081
G1X43.261
G1X43.103Z-5.320
G1X42.945Z-4.903
G1X42.629Z-4.209
G1X42.314Z-3.638
G1X41.998Z-3.170
G1X41.208Z-2.181
G1X40.892Z-1.844
G1X40.260Z-1.318
G1X39.945Z-1.093
G1X40.042Y5.777Z-1.143
G1X40.125Y6.699Z-1.223
G1X40.180Y7.314Z-1.212
G1X40.207Y7.621Z-1.167
G1X40.678Z-1.502
G1X41.306Z-2.054
G1X41.934Z-2.731
G1X42.247Z-3.146
G1X42.561Z-3.631
G1X42.875Z-4.208
G1X43.189Z-4.937
G1X43.346Z-5.341
G1X43.503Z-5.588
G1X44.915
G1X44.989Y8.190
G1X45.003Y8.877
G1X44.991Y10.161
G1X43.429
G1X43.273Z-5.320
G1X42.961Z-4.528
G1X42.648Z-3.865
G1X42.336Z-3.318
G1X42.023Z-2.857
G1X41.555Z-2.283
G1X41.086Z-1.828
G1X40.617Z-1.434
G1X40.305Z-1.206
G1X40.149Z-1.111
G1X40.038Y10.920Z-1.132
G1X39.905Y11.830Z-1.219
G1X39.838Y12.285Z-1.285
G1X39.770Y12.562Z-1.308
G1X39.736Y12.701Z-1.304
G1X40.518Z-1.867
G1X40.987Z-2.273
G1X41.456Z-2.755
G1X41.769Z-3.133
G1X42.238Z-3.836
G1X42.550Z-4.439
G1X42.863Z-5.175
G1X43.020Z-5.588
G1X44.427
G1X44.113Y14.341
G1X43.924Y15.241
G1X42.510
G1X42.353Z-5.482
G1X42.039Z-4.708
G1X41.725Z-4.099
G1X41.254Z-3.338
G1X40.782Z-2.744
G1X40.468Z-2.390
G1X39.997Z-1.972
G1X39.526Z-1.623
G1X39.054Z-1.297
G1X38.892Y15.702Z-1.275
G1X38.674Y16.317Z-1.221
G1X38.403Y17.086Z-1.225
G1X38.073Y17.781Z-1.204
G1X38.551Z-1.528
G1X39.029Z-1.934
G1X39.666Z-2.572
G1X40.304Z-3.306
G1X40.622Z-3.753
G1X40.941Z-4.282
G1X41.260Z-4.911
G1X41.419Z-5.280
G1X41.578Z-5.588
G1X43.172
G1X41.939Y20.321
G1X40.503
G1X40.343Z-5.534
G1X40.024Z-4.800
G1X39.546Z-3.940
G1X39.227Z-3.470
G1X38.748Z-2.855
G1X38.269Z-2.341
G1X37.631Z-1.805
G1X37.153Z-1.443
G1X36.834Z-1.245
G1X36.674Z-1.164
G1X36.494Y20.606Z-1.202
G1X36.096Y21.116Z-1.240
G1X35.598Y21.754Z-1.148
G1X35.299Y22.137Z-1.111
G1X35.000Y22.520Z-1.117
G1X34.673Y22.861Z-1.114
G1X35.147Z-1.333
G1X35.621Z-1.618
G1X36.095Z-1.992
G1X36.569Z-2.413
G1X37.042Z-2.904
G1X37.358Z-3.282
G1X37.990Z-4.119
G1X38.306Z-4.637
G1X38.622Z-5.311
G1X38.780Z-5.588
G1X40.517
G1X40.152Y23.301
G1X39.970Y23.656
G1X39.694Y24.071
G1X39.124Y24.778
G1X38.567Y25.401
G1X36.665
G1X36.506Z-5.321
G1X36.348Z-5.008
G1X35.872Z-4.213
G1X35.555Z-3.775
G1X35.238Z-3.408
G1X34.921Z-3.098
G1X34.287Z-2.574
G1X33.970Z-2.354
G1X32.067Z-1.347
G1X31.591Z-1.135
G1X31.185Y25.643Z-1.075
G1X30.507Y26.046Z-1.081
G1X30.236Y26.208Z-1.117
G1X29.960Y26.335Z-1.151
G1X29.129Y26.715Z-1.130
G1X28.714Y26.906Z-1.116
G1X28.437Y27.033Z-1.129
G1X27.698Y27.265Z-1.127
G1X26.517Y27.636Z-1.238
G1X25.229Y27.907Z-1.103
G1X25.068Y27.941Z-1.091
G1X26.172Z-1.352
G1X27.119Z-1.540
G1X28.066Z-1.714
G1X28.539Z-1.832
G1X29.170Z-2.087
G1X29.959Z-2.455
G1X30.748Z-2.901
G1X31.221Z-3.160
G1X31.537Z-3.387
G1X32.168Z-3.947
G1X32.799Z-4.602
G1X33.430Z-5.431
G1X33.588Z-5.588
G1X35.955
G1X35.420Y28.369
G1X34.755Y28.833
G1X34.384Y29.154
G1X34.006Y29.488
G1X33.762Y29.652
G1X32.512Y30.269
G1X32.071Y30.481
G0Z5.080
G0X8.652Y5.081
G1Z-1.136F1016.0
G1X8.021Z-1.290F2032.0
G1X7.547Z-1.461
G1X7.074Z-1.690
G1X6.442Z-2.043
G1X5.969Z-2.344
G1X5.337Z-2.842
G1X5.022Z-3.119
G1X4.548Z-3.624
G1X4.390Z-3.808
G1X3.917Z-4.500
G1X3.759Z-4.780
G1X3.443Z-5.456
G1X3.285Z-5.588
G1X2.023
G1X1.698Y5.523
G1X1.400Y6.029
G1X1.176Y6.547
G1X1.050Y7.042
G1X0.799Y7.621
G1X1.912Z-5.577
G1X2.230Z-4.762
G1X2.548Z-4.103
G1X2.707Z-3.825
G1X3.185Z-3.139
G1X3.662Z-2.601
G1X4.139Z-2.165
G1X4.934Z-1.525
G1X5.252Z-1.337
G1X5.730Z-1.121
G1X5.478Y7.985Z-1.108
G1X5.198Y8.567Z-1.092
G1X4.849Y9.294Z-1.105
G1X4.664Y9.872Z-1.068
G1X4.572Y10.161Z-1.067
G1X3.941Z-1.457
G1X3.468Z-1.822
G1X2.995Z-2.271
G1X2.522Z-2.803
G1X2.365Z-3.006
G1X1.892Z-3.746
G1X1.577Z-4.342
G1X1.261Z-5.092
G1X1.104Z-5.536
G1X0.946Z-5.588
G1X0.000
G1Y12.701
G1X0.626
G1X0.783Z-5.363
G1X1.252Z-4.209
G1X1.722Z-3.348
G1X2.035Z-2.869
G1X2.505Z-2.266
G1X2.975Z-1.773
G1X3.601Z-1.241
G1X3.914Z-1.028
G1X4.071Z-0.940
G1X4.054Y13.154Z-0.939
G1X4.017Y14.210Z-1.020
G1X4.011Y14.361Z-1.017
G1X4.055Y14.801Z-0.927
G1X4.098Y15.241Z-0.877
G1X3.626Z-1.177
G1X2.995Z-1.717
G1X2.364Z-2.383
G1X2.049Z-2.789
G1X1.734Z-3.284
G1X1.261Z-4.207
G1X0.946Z-4.998
G1X0.788Z-5.449
G1X0.631Z-5.588
G1X0.000
G1Y17.781
G1X1.101
G1X1.258Z-5.202
G1X1.572Z-4.351
G1X1.887Z-3.702
G1X2.359Z-2.915
G1X2.673Z-2.520
G1X3.145Z-2.024
G1X3.774Z-1.481
G1X4.246Z-1.147
G1X4.560Z-0.982
G1X4.623Y18.054Z-0.996
G1X4.787Y18.485Z-0.976
G1X4.950Y18.916Z-0.988
G1X5.114Y19.347Z-0.966
G1X5.223Y19.634Z-0.981
G1X5.598Y20.321Z-1.013
G1X5.131Z-1.244
G1X4.819Z-1.447
G1X4.508Z-1.698
G1X3.728Z-2.469
G1X3.417Z-2.824
G1X3.261Z-3.021
G1X2.793Z-3.731
G1X2.482Z-4.297
G1X2.170Z-4.993
G1X2.014Z-5.396
G1X1.858Z-5.588
G1X0.768
G1X0.991Y20.977
G1X1.205Y21.621
G1X1.581Y22.436
G1X1.804Y22.861
G1X3.084
G1X3.245Z-5.570
G1X3.565Z-4.850
G1X3.885Z-4.257
G1X4.365Z-3.537
G1X5.005Z-2.802
G1X5.325Z-2.473
G1X5.965Z-1.928
G1X6.445Z-1.603
G1X7.246Z-1.193
G1X7.406Z-1.125
G1X7.960Y23.439Z-1.138
G1X8.403Y23.900Z-1.111
G1X9.000Y24.401Z-1.037
G1X9.358Y24.701Z-1.047
G1X9.836Y25.101Z-1.143
G1X10.195Y25.401Z-1.195
G1X9.400Z-1.466
G1X8.923Z-1.697
G1X8.288Z-2.102
G1X7.811Z-2.456
G1X7.176Z-3.011
G1X6.381Z-3.824
G1X5.905Z-4.400
G1X5.587Z-4.899
G1X5.269Z-5.509
G1X5.110Z-5.588
G1X3.521
G1X4.028Y25.951
G1X4.615Y26.482
G1X4.804Y26.629
G1X5.150Y27.048
G1X5.647Y27.526
G1X6.152Y27.941
G1X8.044
G1X8.202Z-5.457
G1X8.675Z-4.726
G1X9.306Z-4.002
G1X9.621Z-3.702
G1X9.937Z-3.446
G1X10.568Z-3.054
G1X11.987Z-2.355
G1X12.775Z-2.024
G1X13.879Z-1.615
G1X14.668Z-1.387
G1X15.299Z-1.252
G1X16.245Z-1.139
G1X16.718Z-1.111
G0Z5.080
G0X32.071Y30.481
G1Z-5.588F1016.0
G1X28.288F2032.0
G1X28.130Z-5.575
G1X27.657Z-5.207
G1X26.711Z-4.606
G1X26.238Z-4.375
G1X25.450Z-4.068
G1X24.504Z-3.807
G1X22.770Z-3.467
G1X22.140Z-3.397
G1X21.509Z-3.374
G1X20.564Z-3.410
G1X18.199Z-3.637
G1X17.569Z-3.734
G1X16.623Z-3.948
G1X15.520Z-4.281
G1X14.889Z-4.543
G1X14.258Z-4.870
G1X13.628Z-5.306
G1X13.313Z-5.588
G1X10.002
G1X10.589Y30.816
G1X11.377Y31.173
G1X12.083Y31.441
G1X13.000Y31.734
G1X14.244Y32.068
G1X15.730Y32.384
G1X17.185Y32.629
G1X18.666Y32.819
G1X20.065Y32.935
G1X21.435Y32.989
G1X22.181
G0Z5.080
G0X17.377Y0.001
G1Z-8.382F1016.0
G1X14.863F2032.0
G1X14.392Z-8.149
G1X13.606Z-7.818
G1X13.449Z-7.779
G1X13.135Z-7.752
G1X12.350Z-7.792
G1X11.878Z-7.894
G1X11.093Z-8.115
G1X10.465Z-8.363
G1X10.150Z-8.382
G1X8.265
G1X7.321Y0.421
G1X6.339Y0.914
G1X5.705Y1.271
G1X5.209Y1.620
G1X4.195Y2.541
G1X4.668
G1X4.826Z-8.118
G1X5.299Z-7.011
G1X5.772Z-6.071
G1X6.088Z-5.597
G1X6.719Z-4.811
G1X7.034Z-4.481
G1X7.192Z-4.344
G1X7.981Z-3.800
G1X8.454Z-3.556
G1X9.558Z-3.119
G1X10.820Z-2.840
G1X11.451Z-2.758
G1X12.082Z-2.730
G1X13.028Z-2.787
G1X13.659Z-2.901
G1X14.132Z-3.043
G1X14.921Z-3.347
G1X15.394Z-3.573
G1X16.025Z-3.992
G1X16.498Z-4.344
G1X17.129Z-4.951
G1X17.918Z-5.873
G1X18.233Z-6.314
G1X19.022Z-7.611
G1X19.337Z-8.206
G1X19.495Z-8.382
G1X20.599
G1X20.881Y2.966
G1X21.258Y3.404
G1X21.633Y3.963
G1X21.989Y4.634
G1X22.188Y5.081
G1X21.237
G1X21.079Z-8.163
G1X20.762Z-7.486
G1X20.287Z-6.590
G1X19.970Z-6.078
G1X19.178Z-4.933
G1X18.386Z-4.024
G1X17.910Z-3.542
G1X17.277Z-3.006
G1X17.364Y5.167Z-3.054
G1X17.718Y5.678Z-3.207
G1X17.983Y6.061Z-3.380
G1X18.071Y6.189Z-3.450
G1X18.249Y6.614Z-3.615
G1X18.485Y7.181Z-3.890
G1X18.553Y7.621Z-4.022
G1X19.356Z-4.645
G1X19.837Z-5.072
G1X20.478Z-5.804
G1X20.799Z-6.250
G1X21.120Z-6.765
G1X21.601Z-7.760
G1X21.762Z-8.115
G1X21.922Z-8.382
G1X22.724
G1X22.744Y8.686
G1X22.728Y9.476
G1X22.656Y10.117
G1X22.648Y10.161
G1X21.700
G1X21.542Z-8.325
G1X21.226Z-7.755
G1X20.753Z-7.030
G1X20.595Z-6.827
G1X19.963Z-6.161
G1X19.489Z-5.753
G1X19.015Z-5.442
G1X18.542Z-5.208
G1X18.068Z-5.033
G1X17.278Z-4.851
G1X16.804Z-4.802
G1X16.015Z-4.774
G1X15.541Z-4.806
G1X15.225Z-4.876
G1X14.278Z-4.993
G1X13.804Z-5.114
G1X13.646Z-5.111
G1X13.014Z-4.977
G1X12.856Z-4.901
G1X12.698Z-4.777
G1X12.383Z-4.434
G1X11.751Z-3.530
G1X11.119Z-2.701
G1X10.957Y10.367Z-2.666
G1X10.823Y10.681Z-2.773
G1X10.689Y10.995Z-2.867
G1X10.622Y11.152Z-2.882
G1X10.564Y11.461Z-3.028
G1X10.419Y12.232Z-3.219
G1X10.360Y12.540Z-3.221
G1X10.355Y12.701Z-3.263
G1X11.768Z-5.567
G1X12.239Z-6.209
G1X13.181Z-7.300
G1X13.809Z-7.984
G1X13.966Z-8.117
G1X14.123Z-8.187
G1X14.751Z-8.374
G1X15.379Z-8.382
G1X15.536Z-8.348
G1X16.164Z-7.926
G1X16.635Z-7.715
G1X16.949Z-7.615
G1X17.420Z-7.542
G1X17.734Z-7.546
G1X18.048Z-7.605
G1X18.362Z-7.697
G1X18.676Z-7.835
G1X19.304Z-8.223
G1X19.461Z-8.337
G1X19.618Z-8.382
G1X21.345
G1X20.989Y13.083
G1X20.557Y13.463
G1X20.184Y13.723
G1X19.647Y14.017
G1X19.246Y14.172
G1X20.949Y14.201
G1X21.482Y14.185
G1X22.313Y13.809
G1X22.754Y13.654
G1X23.382Y13.214
G1X23.866Y12.810
G1X23.977Y12.701
G0Z5.080
G0X24.985Y2.541
G1Z-8.382F1016.0
G1X27.021F2032.0
G1X27.178Z-8.368
G1X27.805Z-8.089
G1X28.588Z-7.795
G1X28.745Z-7.714
G1X29.685Z-7.068
G1X29.842Z-6.946
G1X30.625Z-6.108
G1X31.879Z-4.502
G1X32.662Z-3.289
G0Z5.080
G0X24.985
G1Z-8.382F1016.0
G1X24.795Y3.033F2032.0
G1X24.709Y3.461
G1X24.690Y3.876
G1X24.742Y4.362
G1X24.853Y5.081
G1X27.848
G1X28.321Z-8.185
G1X29.740Z-7.549
G1X29.897Z-7.457
G1X30.213Z-7.198
G1X31.158Z-6.224
G1X31.474Z-5.854
G1X32.420Z-4.579
G1X33.208Z-3.339
G1X33.345Y6.002Z-3.326
G1X33.437Y6.616Z-3.383
G1X33.483Y6.923Z-3.371
G1X33.500Y7.272Z-3.403
G1X33.516Y7.621Z-3.386
G1X32.561Z-4.887
G1X31.766Z-6.020
G1X31.130Z-6.688
G1X30.334Z-7.373
G1X30.016Z-7.620
G1X29.857Z-7.714
G1X28.425Z-8.343
G1X28.266Z-8.382
G1X25.244
G1X25.374Y8.468
G1X25.228Y9.697
G1X25.163Y10.161
G1X28.032
G1X28.191Z-8.353
G1X29.785Z-7.657
G1X30.263Z-7.353
G1X31.060Z-6.622
G1X32.494Z-4.777
G1X33.451Z-3.356
G1X33.403Y10.691Z-3.259
G1X33.200Y11.604Z-3.260
G1X32.997Y12.518Z-3.196
G1X32.932Y12.701Z-3.195
G1X31.518Z-5.291
G1X30.732Z-6.280
G1X29.632Z-7.265
G1X29.161Z-7.632
G1X29.004Z-7.734
G1X27.276Z-8.340
G1X27.119Z-8.382
G1X23.977
G0Z5.080
G0X31.886Y15.241
G1Z-3.278F1016.0
G1X30.934Z-4.601F2032.0
G1X30.300Z-5.442
G1X29.982Z-5.840
G1X29.665Z-6.157
G1X29.189Z-6.585
G1X28.714Z-6.921
G1X27.445Z-7.728
G1X27.286Z-7.788
G1X26.176Z-8.094
G1X25.383Z-8.382
G1X15.868
G1X15.234Z-8.142
G1X14.599Z-7.876
G1X14.282Z-7.763
G1X14.123Z-7.686
G1X13.648Z-7.353
G1X13.489Z-7.231
G1X12.855Z-6.601
G1X12.379Z-6.109
G1X12.062Z-5.719
G1X10.952Z-4.123
G1X10.476Z-3.276
G1X10.483Y15.289Z-3.271
G1X10.638Y15.721Z-3.403
G1X10.742Y16.010Z-3.428
G1X10.794Y16.154Z-3.416
G1X10.897Y16.442Z-3.317
G1X11.222Y16.987Z-3.320
G1X11.547Y17.531Z-3.270
G1X11.763Y17.781Z-3.333
G1X12.236Z-3.940
G1X13.499Z-5.397
G1X14.130Z-6.018
G1X15.234Z-6.672
G1X16.181Z-7.177
G1X17.128Z-7.500
G1X17.601Z-7.624
G1X18.390Z-7.674
G1X19.337Z-7.706
G1X20.126Z-7.776
G1X21.073Z-7.827
G1X21.862Z-7.754
G1X23.598Z-7.674
G1X24.229Z-7.586
G1X25.807Z-7.205
G1X26.123Z-7.074
G1X26.754Z-6.659
G1X27.385Z-6.145
G1X28.963Z-4.816
G1X29.752Z-3.926
G1X30.225Z-3.310
G1X29.729Y18.344Z-3.371
G1X29.431Y18.681Z-3.285
G1X29.331Y18.794Z-3.251
G1X28.737Y19.309Z-3.199
G1X28.142Y19.824Z-3.189
G1X28.010Y19.907Z-3.212
G1X27.351Y20.321Z-3.166
G1X26.241Z-3.962
G1X24.178Z-4.902
G1X23.226Z-5.192
G1X22.592Z-5.282
G1X21.640Z-5.360
G1X20.053Z-5.392
G1X19.736Z-5.362
G1X18.149Z-5.031
G1X17.832Z-4.981
G1X16.722Z-4.579
G1X15.770Z-4.080
G1X15.452Z-3.863
G1X14.818Z-3.349
G0Z5.080
G0X6.878Y5.081
G1Z-1.796F1016.0
G1X6.252Z-2.161F2032.0
G1X5.782Z-2.479
G1X4.999Z-3.141
G1X4.529Z-3.647
G1X4.372Z-3.831
G1X3.902Z-4.523
G1X3.746Z-4.805
G1X3.276Z-5.832
G1X2.963Z-6.686
G1X2.493Z-8.222
G1X2.336Z-8.382
G1X2.023
G1X1.698Y5.523
G1X1.400Y6.029
G1X1.176Y6.547
G1X1.050Y7.042
G1X0.799Y7.621
G1X0.956
G1X1.114Z-8.356
G1X1.587Z-6.587
G1X1.903Z-5.605
G1X2.218Z-4.789
G1X2.534Z-4.132
G1X2.691Z-3.850
G1X3.165Z-3.165
G1X3.638Z-2.626
G1X4.111Z-2.187
G1X4.742Z-1.667
G1X4.215Y8.758Z-1.696
G1X4.083Y9.043Z-1.664
G1X3.987Y9.362Z-1.615
G1X3.746Y10.161Z-1.601
G1X3.278Z-1.993
G1X2.810Z-2.475
G1X2.498Z-2.833
G1X2.341Z-3.039
G1X1.873Z-3.778
G1X1.561Z-4.378
G1X1.249Z-5.122
G1X0.937Z-6.055
G1X0.624Z-7.150
G1X0.312Z-8.382
G1X0.000
G1Y12.225
G1Y12.384Z-8.345
G1Y12.701Z-8.218
G1X0.468Z-6.404
G1X0.780Z-5.372
G1X1.248Z-4.219
G1X1.716Z-3.359
G1X2.028Z-2.879
G1X2.496Z-2.276
G1X2.963Z-1.785
G1X3.275Z-1.505
G1X3.253Y13.313Z-1.514
G1X3.230Y13.925Z-1.546
G1X3.212Y14.384Z-1.542
G1X3.288Y15.241Z-1.456
G1X2.818Z-1.894
G1X2.349Z-2.401
G1X2.036Z-2.807
G1X1.722Z-3.303
G1X1.253Z-4.224
G1X0.939Z-5.017
G1X0.783Z-5.465
G1X0.470Z-6.582
G1X0.000Z-8.371
G1Y16.670Z-8.382
G1Y17.781
G1X0.323
G1X0.484Z-7.864
G1X0.968Z-6.080
G1X1.130Z-5.555
G1X1.614Z-4.258
G1X1.937Z-3.617
G1X2.260Z-3.063
G1X2.421Z-2.828
G1X2.744Z-2.440
G1X3.228Z-1.943
G1X3.713Z-1.530
G1X3.759Y17.994Z-1.537
G1X4.085Y18.921Z-1.529
G1X4.357Y19.694Z-1.572
G1X4.674Y20.321Z-1.563
G1X4.361Z-1.834
G1X3.736Z-2.461
G1X3.424Z-2.816
G1X3.267Z-3.013
G1X2.799Z-3.723
G1X2.486Z-4.287
G1X2.174Z-4.985
G1X1.861Z-5.843
G1X1.549Z-6.829
G1X1.236Z-7.980
G1X1.080Z-8.382
G1X0.768
G1X0.991Y20.977
G1X1.205Y21.621
G1X1.581Y22.436
G1X1.804Y22.861
G1X2.283
G1X2.443Z-8.001
G1X2.921Z-6.457
G1X3.241Z-5.580
G1X3.560Z-4.860
G1X3.879Z-4.266
G1X4.358Z-3.546
G1X4.996Z-2.811
G1X5.315Z-2.482
G1X5.954Z-1.937
G1X6.273Z-1.711
G1X6.600Y23.218Z-1.710
G1X7.254Y23.933Z-1.778
G1X7.478Y24.156Z-1.779
G1X8.285Y24.882Z-1.686
G1X8.861Y25.401Z-1.733
G1X8.076Z-2.250
G1X7.604Z-2.632
G1X6.976Z-3.208
G1X6.191Z-4.037
G1X5.877Z-4.439
G1X5.563Z-4.940
G1X5.406Z-5.224
G1X4.935Z-6.255
G1X4.621Z-7.061
G1X4.150Z-8.382
G1X3.521
G1X4.028Y25.951
G1X4.615Y26.482
G1X4.804Y26.629
G1X5.150Y27.048
G1X5.647Y27.526
G1X6.152Y27.941
G1X6.785
G1X6.944Z-8.339
G1X7.736Z-6.369
G1X8.053Z-5.705
G1X8.528Z-4.948
G1X8.686Z-4.711
G1X9.320Z-3.987
G1X9.637Z-3.689
G1X9.953Z-3.433
G1X10.587Z-3.043
G1X12.013Z-2.344
G1X12.805Z-2.013
G1X13.280Z-1.836
G0Z5.080
G0X40.404Y2.541
G1Z-1.781F1016.0
G1X41.028Z-2.374F2032.0
G1X41.496Z-2.944
G1X41.808Z-3.379
G1X41.964Z-3.634
G1X42.433Z-4.565
G1X42.589Z-4.934
G1X43.057Z-6.325
G1X43.525Z-8.045
G1X43.681Z-8.382
G1X43.993
G1X44.163Y2.955
G1X44.261Y3.368
G1X44.525Y5.081
G1X44.041
G1X43.880Z-7.977
G1X43.558Z-6.751
G1X43.235Z-5.697
G1X42.913Z-4.820
G1X42.430Z-3.830
G1X42.108Z-3.318
G1X41.302Z-2.287
G1X40.980Z-1.929
G1X40.819Z-1.778
G1X40.914Y5.813Z-1.806
G1X40.953Y6.105Z-1.848
G1X40.973Y6.560Z-1.867
G1X41.014Y7.470Z-1.805
G1X41.020Y7.621Z-1.791
G1X41.488Z-2.241
G1X41.955Z-2.756
G1X42.267Z-3.173
G1X42.578Z-3.660
G1X42.890Z-4.240
G1X43.202Z-4.964
G1X43.513Z-5.841
G1X43.825Z-6.908
G1X44.136Z-8.138
G1X44.292Z-8.382
G1X44.915
G1X44.989Y8.190
G1X45.003Y8.877
G1X44.991Y10.161
G1X44.191
G1X44.031Z-8.000
G1X43.551Z-6.227
G1X43.231Z-5.213
G1X42.911Z-4.402
G1X42.591Z-3.759
G1X42.271Z-3.222
G1X42.111Z-2.977
G1X41.631Z-2.371
G1X41.311Z-2.035
G1X40.991Z-1.742
G1X40.967Y10.607Z-1.777
G1X40.959Y10.756Z-1.798
G1X40.768Y11.891Z-1.879
G1X40.633Y12.701Z-1.962
G1X41.107Z-2.387
G1X41.581Z-2.893
G1X41.897Z-3.318
G1X42.214Z-3.795
G1X42.530Z-4.393
G1X42.846Z-5.134
G1X43.162Z-6.032
G1X43.478Z-7.073
G1X43.795Z-8.272
G1X43.953Z-8.382
G1X44.427
G1X44.113Y14.341
G1X43.924Y15.241
G1X43.295
G1X43.137Z-8.017
G1X42.666Z-6.399
G1X42.351Z-5.478
G1X42.037Z-4.703
G1X41.722Z-4.095
G1X41.250Z-3.333
G1X40.778Z-2.740
G1X40.464Z-2.386
G1X39.992Z-1.968
G1X39.899Y15.579Z-1.977
G1X39.442Y16.754Z-1.919
G1X39.041Y17.781Z-1.945
G1X39.677Z-2.584
G1X40.312Z-3.318
G1X40.630Z-3.766
G1X40.948Z-4.293
G1X41.265Z-4.924
G1X41.583Z-5.700
G1X41.901Z-6.645
G1X42.377Z-8.288
G1X42.536Z-8.382
G1X43.172
G1X41.939Y20.321
G1X41.305
G1X41.147Z-7.969
G1X40.672Z-6.406
G1X40.355Z-5.561
G1X40.039Z-4.828
G1X39.564Z-3.971
G1X39.247Z-3.498
G1X38.772Z-2.883
G1X38.297Z-2.369
G1X37.822Z-1.958
G1X37.663Z-1.831
G1X37.311Y20.854Z-1.838
G1X37.047Y21.253Z-1.897
G1X36.783Y21.653Z-1.901
G1X36.484Y22.015Z-1.863
G1X36.185Y22.378Z-1.776
G1X35.787Y22.861Z-1.742
G1X36.418Z-2.271
G1X37.048Z-2.910
G1X37.364Z-3.289
G1X37.994Z-4.124
G1X38.310Z-4.644
G1X38.940Z-6.013
G1X39.098Z-6.412
G1X39.729Z-8.349
G1X39.886Z-8.382
G1X40.517
G1X40.152Y23.301
G1X39.970Y23.656
G1X39.694Y24.071
G1X39.124Y24.778
G1X38.567Y25.401
G1X37.786
G1X37.629Z-8.109
G1X36.847Z-6.076
G1X36.535Z-5.374
G1X36.222Z-4.796
G1X35.909Z-4.269
G1X35.597Z-3.825
G1X35.127Z-3.287
G1X34.502Z-2.746
G1X34.033Z-2.392
G1X33.095Z-1.890
G1X32.706Y25.704Z-1.922
G1X32.318Y26.007Z-1.877
G1X31.909Y26.256Z-1.819
G1X31.500Y26.506Z-1.803
G1X30.955Y26.838Z-1.811
G1X30.546Y27.088Z-1.877
G1X29.961Y27.361Z-1.915
G1X29.523Y27.567Z-1.913
G1X28.938Y27.841Z-1.898
G1X28.632Y27.941Z-1.862
G1X29.428Z-2.204
G1X30.065Z-2.511
G1X30.701Z-2.881
G1X31.179Z-3.133
G1X31.497Z-3.356
G1X32.134Z-3.915
G1X32.771Z-4.570
G1X33.726Z-5.829
G1X34.204Z-6.678
G1X34.522Z-7.319
G1X34.841Z-8.060
G1X35.000Z-8.382
G1X35.955
G1X35.420Y28.369
G1X34.755Y28.833
G1X34.384Y29.154
G1X34.006Y29.488
G1X33.762Y29.652
G1X32.512Y30.269
G1X32.071Y30.481
G1X30.810
G1X30.652Z-8.368
G1X30.021Z-7.530
G1X29.233Z-6.604
G1X28.445Z-5.844
G1X27.815Z-5.320
G1X27.184Z-4.896
G1X26.554Z-4.520
G1X25.923Z-4.252
G1X25.293Z-4.019
G1X24.347Z-3.776
G1X22.770Z-3.467
G1X22.140Z-3.397
G1X21.509Z-3.374
G1X20.564Z-3.410
G1X18.199Z-3.637
G1X17.569Z-3.734
G1X16.623Z-3.948
G1X15.520Z-4.281
G1X14.889Z-4.543
G1X14.258Z-4.870
G1X13.628Z-5.306
G1X13.155Z-5.773
G1X12.682Z-6.252
G1X11.736Z-7.367
G1X11.263Z-8.006
G1X11.106Z-8.246
G1X10.948Z-8.382
G1X10.002
G1X10.589Y30.816
G1X11.377Y31.173
G1X12.083Y31.441
G1X13.000Y31.734
G1X14.244Y32.068
G1X15.730Y32.384
G1X17.185Y32.629
G1X18.666Y32.819
G1X20.065Y32.935
G1X21.435Y32.989
G1X22.181
G0Z5.080
G0X17.377Y0.001
G1Z-10.331F1016.0
G1X17.220Z-10.245F2032.0
G1X16.434Z-9.615
G1X16.120Z-9.323
G1X15.177Z-8.582
G1X14.706Z-8.295
G1X13.606Z-7.818
G1X13.449Z-7.779
G1X13.135Z-7.752
G1X12.350Z-7.792
G1X11.878Z-7.894
G1X11.093Z-8.115
G1X10.465Z-8.363
G1X10.150Z-8.548
G1X9.522Z-9.025
G1X9.208Z-9.236
G1X8.737Z-9.666
G1X8.265Z-10.081
G1X7.718Y0.239Z-9.974
G1X7.566Y0.305Z-9.968
G1X7.012Y0.571Z-9.836
G1X6.702Y0.721Z-9.820
G1X6.339Y0.914Z-9.857
G1X6.087Y1.050Z-9.924
G1X5.564Y1.360Z-9.944
G1X5.368Y1.497Z-9.963
G1X5.047Y1.758Z-9.872
G1X4.804Y1.981Z-9.753
G1X4.560Y2.205Z-9.684
G1X4.438Y2.317Z-9.662
G1X4.195Y2.541Z-9.678
G1X4.990Z-7.723
G1X5.308Z-6.986
G1X5.786Z-6.049
G1X6.104Z-5.578
G1X6.740Z-4.786
G1X7.058Z-4.459
G1X7.376Z-4.215
G1X8.013Z-3.780
G1X8.490Z-3.539
G1X9.603Z-3.106
G1X10.080Z-2.997
G1X9.747Y2.620Z-2.972
G1X9.310Y2.792Z-2.869
G1X8.874Y2.963Z-2.800
G1X8.293Y3.192Z-2.784
G1X7.767Y3.499Z-2.675
G1X7.242Y3.805Z-2.648
G1X6.979Y3.959Z-2.656
G1X6.163Y4.644Z-2.542
G1X5.930Y4.840Z-2.549
G1X5.720Y5.081Z-2.526
G1X5.077Z-3.066
G1X4.434Z-3.755
G1X4.112Z-4.195
G1X3.791Z-4.719
G1X3.309Z-5.743
G1X2.987Z-6.617
G1X2.666Z-7.628
G1X2.023Z-9.716
G1X1.829Y5.333Z-9.825
G1X1.698Y5.523Z-9.876
G1X1.534Y5.784Z-9.885
G1X1.400Y6.029Z-9.862
G1X1.204Y6.469Z-9.793
G1X1.104Y6.799Z-9.668
G1X1.050Y7.042Z-9.512
G1X0.990Y7.199Z-9.478
G1X0.926Y7.340Z-9.489
G1X0.862Y7.481Z-9.531
G1X0.799Y7.621Z-9.536
G1X1.586Z-6.592
G1X1.901Z-5.610
G1X2.216Z-4.794
G1X2.531Z-4.137
G1X2.689Z-3.854
G1X3.162Z-3.169
G1X3.634Z-2.630
G1X3.949Z-2.325
G1X3.357Y8.899Z-2.341
G1X3.207Y9.373Z-2.325
G1X3.008Y10.004Z-2.315
G1X2.958Y10.161Z-2.311
G1X2.491Z-2.841
G1X2.335Z-3.048
G1X1.868Z-3.787
G1X1.557Z-4.387
G1X1.245Z-5.131
G1X0.778Z-6.578
G1X0.000Z-9.657
G1Y11.273Z-9.042
G1Y12.384Z-8.345
G1Y12.701Z-8.218
G1X0.465Z-6.413
G1X0.775Z-5.387
G1X1.240Z-4.235
G1X1.705Z-3.376
G1X2.015Z-2.896
G1X2.480Z-2.294
G1X2.464Y13.030Z-2.315
G1X2.447Y13.358Z-2.295
G1X2.405Y14.180Z-2.314
G1X2.478Y15.090Z-2.258
G1X2.490Y15.241Z-2.242
G1X2.179Z-2.614
G1X1.868Z-3.059
G1X1.556Z-3.612
G1X1.245Z-4.240
G1X0.934Z-5.034
G1X0.778Z-5.480
G1X0.467Z-6.590
G1X0.000Z-8.371
G1Y15.559Z-8.497
G1Y16.988Z-9.221
G1Y17.781Z-9.759
G1X0.811Z-6.628
G1X1.135Z-5.539
G1X1.459Z-4.642
G1X1.621Z-4.242
G1X1.946Z-3.603
G1X2.270Z-3.048
G1X2.432Z-2.814
G1X2.918Z-2.255
G1X3.014Y18.084Z-2.231
G1X3.157Y18.539Z-2.252
G1X3.491Y19.600Z-2.401
G1X3.746Y20.177Z-2.382
G1X3.809Y20.321Z-2.382
G1X3.329Z-2.931
G1X2.849Z-3.642
G1X2.528Z-4.199
G1X2.208Z-4.906
G1X2.048Z-5.302
G1X1.728Z-6.229
G1X1.248Z-7.943
G1X0.768Z-9.708
G1X0.908Y20.707Z-9.715
G1X1.109Y21.351Z-9.935
G1X1.205Y21.621Z-9.991
G1X1.289Y21.826Z-10.006
G1X1.370Y22.003Z-9.992
G1X1.508Y22.295Z-10.035
G1X1.653Y22.578Z-10.040
G1X1.804Y22.861Z-10.022
G1X1.961Z-9.600
G1X2.905Z-6.502
G1X3.219Z-5.639
G1X3.534Z-4.915
G1X3.848Z-4.316
G1X4.320Z-3.595
G1X4.949Z-2.862
G1X5.263Z-2.532
G1X5.760Y23.452Z-2.479
G1X6.058Y23.806Z-2.485
G1X6.157Y23.925Z-2.501
G1X7.039Y24.768Z-2.501
G1X7.700Y25.401Z-2.550
G1X7.057Z-3.129
G1X6.254Z-3.967
G1X5.932Z-4.362
G1X5.611Z-4.860
G1X5.289Z-5.460
G1X4.968Z-6.172
G1X4.646Z-6.996
G1X3.843Z-9.301
G1X3.682Z-9.772
G1X3.521Z-10.181
G1X3.701Y25.609Z-10.228
G1X4.028Y25.951Z-10.242
G1X4.390Y26.292Z-10.191
G1X4.644Y26.506Z-10.131
G1X4.804Y26.629Z-10.057
G1X4.993Y26.872Z-10.167
G1X5.172Y27.071Z-10.265
G1X5.315Y27.217Z-10.270
G1X5.647Y27.526Z-10.217
G1X5.787Y27.644Z-10.190
G1X6.009Y27.829Z-10.200
G1X6.152Y27.941Z-10.220
G1X6.471Z-9.481
G1X7.748Z-6.346
G1X8.068Z-5.677
G1X8.547Z-4.923
G1X8.706Z-4.684
G1X9.345Z-3.960
G1X9.824Z-3.536
G1X10.143Z-3.310
G1X10.782Z-2.944
G1X11.261Z-2.704
G1X12.108Y28.303Z-2.693
G1X12.815Y28.604Z-2.723
G1X13.424Y28.795Z-2.617
G1X14.185Y29.033Z-2.536
G1X14.794Y29.224Z-2.540
G1X15.251Y29.367Z-2.585
G1X16.043Y29.529Z-2.607
G1X16.835Y29.692Z-2.718
G1X17.628Y29.854Z-2.781
G1X18.103Y29.951Z-2.854
G1X20.171Y29.952Z-2.694
G1X20.807Y29.952Z-2.664
G1X21.603Y29.953Z-2.617
G1X22.554Y29.941Z-2.665
G1X24.446Y29.867Z-2.840
G1X25.072Y29.748Z-2.803
G1X25.698Y29.629Z-2.814
G1X26.167Y29.539Z-2.851
G1X27.258Y29.224Z-2.861
G1X28.037Y28.999Z-2.774
G1X28.349Y28.909Z-2.761
G1X28.956Y28.662Z-2.742
G1X29.563Y28.416Z-2.750
G1X30.018Y28.231Z-2.794
G1X30.322Y28.108Z-2.843
G1X30.625Y27.941Z-2.841
G0Z5.080
G0X24.985Y2.541
G1Z-9.738F1016.0
G1X26.228Z-8.885F2032.0
G1X27.316Z-8.300
G1X28.093Z-7.977
G0Z5.080
G0X24.985
G1Z-9.738F1016.0
G1X24.810Y2.974Z-10.028F2032.0
G1X24.760Y3.189Z-10.164
G1X24.709Y3.461Z-10.273
G1X24.690Y3.876Z-10.430
G1X24.702Y4.020Z-10.473
G1X24.765Y4.506Z-10.552
G1X24.831Y4.937Z-10.682
G1X24.853Y5.081Z-10.698
G1X25.014Z-10.470
G1X25.335Z-10.114
G1X25.817Z-9.707
G1X27.102Z-8.861
G1X27.583Z-8.546
G1X28.065Z-8.300
G1X28.868Z-7.940
G1X28.949Y5.397Z-7.932
G1X29.195Y7.184Z-7.986
G1X29.198Y7.621Z-8.008
G1X28.091Z-8.496
G1X27.616Z-8.779
G1X26.509Z-9.524
G1X26.193Z-9.742
G1X25.718Z-10.158
G1X25.402Z-10.495
G1X25.244Z-10.708
G1X25.296Y7.960Z-10.555
G1X25.374Y8.468Z-10.426
G1X25.325Y8.927Z-10.468
G1X25.271Y9.388Z-10.412
G1X25.206Y9.852Z-10.423
G1X25.163Y10.161Z-10.384
G1X25.482Z-10.074
G1X25.801Z-9.813
G1X27.396Z-8.753
G1X27.874Z-8.495
G1X28.991Z-8.003
G1X28.966Y10.319Z-8.002
G1X28.712Y11.203Z-8.039
G1X28.458Y12.086Z-8.004
G1X28.193Y12.701Z-8.019
G1X27.256Z-8.348
G1X26.787Z-8.569
G1X24.445Z-9.960
G1X24.133Z-10.191
G1X23.977Z-10.334
G0Z5.080
G0X15.493Y2.541
G1Z-3.635F1016.0
G1X16.291Z-4.184F2032.0
G1X16.610Z-4.446
G1X17.089Z-4.911
G1X17.408Z-5.283
G1X17.887Z-5.834
G1X18.206Z-6.270
G1X19.004Z-7.579
G1X20.121Z-9.741
G1X20.440Z-10.231
G1X20.599Z-10.408
G1X20.881Y2.966Z-10.370
G1X21.005Y3.097Z-10.407
G1X21.258Y3.404Z-10.433
G1X21.542Y3.814Z-10.435
G1X21.736Y4.148Z-10.448
G1X21.989Y4.634Z-10.492
G1X22.161Y5.013Z-10.489
G1X22.188Y5.081Z-10.482
G1X22.029Z-10.262
G1X21.870Z-9.959
G1X20.914Z-7.793
G1X20.277Z-6.572
G1X19.959Z-6.063
G1X19.163Z-4.914
G1X18.685Z-4.356
G1X19.102Y5.722Z-4.559
G1X19.185Y5.850Z-4.614
G1X19.439Y6.466Z-4.740
G1X19.629Y6.927Z-4.894
G1X19.732Y7.448Z-4.960
G1X19.766Y7.621Z-5.001
G1X20.233Z-5.510
G1X20.545Z-5.887
G1X21.012Z-6.582
G1X21.323Z-7.162
G1X21.790Z-8.191
G1X22.413Z-9.735
G1X22.724Z-10.371
G1X22.744Y8.686Z-10.348
G1X22.742Y9.011Z-10.376
G1X22.728Y9.476Z-10.479
G1X22.664Y10.074Z-10.507
G1X22.648Y10.161Z-10.515
G1X22.491Z-10.304
G1X22.179Z-9.726
G1X21.554Z-8.350
G1X21.241Z-7.779
G1X20.773Z-7.058
G1X20.616Z-6.853
G1X19.991Z-6.187
G1X19.523Z-5.778
G1X19.366Z-5.667
G1X19.073Y10.638Z-5.847
G1X18.752Y10.924Z-5.921
G1X18.538Y11.115Z-6.001
G1X17.987Y11.316Z-6.028
G1X17.395Y11.312Z-5.964
G1X17.247Y11.311Z-5.968
G1X16.756Y11.249Z-5.943
G1X16.428Y11.208Z-5.973
G1X15.936Y11.146Z-6.085
G1X15.609Y11.105Z-6.207
G1X15.121Y11.219Z-6.706
G1X14.958Y11.257Z-6.883
G1X14.547Y11.552Z-7.695
G1X14.420Y11.839Z-8.187
G1X14.357Y11.983Z-8.293
G1X14.261Y12.701Z-8.228
G1X15.048Z-8.472
G1X15.205Z-8.536
G1X15.363Z-8.484
G1X15.835Z-8.134
G1X16.150Z-7.934
G1X16.622Z-7.719
G1X16.937Z-7.618
G1X17.409Z-7.542
G1X17.724Z-7.545
G1X18.039Z-7.603
G1X18.354Z-7.694
G1X18.669Z-7.831
G1X19.298Z-8.220
G1X19.613Z-8.471
G1X19.928Z-8.814
G1X20.400Z-9.415
G1X20.872Z-10.081
G1X21.345Z-10.582
G1X21.094Y12.981Z-10.607
G1X20.844Y13.222Z-10.606
G1X20.557Y13.463Z-10.593
G1X20.362Y13.610Z-10.603
G1X19.870Y13.904Z-10.592
G1X19.647Y14.017Z-10.578
G1X19.448Y14.099Z-10.498
G1X19.246Y14.172Z-10.401
G1X19.829Y14.188Z-10.405
G1X20.120Y14.196Z-10.449
G1X20.286Y14.197Z-10.498
G1X20.949Y14.201Z-10.544
G1X21.482Y14.185Z-10.368
G1X22.179Y13.865Z-10.408
G1X22.553Y13.718Z-10.354
G1X22.754Y13.654Z-10.301
G1X23.100Y13.424Z-10.289
G1X23.652Y12.998Z-10.430
G1X23.759Y12.904Z-10.410
G1X23.977Y12.701Z-10.334
G0Z5.080
G0X26.485Y15.241
G1Z-8.000F1016.0
G1X25.851Z-8.207F2032.0
G1X25.059Z-8.500
G1X24.108Z-8.749
G1X22.682Z-9.211
G1X21.098Z-9.564
G1X19.514Z-9.455
G1X18.880Z-9.428
G1X18.563Z-9.393
G1X17.613Z-9.073
G1X16.503Z-8.590
G1X15.711Z-8.328
G1X15.236Z-8.143
G1X14.919Z-8.003
G1X15.197Y15.684Z-8.049
G1X15.461Y16.096Z-7.941
G1X16.125Y16.654Z-7.863
G1X16.569Y16.898Z-7.863
G1X17.161Y17.224Z-7.819
G1X17.727Y17.402Z-7.841
G1X18.293Y17.580Z-7.798
G1X18.755Y17.640Z-7.790
G1X19.370Y17.721Z-7.752
G1X19.831Y17.781Z-7.757
G1X21.102Z-7.828
G1X21.420Z-7.787
G0Z5.080
G0X41.134Y2.541
G1Z-2.492F1016.0
G1X41.610Z-3.094F2032.0
G1X41.928Z-3.569
G1X42.404Z-4.499
G1X42.563Z-4.874
G1X43.040Z-6.257
G1X43.516Z-8.011
G1X43.993Z-9.875
G0Z5.080
G0X41.134
G1Z-2.492F1016.0
G1X41.236Y3.000Z-2.529F2032.0
G1X41.407Y3.766Z-2.631
G1X41.519Y4.588Z-2.651
G1X41.563Y4.917Z-2.635
G1X41.585Y5.081Z-2.643
G1X42.049Z-3.238
G1X42.359Z-3.709
G1X42.668Z-4.287
G1X42.978Z-4.992
G1X43.287Z-5.835
G1X43.596Z-6.923
G1X44.370Z-9.896
G1X44.525Z-10.368
G1X44.647Y5.875Z-10.445
G1X44.671Y6.034Z-10.474
G1X44.744Y6.510Z-10.410
G1X44.818Y6.986Z-10.424
G1X44.915Y7.621Z-10.508
G1X44.760Z-10.316
G1X44.604Z-9.964
G1X43.826Z-6.914
G1X43.515Z-5.848
G1X43.204Z-4.969
G1X42.893Z-4.247
G1X42.582Z-3.666
G1X42.271Z-3.178
G1X41.960Z-2.762
G1X41.804Z-2.586
G1X41.837Y8.421Z-2.578
G1X41.850Y8.741Z-2.589
G1X41.783Y9.846Z-2.524
G1X41.764Y10.161Z-2.532
G1X42.087Z-2.943
G1X42.410Z-3.439
G1X42.733Z-4.042
G1X42.894Z-4.362
G1X43.217Z-5.179
G1X43.539Z-6.177
G1X44.507Z-9.793
G1X44.669Z-10.290
G1X44.830Z-10.473
G1X44.991Z-10.689
G1X44.959Y10.467Z-10.703
G1X44.853Y10.882Z-10.715
G1X44.795Y11.027Z-10.703
G1X44.737Y11.172Z-10.670
G1X44.685Y11.276Z-10.596
G1X44.612Y11.399Z-10.457
G1X44.520Y12.111Z-10.476
G1X44.427Y12.701Z-10.498
G1X44.270Z-10.034
G1X43.643Z-7.692
G1X43.330Z-6.553
G1X42.859Z-5.165
G1X42.546Z-4.428
G1X42.232Z-3.826
G1X41.762Z-3.123
G1X41.448Z-2.746
G1X41.319Y13.488Z-2.777
G1X41.106Y14.285Z-2.753
G1X40.893Y15.082Z-2.819
G1X40.850Y15.241Z-2.826
G1X41.174Z-3.229
G1X41.497Z-3.714
G1X41.983Z-4.584
G1X42.468Z-5.797
G1X42.791Z-6.803
G1X43.600Z-9.666
G1X43.924Z-10.520
G1X43.827Y15.701Z-10.557
G1X43.687Y16.160Z-10.550
G1X43.548Y16.458Z-10.516
G1X43.521Y16.652Z-10.601
G1X43.484Y16.847Z-10.634
G1X43.375Y17.262Z-10.660
G1X43.285Y17.519Z-10.669
G1X43.172Y17.781Z-10.643
G1X42.849Z-9.838
G1X42.688Z-9.368
G1X41.881Z-6.576
G1X41.558Z-5.630
G1X41.236Z-4.860
G1X40.913Z-4.236
G1X40.752Z-3.950
G1X40.429Z-3.474
G1X40.106Z-3.070
G1X39.945Z-2.881
G1X39.645Y18.393Z-2.864
G1X39.228Y19.226Z-2.802
G1X38.880Y19.920Z-2.790
G1X38.729Y20.190Z-2.759
G1X38.646Y20.321Z-2.740
G1X39.117Z-3.327
G1X39.430Z-3.756
G1X39.901Z-4.568
G1X40.057Z-4.866
G1X40.371Z-5.599
G1X40.685Z-6.445
G1X41.625Z-9.567
G1X41.782Z-10.019
G1X41.939Z-10.411
G1X41.871Y20.463Z-10.457
G1X41.597Y21.027Z-10.511
G1X41.535Y21.248Z-10.607
G1X41.391Y21.605Z-10.614
G1X41.260Y21.860Z-10.617
G1X40.990Y22.271Z-10.603
G1X40.748Y22.579Z-10.550
G1X40.632Y22.720Z-10.509
G1X40.517Y22.861Z-10.492
G1X40.361Z-10.162
G1X39.894Z-8.859
G1X39.115Z-6.457
G1X38.803Z-5.710
G1X38.336Z-4.692
G1X38.025Z-4.167
G1X37.246Z-3.147
G1X36.934Z-2.791
G1X36.656Y23.247Z-2.782
G1X36.286Y23.761Z-2.842
G1X35.934Y24.069Z-2.768
G1X35.232Y24.684Z-2.669
G1X34.881Y24.991Z-2.653
G1X34.412Y25.401Z-2.671
G1X35.051Z-3.212
G1X35.371Z-3.548
G1X35.691Z-3.950
G1X36.010Z-4.439
G1X36.330Z-4.976
G1X36.809Z-5.987
G1X36.969Z-6.354
G1X37.928Z-8.911
G1X38.408Z-10.111
G1X38.567Z-10.398
G1X38.235Y25.753Z-10.411
G1X38.007Y25.995Z-10.396
G1X37.737Y26.267Z-10.412
G1X37.400Y26.605Z-10.478
G1X37.231Y26.773Z-10.484
G1X37.010Y26.982Z-10.463
G1X36.900Y27.086Z-10.471
G1X36.790Y27.191Z-10.502
G1X36.356Y27.590Z-10.480
G1X36.222Y27.707Z-10.489
G1X36.089Y27.824Z-10.476
G1X35.955Y27.941Z-10.487
G1X35.641Z-9.935
G1X34.544Z-7.368
G1X34.230Z-6.736
G1X33.760Z-5.881
G1X32.820Z-4.626
G1X32.192Z-3.970
G1X31.565Z-3.409
G1X31.095Z-3.083
G1X30.625Z-2.841
G0Z5.080
G0X32.071Y30.481
G1Z-10.387F1016.0
G1X31.913Z-10.228F2032.0
G1X31.755Z-10.035
G1X30.810Z-8.625
G1X30.652Z-8.368
G1X30.021Z-7.530
G1X29.233Z-6.604
G1X28.445Z-5.844
G1X27.815Z-5.320
G1X27.184Z-4.896
G1X26.554Z-4.520
G1X25.923Z-4.252
G1X25.293Z-4.019
G1X24.347Z-3.776
G1X22.770Z-3.467
G1X22.140Z-3.397
G1X21.509Z-3.374
G1X20.564Z-3.410
G1X18.199Z-3.637
G1X17.569Z-3.734
G1X16.623Z-3.948
G1X15.520Z-4.281
G1X14.889Z-4.543
G1X14.258Z-4.870
G1X13.628Z-5.306
G1X13.155Z-5.773
G1X12.682Z-6.252
G1X11.736Z-7.367
G1X11.263Z-8.006
G1X10.475Z-9.223
G1X10.002Z-10.010
G1X10.393Y30.713Z-10.063
G1X10.589Y30.816Z-10.117
G1X10.909Y30.968Z-10.231
G1X11.215Y31.108Z-10.278
G1X11.377Y31.173Z-10.295
G1X11.812Y31.346Z-10.380
G1X12.395Y31.546Z-10.363
G1X12.829Y31.684Z-10.387
G1X13.433Y31.860Z-10.319
G1X13.725Y31.935Z-10.269
G1X14.244Y32.068Z-10.283
G1X14.553Y32.138Z-10.240
G1X14.861Y32.207Z-10.239
G1X15.089Y32.258Z-10.259
G1X15.570Y32.353Z-10.219
G1X16.454Y32.513Z-10.243
G1X17.018Y32.605Z-10.264
G1X18.091Y32.751Z-10.338
G1X19.331Y32.881Z-10.438
G1X20.465Y32.960Z-10.537
G1X21.286Y32.989Z-10.560
G1X22.181Z-10.503
G0Z5.080
M5
G0Z5.080
G0X0.000Y0.000
M2
