(VECTRIC POST REVISION)
(FC16A22438222CB0A5088D1738135480)
T1
G17
G21
G90
G0Z5.080
G0X0.000Y0.000
S18000M3
G0X40.891Y0.493Z5.080
G1Z-6.007F635.0
G1X40.732Z-5.428F1524.0
G1X40.415Z-4.493
G1X40.257Z-4.067
G1X39.940Z-3.413
G1X39.623Z-2.923
G1X39.307Z-2.496
G1X38.356Z-1.480
G1X38.039Z-1.233
G1X37.564Z-0.966
G1X37.247Z-0.842
G1X36.930Z-0.767
G1X36.614Z-0.746
G1X36.297Z-0.760
G1X35.980Z-0.814
G1X35.663Z-0.911
G1X35.346Z-1.054
G1X34.871Z-1.354
G1X34.713Z-1.481
G1X34.396Z-1.815
G1X34.079Z-2.193
G1X33.762Z-2.654
G1X32.495Z-4.612
G1X31.861Z-5.466
G1X31.545Z-5.823
G1X30.594Z-6.733
G1X29.327Z-7.710
G1X29.168Z-7.794
G1X27.278Y0.500Z-8.501
G1X26.960Y0.535Z-8.644
G1X26.624Y0.607Z-8.870
G1X26.331Y0.700Z-9.095
G1X26.073Y0.810Z-9.307
G1X26.863Z-8.774
G1X27.179Z-8.598
G1X29.232Z-7.819
G1X29.390Z-7.746
G1X30.812Z-6.661
G1X31.444Z-6.059
G1X32.233Z-5.123
G1X32.865Z-4.232
G1X33.971Z-2.526
G1X34.445Z-1.900
G1X34.761Z-1.581
G1X35.235Z-1.193
G1X35.393Z-1.081
G1X35.709Z-0.912
G1X36.025Z-0.807
G1X36.340Z-0.737
G1X36.656Z-0.716
G1X37.130Z-0.755
G1X37.446Z-0.849
G1X37.762Z-0.991
G1X38.078Z-1.194
G1X38.394Z-1.449
G1X39.342Z-2.475
G1X39.658Z-2.869
G1X40.132Z-3.612
G1X40.290Z-3.947
G1X40.606Z-4.781
G1X40.764Z-5.285
G1X41.711Z-9.115
G1X41.869Z-9.624
G1X42.029Y0.976Z-9.858
G1X42.131Y1.128Z-10.056
G1X41.973Z-9.705
G1X41.657Z-8.553
G1X41.024Z-5.922
G1X40.866Z-5.319
G1X40.708Z-4.824
G1X40.233Z-3.637
G1X39.917Z-3.140
G1X39.601Z-2.711
G1X38.494Z-1.486
G1X38.335Z-1.328
G1X38.019Z-1.097
G1X37.703Z-0.920
G1X37.387Z-0.801
G1X37.070Z-0.720
G1X36.754Z-0.706
G1X36.280Z-0.747
G1X35.963Z-0.830
G1X35.647Z-0.979
G1X35.489Z-1.071
G1X34.856Z-1.596
G1X34.540Z-1.920
G1X33.749Z-3.059
G1X32.958Z-4.266
G1X32.168Z-5.313
G1X31.377Z-6.239
G1X30.903Z-6.676
G1X29.637Z-7.629
G1X29.479Z-7.751
G1X29.321Z-7.834
G1X27.581Z-8.488
G1X27.107Z-8.721
G1X26.474Z-9.139
G1X25.684Z-9.675
G1X25.528Y1.357Z-9.875
G1X25.492Y1.445Z-9.946
G1X25.650Z-9.807
G1X27.074Z-8.829
G1X27.707Z-8.496
G1X29.130Z-7.954
G1X29.447Z-7.838
G1X30.396Z-7.122
G1X30.870Z-6.804
G1X31.345Z-6.363
G1X31.977Z-5.655
G1X33.243Z-4.016
G1X34.192Z-2.586
G1X34.508Z-2.082
G1X34.825Z-1.702
G1X35.141Z-1.390
G1X35.457Z-1.130
G1X35.774Z-0.946
G1X36.090Z-0.817
G1X36.723Z-0.710
G1X37.039Z-0.719
G1X37.514Z-0.832
G1X37.988Z-1.049
G1X38.147Z-1.135
G1X38.463Z-1.382
G1X38.937Z-1.842
G1X39.570Z-2.566
G1X40.045Z-3.175
G1X40.203Z-3.415
G1X40.519Z-4.100
G1X40.677Z-4.485
G1X40.836Z-4.972
G1X41.152Z-6.124
G1X41.785Z-8.750
G1X41.943Z-9.338
G1X42.259Z-10.164
G1X42.302Y1.619Z-10.114
G1X42.335Y1.763Z-10.104
G1X42.177Z-9.753
G1X42.018Z-9.299
G1X41.860Z-8.752
G1X41.227Z-6.159
G1X40.911Z-5.028
G1X40.594Z-4.126
G1X40.278Z-3.401
G1X39.961Z-2.927
G1X39.170Z-1.977
G1X38.854Z-1.666
G1X38.379Z-1.257
G1X38.062Z-1.039
G1X37.588Z-0.845
G1X37.271Z-0.754
G1X36.955Z-0.705
G1X36.638Z-0.713
G1X36.164Z-0.829
G1X35.847Z-0.943
G1X35.531Z-1.122
G1X35.372Z-1.235
G1X34.898Z-1.708
G1X34.581Z-2.094
G1X33.632Z-3.611
G1X33.157Z-4.251
G1X32.049Z-5.677
G1X31.258Z-6.542
G1X30.942Z-6.840
G1X29.992Z-7.495
G1X29.518Z-7.860
G1X28.093Z-8.393
G1X27.619Z-8.620
G1X26.986Z-8.980
G1X25.720Z-9.870
G1X25.562Z-10.024
G1X25.403Z-10.236
G1X25.390Y1.923Z-10.348
G1X25.400Y2.080Z-10.467
G1X25.557Z-10.197
G1X25.715Z-10.017
G1X25.872Z-9.866
G1X27.132Z-8.979
G1X28.077Z-8.460
G1X28.865Z-8.148
G1X29.494Z-7.917
G1X29.652Z-7.830
G1X30.282Z-7.370
G1X31.069Z-6.830
G1X32.014Z-5.822
G1X33.589Z-3.801
G1X34.691Z-2.068
G1X34.849Z-1.860
G1X35.321Z-1.347
G1X35.636Z-1.100
G1X35.794Z-1.006
G1X36.266Z-0.822
G1X36.581Z-0.736
G1X37.054Z-0.707
G1X37.369Z-0.750
G1X37.683Z-0.849
G1X38.156Z-1.057
G1X38.313Z-1.144
G1X38.628Z-1.378
G1X39.258Z-1.963
G1X39.888Z-2.698
G1X40.203Z-3.136
G1X40.676Z-4.136
G1X40.833Z-4.569
G1X41.148Z-5.609
G1X41.778Z-8.111
G1X41.935Z-8.747
G1X42.093Z-9.282
G1X42.250Z-9.737
G1X42.408Z-10.085
G1X42.481Y2.398Z-10.103
G1X42.324Z-9.758
G1X42.166Z-9.300
G1X41.851Z-8.108
G1X41.379Z-6.213
G1X41.064Z-5.128
G1X40.749Z-4.185
G1X40.592Z-3.784
G1X40.277Z-3.129
G1X39.962Z-2.666
G1X39.490Z-2.113
G1X39.018Z-1.647
G1X38.546Z-1.247
G1X38.073Z-0.976
G1X37.601Z-0.778
G1X37.286Z-0.719
G1X36.971Z-0.698
G1X36.657Z-0.735
G1X36.342Z-0.836
G1X35.869Z-1.035
G1X35.712Z-1.119
G1X35.555Z-1.228
G1X35.240Z-1.509
G1X34.768Z-2.066
G1X33.508Z-4.033
G1X32.406Z-5.462
G1X32.091Z-5.853
G1X31.147Z-6.840
G1X30.989Z-6.986
G1X29.573Z-7.940
G1X28.628Z-8.297
G1X27.999Z-8.597
G1X27.211Z-9.026
G1X26.109Z-9.798
G1X25.795Z-10.090
G1X25.637Z-10.306
G1X25.480Z-10.684
G1X25.557Y2.582Z-10.790
G1X25.616Y2.715Z-10.779
G1X25.775Z-10.338
G1X25.933Z-10.109
G1X26.091Z-9.922
G1X26.408Z-9.663
G1X27.199Z-9.113
G1X28.307Z-8.544
G1X29.415Z-8.053
G1X29.732Z-7.914
G1X30.998Z-7.061
G1X31.157Z-6.938
G1X31.948Z-6.133
G1X32.898Z-4.963
G1X33.373Z-4.348
G1X34.798Z-2.145
G1X35.114Z-1.733
G1X35.431Z-1.388
G1X35.589Z-1.254
G1X35.906Z-1.052
G1X36.222Z-0.918
G1X36.539Z-0.798
G1X36.855Z-0.719
G1X37.172Z-0.690
G1X37.489Z-0.725
G1X37.805Z-0.803
G1X38.280Z-1.020
G1X38.438Z-1.104
G1X38.755Z-1.332
G1X39.547Z-2.067
G1X40.021Z-2.657
G1X40.180Z-2.884
G1X40.496Z-3.481
G1X40.655Z-3.790
G1X40.813Z-4.165
G1X41.130Z-5.099
G1X41.604Z-6.872
G1X42.079Z-8.726
G1X42.238Z-9.275
G1X42.396Z-9.738
G1X42.554Z-10.092
G1X42.591Y2.874Z-10.127
G1X42.627Y3.033Z-10.121
G1X42.470Z-9.771
G1X42.312Z-9.312
G1X41.997Z-8.143
G1X41.524Z-6.293
G1X41.208Z-5.180
G1X40.893Z-4.278
G1X40.578Z-3.545
G1X40.262Z-2.945
G1X39.789Z-2.287
G1X39.474Z-1.932
G1X39.001Z-1.478
G1X38.686Z-1.219
G1X38.370Z-1.023
G1X37.897Z-0.799
G1X37.582Z-0.710
G1X37.267Z-0.688
G1X36.951Z-0.714
G1X36.636Z-0.788
G1X36.321Z-0.884
G1X36.005Z-1.031
G1X35.848Z-1.117
G1X35.532Z-1.363
G1X35.217Z-1.692
G1X34.902Z-2.102
G1X33.325Z-4.537
G1X32.852Z-5.150
G1X31.748Z-6.466
G1X31.117Z-7.036
G1X29.856Z-7.907
G1X28.437Z-8.554
G1X27.491Z-9.019
G1X26.860Z-9.402
G1X26.387Z-9.735
G1X26.230Z-9.875
G1X26.072Z-10.062
G1X25.914Z-10.336
G1X25.757Z-10.884
G1X25.827Y3.191Z-10.612
G1X25.897Y3.350Z-10.478
G1X26.056Z-10.161
G1X26.214Z-9.958
G1X26.373Z-9.809
G1X26.848Z-9.472
G1X27.958Z-8.823
G1X28.750Z-8.428
G1X30.019Z-7.865
G1X30.970Z-7.213
G1X31.445Z-6.817
G1X31.921Z-6.348
G1X32.397Z-5.802
G1X33.189Z-4.851
G1X34.616Z-2.675
G1X35.091Z-1.936
G1X35.409Z-1.558
G1X35.726Z-1.254
G1X36.043Z-1.033
G1X36.360Z-0.880
G1X36.677Z-0.765
G1X36.994Z-0.700
G1X37.311Z-0.672
G1X37.628Z-0.704
G1X37.945Z-0.803
G1X38.579Z-1.123
G1X38.896Z-1.330
G1X39.213Z-1.603
G1X39.689Z-2.116
G1X40.164Z-2.757
G1X40.640Z-3.602
G1X40.957Z-4.357
G1X41.115Z-4.793
G1X41.591Z-6.412
G1X42.225Z-8.844
G1X42.384Z-9.351
G1X42.701Z-10.124
G1X42.765Y3.668Z-10.149
G1X42.607Z-9.808
G1X42.449Z-9.372
G1X42.134Z-8.240
G1X41.660Z-6.429
G1X41.187Z-4.874
G1X40.871Z-4.073
G1X40.556Z-3.393
G1X40.240Z-2.829
G1X39.609Z-1.971
G1X39.136Z-1.475
G1X38.820Z-1.244
G1X38.189Z-0.902
G1X37.873Z-0.777
G1X37.557Z-0.694
G1X37.242Z-0.676
G1X36.926Z-0.723
G1X36.611Z-0.805
G1X36.295Z-0.930
G1X35.979Z-1.110
G1X35.822Z-1.228
G1X35.348Z-1.705
G1X35.033Z-2.136
G1X33.770Z-4.113
G1X33.297Z-4.818
G1X32.192Z-6.129
G1X31.561Z-6.778
G1X31.087Z-7.184
G1X30.614Z-7.526
G1X30.140Z-7.835
G1X28.405Z-8.617
G1X27.773Z-8.965
G1X26.669Z-9.654
G1X26.511Z-9.771
G1X26.353Z-9.920
G1X26.195Z-10.122
G1X26.037Z-10.417
G1X26.108Y3.826Z-10.309
G1X26.178Y3.985Z-10.238
G1X26.336Z-10.017
G1X26.495Z-9.858
G1X26.970Z-9.529
G1X28.238Z-8.731
G1X28.713Z-8.493
G1X30.297Z-7.788
G1X30.614Z-7.594
G1X31.089Z-7.245
G1X31.406Z-6.987
G1X32.515Z-5.845
G1X33.308Z-4.903
G1X33.941Z-3.987
G1X35.050Z-2.215
G1X35.367Z-1.781
G1X35.843Z-1.291
G1X36.160Z-1.069
G1X36.318Z-0.979
G1X36.793Z-0.801
G1X37.110Z-0.726
G1X37.427Z-0.717
G1X37.744Z-0.741
G1X38.061Z-0.831
G1X38.695Z-1.143
G1X39.011Z-1.340
G1X39.170Z-1.467
G1X39.645Z-1.963
G1X40.120Z-2.601
G1X40.437Z-3.085
G1X40.596Z-3.372
G1X40.913Z-4.084
G1X41.230Z-4.923
G1X41.546Z-5.880
G1X42.022Z-7.642
G1X42.339Z-8.853
G1X42.497Z-9.391
G1X42.656Z-9.839
G1X42.814Z-10.166
G1X42.863Y4.303Z-10.161
G1X42.705Z-9.826
G1X42.389Z-8.881
G1X41.599Z-5.901
G1X41.441Z-5.355
G1X41.125Z-4.448
G1X40.651Z-3.392
G1X40.335Z-2.844
G1X39.703Z-1.986
G1X39.387Z-1.631
G1X39.071Z-1.345
G1X38.755Z-1.144
G1X38.123Z-0.857
G1X37.650Z-0.751
G1X37.334Z-0.747
G1X36.860Z-0.835
G1X36.544Z-0.943
G1X36.228Z-1.096
G1X36.070Z-1.200
G1X35.754Z-1.468
G1X35.280Z-1.991
G1X34.964Z-2.466
G1X34.016Z-3.978
G1X33.068Z-5.280
G1X32.436Z-6.007
G1X31.330Z-7.116
G1X30.699Z-7.606
G1X30.541Z-7.703
G1X28.487Z-8.624
G1X26.749Z-9.734
G1X26.591Z-9.868
G1X26.433Z-10.047
G1X26.275Z-10.285
G1X26.300Y4.461Z-10.358
G1X26.324Y4.620Z-10.464
G1X26.482Z-10.146
G1X26.640Z-9.931
G1X26.798Z-9.774
G1X27.272Z-9.451
G1X28.536Z-8.635
G1X30.747Z-7.634
G1X31.537Z-6.995
G1X32.485Z-6.019
G1X33.117Z-5.292
G1X34.065Z-3.980
G1X35.013Z-2.481
G1X35.329Z-2.031
G1X35.803Z-1.516
G1X36.119Z-1.260
G1X36.435Z-1.058
G1X36.751Z-0.928
G1X37.066Z-0.843
G1X37.382Z-0.796
G1X37.698Z-0.787
G1X38.014Z-0.834
G1X38.330Z-0.927
G1X38.646Z-1.061
G1X38.962Z-1.242
G1X39.278Z-1.492
G1X39.594Z-1.799
G1X40.226Z-2.644
G1X40.542Z-3.100
G1X41.016Z-4.072
G1X41.174Z-4.425
G1X41.490Z-5.321
G1X41.806Z-6.465
G1X42.438Z-8.844
G1X42.754Z-9.822
G1X42.912Z-10.134
G1X42.960Y4.938Z-10.142
G1X42.803Z-9.834
G1X42.645Z-9.388
G1X42.329Z-8.296
G1X41.697Z-5.876
G1X41.539Z-5.334
G1X41.065Z-4.017
G1X40.749Z-3.365
G1X40.433Z-2.853
G1X39.801Z-1.998
G1X39.485Z-1.648
G1X39.011Z-1.254
G1X38.695Z-1.074
G1X38.379Z-0.943
G1X38.063Z-0.853
G1X37.747Z-0.811
G1X37.431Z-0.819
G1X36.957Z-0.912
G1X36.641Z-1.022
G1X36.325Z-1.201
G1X35.851Z-1.562
G1X35.536Z-1.882
G1X35.220Z-2.264
G1X33.956Z-4.225
G1X33.166Z-5.270
G1X32.850Z-5.684
G1X31.744Z-6.859
G1X30.954Z-7.523
G1X30.796Z-7.639
G1X28.743Z-8.559
G1X28.427Z-8.736
G1X27.479Z-9.377
G1X26.847Z-9.793
G1X26.689Z-9.937
G1X26.531Z-10.131
G1X26.373Z-10.420
G1X26.422Y5.255Z-10.358
G1X26.580Z-10.114
G1X26.738Z-9.940
G1X26.896Z-9.807
G1X27.686Z-9.295
G1X28.633Z-8.644
G1X30.845Z-7.644
G1X31.793Z-6.878
G1X32.899Z-5.701
G1X34.005Z-4.239
G1X35.268Z-2.259
G1X35.742Z-1.706
G1X36.216Z-1.307
G1X36.532Z-1.101
G1X36.848Z-0.965
G1X37.322Z-0.850
G1X37.638Z-0.820
G1X38.112Z-0.866
G1X38.586Z-1.018
G1X38.902Z-1.170
G1X39.218Z-1.386
G1X39.534Z-1.657
G1X40.008Z-2.217
G1X40.482Z-2.826
G1X40.798Z-3.352
G1X41.114Z-3.993
G1X41.430Z-4.854
G1X41.746Z-5.966
G1X42.377Z-8.446
G1X42.693Z-9.464
G1X42.851Z-9.843
G1X43.009Z-10.171
G1X43.058Y5.573Z-10.189
G1X42.742Z-9.480
G1X42.426Z-8.450
G1X41.952Z-6.537
G1X41.636Z-5.384
G1X41.478Z-4.869
G1X41.162Z-4.011
G1X40.846Z-3.368
G1X40.689Z-3.072
G1X40.531Z-2.826
G1X39.741Z-1.848
G1X39.425Z-1.526
G1X38.951Z-1.191
G1X38.635Z-1.036
G1X38.319Z-0.923
G1X38.003Z-0.857
G1X37.529Z-0.839
G1X37.213Z-0.889
G1X36.897Z-0.976
G1X36.581Z-1.104
G1X36.265Z-1.305
G1X35.949Z-1.557
G1X35.633Z-1.878
G1X35.317Z-2.260
G1X35.001Z-2.718
G1X34.053Z-4.246
G1X33.422Z-5.087
G1X32.790Z-5.892
G1X31.842Z-6.873
G1X30.894Z-7.633
G1X30.578Z-7.797
G1X28.682Z-8.652
G1X28.208Z-8.968
G1X27.260Z-9.635
G1X26.944Z-9.825
G1X26.787Z-9.950
G1X26.629Z-10.117
G1X26.471Z-10.351
G1X26.495Y5.731Z-10.401
G1X26.519Y5.890Z-10.475
G1X26.677Z-10.184
G1X26.835Z-9.990
G1X26.993Z-9.843
G1X27.783Z-9.310
G1X28.573Z-8.754
G1X29.047Z-8.509
G1X30.785Z-7.732
G1X31.417Z-7.240
G1X31.891Z-6.870
G1X32.996Z-5.721
G1X33.944Z-4.488
G1X35.208Z-2.490
G1X35.682Z-1.877
G1X36.156Z-1.422
G1X36.472Z-1.200
G1X36.788Z-1.047
G1X37.104Z-0.935
G1X37.420Z-0.865
G1X37.736Z-0.854
G1X38.052Z-0.880
G1X38.368Z-0.946
G1X38.684Z-1.054
G1X38.842Z-1.126
G1X39.316Z-1.431
G1X39.474Z-1.554
G1X39.947Z-2.051
G1X40.421Z-2.625
G1X40.737Z-3.087
G1X41.053Z-3.704
G1X41.369Z-4.481
G1X41.527Z-4.917
G1X41.843Z-5.998
G1X42.159Z-7.217
G1X42.475Z-8.479
G1X42.791Z-9.529
G1X42.949Z-9.915
G1X43.107Z-10.203
G1X43.156Y6.208Z-10.232
G1X42.998Z-9.950
G1X42.682Z-9.150
G1X42.366Z-8.009
G1X42.050Z-6.724
G1X41.576Z-5.038
G1X41.418Z-4.547
G1X41.102Z-3.732
G1X40.944Z-3.411
G1X40.628Z-2.881
G1X40.470Z-2.647
G1X39.680Z-1.751
G1X39.364Z-1.473
G1X38.890Z-1.170
G1X38.575Z-1.032
G1X38.259Z-0.937
G1X37.943Z-0.881
G1X37.469Z-0.880
G1X37.153Z-0.946
G1X36.679Z-1.123
G1X36.521Z-1.204
G1X36.205Z-1.423
G1X35.889Z-1.715
G1X35.573Z-2.066
G1X35.257Z-2.523
G1X33.993Z-4.487
G1X33.045Z-5.727
G1X32.097Z-6.721
G1X31.781Z-6.991
G1X30.834Z-7.740
G1X28.780Z-8.667
G1X27.990Z-9.203
G1X27.042Z-9.857
G1X26.884Z-9.997
G1X26.726Z-10.185
G1X26.568Z-10.463
G1X26.593Y6.366Z-10.522
G1X26.617Y6.525Z-10.628
G1X26.775Z-10.259
G1X26.933Z-10.037
G1X27.091Z-9.874
G1X27.723Z-9.425
G1X28.829Z-8.671
G1X30.725Z-7.819
G1X30.882Z-7.732
G1X31.988Z-6.869
G1X32.304Z-6.563
G1X33.094Z-5.740
G1X33.884Z-4.702
G1X35.622Z-2.069
G1X36.096Z-1.569
G1X36.412Z-1.311
G1X36.570Z-1.214
G1X37.044Z-1.016
G1X37.360Z-0.926
G1X37.833Z-0.897
G1X38.149Z-0.938
G1X38.465Z-1.012
G1X38.781Z-1.129
G1X39.255Z-1.404
G1X39.413Z-1.516
G1X39.729Z-1.805
G1X40.361Z-2.488
G1X40.677Z-2.910
G1X41.151Z-3.779
G1X41.467Z-4.566
G1X41.783Z-5.604
G1X42.099Z-6.815
G1X42.415Z-8.073
G1X42.731Z-9.171
G1X42.889Z-9.605
G1X43.047Z-9.935
G1X43.205Z-10.091
G1X43.229Y6.684Z-10.064
G1X43.254Y6.843Z-10.062
G1X43.096Z-9.904
G1X42.938Z-9.662
G1X42.780Z-9.220
G1X42.306Z-7.481
G1X41.990Z-6.203
G1X41.674Z-5.099
G1X41.516Z-4.615
G1X41.042Z-3.496
G1X40.726Z-2.945
G1X40.410Z-2.504
G1X39.778Z-1.819
G1X39.462Z-1.550
G1X38.830Z-1.145
G1X38.514Z-1.023
G1X38.198Z-0.955
G1X37.724Z-0.925
G1X37.408Z-0.950
G1X37.092Z-1.029
G1X36.619Z-1.235
G1X36.461Z-1.325
G1X36.145Z-1.576
G1X35.829Z-1.890
G1X35.513Z-2.276
G1X33.775Z-4.903
G1X33.301Z-5.556
G1X32.985Z-5.907
G1X32.195Z-6.725
G1X31.721Z-7.110
G1X30.931Z-7.722
G1X30.773Z-7.826
G1X29.036Z-8.602
G1X28.720Z-8.774
G1X27.140Z-9.867
G1X26.982Z-10.017
G1X26.824Z-10.221
G1X26.666Z-10.535
G1X26.690Y7.001Z-10.552
G1X26.715Y7.160Z-10.622
G1X26.873Z-10.283
G1X27.031Z-10.065
G1X27.189Z-9.884
G1X27.347Z-9.748
G1X28.768Z-8.778
G1X29.084Z-8.604
G1X30.822Z-7.831
G1X32.244Z-6.727
G1X33.192Z-5.748
G1X33.666Z-5.105
G1X34.298Z-4.180
G1X35.562Z-2.254
G1X36.035Z-1.714
G1X36.351Z-1.431
G1X36.667Z-1.235
G1X36.983Z-1.079
G1X37.299Z-0.976
G1X37.615Z-0.920
G1X38.089Z-0.914
G1X38.563Z-1.009
G1X38.879Z-1.144
G1X39.353Z-1.463
G1X39.669Z-1.688
G1X39.985Z-1.970
G1X40.459Z-2.511
G1X40.775Z-2.980
G1X41.091Z-3.528
G1X41.407Z-4.282
G1X41.723Z-5.236
G1X42.039Z-6.327
G1X42.670Z-8.776
G1X42.828Z-9.346
G1X42.986Z-9.747
G1X43.302Z-10.076
G1X43.351Y7.478Z-10.124
G1X43.193Z-9.934
G1X43.035Z-9.791
G1X42.877Z-9.406
G1X42.719Z-8.947
G1X41.929Z-5.876
G1X41.613Z-4.791
G1X41.456Z-4.318
G1X41.140Z-3.578
G1X40.824Z-3.006
G1X40.508Z-2.533
G1X40.034Z-1.980
G1X39.718Z-1.691
G1X38.928Z-1.145
G1X38.612Z-0.998
G1X38.138Z-0.893
G1X37.822Z-0.886
G1X37.506Z-0.911
G1X37.190Z-0.979
G1X36.874Z-1.109
G1X36.400Z-1.386
G1X36.084Z-1.659
G1X35.768Z-1.995
G1X35.610Z-2.190
G1X34.031Z-4.643
G1X33.399Z-5.538
G1X32.925Z-6.064
G1X32.451Z-6.546
G1X31.503Z-7.352
G1X31.029Z-7.719
G1X30.713Z-7.896
G1X28.975Z-8.664
G1X28.501Z-8.961
G1X27.396Z-9.711
G1X27.238Z-9.836
G1X27.080Z-10.002
G1X26.922Z-10.231
G1X26.764Z-10.623
G1X26.788Y7.636Z-10.495
G1X26.812Y7.795Z-10.326
G1X26.970Z-10.098
G1X27.286Z-9.781
G1X27.602Z-9.568
G1X28.866Z-8.734
G1X29.182Z-8.578
G1X30.762Z-7.884
G1X31.078Z-7.706
G1X31.552Z-7.319
G1X32.658Z-6.367
G1X33.132Z-5.870
G1X33.606Z-5.303
G1X34.237Z-4.361
G1X35.501Z-2.340
G1X35.817Z-1.937
G1X36.133Z-1.610
G1X36.291Z-1.462
G1X36.607Z-1.247
G1X36.923Z-1.070
G1X37.239Z-0.953
G1X37.555Z-0.884
G1X38.029Z-0.863
G1X38.503Z-0.934
G1X38.819Z-1.054
G1X39.293Z-1.317
G1X39.609Z-1.554
G1X40.083Z-2.023
G1X40.399Z-2.363
G1X40.714Z-2.794
G1X41.030Z-3.326
G1X41.504Z-4.394
G1X41.820Z-5.398
G1X42.136Z-6.562
G1X42.768Z-9.032
G1X42.926Z-9.496
G1X43.084Z-9.820
G1X43.242Z-9.975
G1X43.400Z-10.187
G1X43.449Y8.113Z-10.255
G1X43.291Z-10.017
G1X43.133Z-9.848
G1X42.975Z-9.643
G1X42.817Z-9.178
G1X42.027Z-6.111
G1X41.711Z-5.028
G1X41.395Z-4.131
G1X41.079Z-3.399
G1X40.763Z-2.869
G1X40.447Z-2.408
G1X40.131Z-2.049
G1X39.657Z-1.561
G1X39.342Z-1.302
G1X39.184Z-1.202
G1X38.710Z-0.993
G1X38.394Z-0.900
G1X37.920Z-0.856
G1X37.604Z-0.872
G1X37.130Z-0.981
G1X36.814Z-1.126
G1X36.340Z-1.420
G1X36.024Z-1.711
G1X35.550Z-2.267
G1X33.970Z-4.774
G1X33.496Z-5.449
G1X33.022Z-6.019
G1X32.706Z-6.325
G1X31.285Z-7.552
G1X30.653Z-7.941
G1X29.863Z-8.293
G1X29.073Z-8.629
G1X28.757Z-8.804
G1X27.967Z-9.333
G1X27.177Z-9.824
G1X27.019Z-9.963
G1X26.861Z-10.149
G1X26.910Y8.430Z-10.072
G1X27.068Z-9.903
G1X27.226Z-9.775
G1X28.488Z-8.990
G1X28.961Z-8.691
G1X30.539Z-8.000
G1X31.486Z-7.387
G1X32.749Z-6.291
G1X33.222Z-5.757
G1X33.695Z-5.163
G1X34.169Z-4.462
G1X35.273Z-2.677
G1X35.589Z-2.212
G1X36.062Z-1.677
G1X36.378Z-1.394
G1X36.851Z-1.106
G1X37.167Z-0.971
G1X37.482Z-0.891
G1X37.956Z-0.852
G1X38.429Z-0.903
G1X38.745Z-1.003
G1X39.218Z-1.212
G1X39.534Z-1.439
G1X40.007Z-1.881
G1X40.480Z-2.447
G1X40.796Z-2.920
G1X41.112Z-3.462
G1X41.427Z-4.198
G1X41.585Z-4.664
G1X42.058Z-6.332
G1X42.690Z-8.791
G1X42.847Z-9.274
G1X43.005Z-9.697
G1X43.321Z-10.052
G1X43.479Z-10.306
G1Y8.748Z-10.312
G1X43.320Z-10.057
G1X43.004Z-9.702
G1X42.846Z-9.281
G1X42.688Z-8.786
G1X42.056Z-6.306
G1X41.581Z-4.671
G1X41.423Z-4.203
G1X41.107Z-3.459
G1X40.791Z-2.917
G1X40.474Z-2.435
G1X40.000Z-1.866
G1X39.526Z-1.427
G1X39.210Z-1.202
G1X38.735Z-0.997
G1X38.419Z-0.898
G1X37.945Z-0.850
G1X37.470Z-0.894
G1X37.154Z-0.976
G1X36.838Z-1.114
G1X36.364Z-1.413
G1X36.047Z-1.701
G1X35.573Z-2.241
G1X35.099Z-2.942
G1X34.308Z-4.236
G1X33.676Z-5.167
G1X33.201Z-5.750
G1X32.727Z-6.296
G1X32.095Z-6.870
G1X31.620Z-7.282
G1X30.672Z-7.909
G1X30.039Z-8.214
G1X28.932Z-8.713
G1X27.193Z-9.785
G1X27.035Z-9.921
G1X26.877Z-10.101
G1X26.843Y9.065Z-10.134
G1X27.002Z-9.941
G1X27.160Z-9.797
G1X28.744Z-8.810
G1X29.220Z-8.572
G1X30.645Z-7.919
G1X31.755Z-7.170
G1X32.388Z-6.603
G1X32.705Z-6.285
G1X33.497Z-5.366
G1X33.973Z-4.702
G1X34.765Z-3.504
G1X35.557Z-2.274
G1X36.032Z-1.723
G1X36.349Z-1.432
G1X36.824Z-1.125
G1X37.141Z-0.982
G1X37.458Z-0.898
G1X37.933Z-0.851
G1X38.409Z-0.893
G1X38.726Z-0.991
G1X39.201Z-1.198
G1X39.359Z-1.300
G1X39.676Z-1.562
G1X40.310Z-2.225
G1X40.468Z-2.420
G1X40.944Z-3.163
G1X41.102Z-3.455
G1X41.419Z-4.208
G1X41.736Z-5.215
G1X42.053Z-6.315
G1X42.686Z-8.783
G1X42.845Z-9.290
G1X43.003Z-9.708
G1X43.320Z-10.063
G1X43.479Z-10.319
G1Y9.383Z-10.324
G1X43.320Z-10.068
G1X43.002Z-9.716
G1X42.844Z-9.300
G1X42.685Z-8.802
G1X42.209Z-6.966
G1X42.050Z-6.328
G1X41.574Z-4.724
G1X41.415Z-4.241
G1X41.097Z-3.470
G1X40.780Z-2.889
G1X40.462Z-2.411
G1X39.668Z-1.566
G1X39.351Z-1.300
G1X39.192Z-1.199
G1X38.716Z-0.992
G1X38.398Z-0.896
G1X37.922Z-0.852
G1X37.605Z-0.873
G1X37.287Z-0.941
G1X36.970Z-1.047
G1X36.493Z-1.328
G1X36.335Z-1.438
G1X36.017Z-1.734
G1X35.541Z-2.297
G1X34.271Z-4.229
G1X33.795Z-4.915
G1X33.159Z-5.719
G1X32.524Z-6.448
G1X31.889Z-7.057
G1X30.778Z-7.842
G1X28.873Z-8.698
G1X27.603Z-9.480
G1X27.127Z-9.796
G1X26.968Z-9.932
G1X26.809Z-10.096
G1X26.786Y9.560Z-10.065
G1X26.766Y9.700Z-10.064
G1X26.924Z-9.900
G1X27.239Z-9.669
G1X28.658Z-8.777
G1X29.762Z-8.274
G1X30.865Z-7.782
G1X31.654Z-7.228
G1X32.442Z-6.493
G1X32.915Z-5.963
G1X34.176Z-4.340
G1X35.595Z-2.220
G1X36.068Z-1.677
G1X36.384Z-1.394
G1X36.857Z-1.104
G1X37.172Z-0.970
G1X37.487Z-0.890
G1X37.803Z-0.860
G1X38.118Z-0.864
G1X38.433Z-0.911
G1X38.749Z-1.013
G1X39.064Z-1.149
G1X39.222Z-1.230
G1X39.537Z-1.455
G1X40.010Z-1.895
G1X40.483Z-2.449
G1X40.956Z-3.230
G1X41.114Z-3.536
G1X41.429Z-4.327
G1X41.744Z-5.342
G1X42.690Z-8.901
G1X43.006Z-9.768
G1X43.321Z-10.104
G1X43.479Z-10.360
G1X43.476Y10.018Z-10.390
G1X43.318Z-10.136
G1X43.160Z-9.959
G1X43.002Z-9.813
G1X42.686Z-8.966
G1X41.580Z-4.878
G1X41.421Z-4.372
G1X41.105Z-3.570
G1X40.789Z-2.978
G1X40.473Z-2.473
G1X39.999Z-1.900
G1X39.525Z-1.469
G1X39.209Z-1.246
G1X38.734Z-1.014
G1X38.418Z-0.915
G1X37.944Z-0.862
G1X37.628Z-0.871
G1X37.312Z-0.934
G1X36.996Z-1.034
G1X36.522Z-1.297
G1X36.364Z-1.402
G1X36.047Z-1.688
G1X35.573Z-2.228
G1X34.309Z-4.103
G1X32.728Z-6.146
G1X32.412Z-6.484
G1X31.464Z-7.357
G1X30.831Z-7.773
G1X28.619Z-8.758
G1X27.512Z-9.461
G1X27.038Z-9.787
G1X26.880Z-9.922
G1X26.722Z-10.101
G1X26.678Y10.335Z-10.039
G1X26.836Z-9.890
G1X28.416Z-8.836
G1X28.890Z-8.600
G1X30.628Z-7.840
G1X30.944Z-7.655
G1X31.418Z-7.342
G1X32.524Z-6.335
G1X34.105Z-4.313
G1X35.369Z-2.433
G1X35.685Z-2.023
G1X36.159Z-1.553
G1X36.317Z-1.414
G1X36.475Z-1.302
G1X36.949Z-1.053
G1X37.265Z-0.942
G1X37.581Z-0.885
G1X38.055Z-0.876
G1X38.529Z-0.957
G1X38.845Z-1.082
G1X39.319Z-1.344
G1X39.635Z-1.593
G1X40.110Z-2.079
G1X40.426Z-2.479
G1X40.742Z-2.964
G1X40.900Z-3.248
G1X41.058Z-3.578
G1X41.532Z-4.810
G1X41.690Z-5.329
G1X42.638Z-8.863
G1X42.796Z-9.380
G1X42.954Z-9.782
G1X43.270Z-10.145
G1X43.428Z-10.392
G1X43.352Y10.540Z-10.386
G1X43.286Y10.653Z-10.370
G1X43.128Z-10.152
G1X42.969Z-9.884
G1X42.810Z-9.523
G1X42.493Z-8.494
G1X41.700Z-5.510
G1X41.542Z-4.981
G1X41.066Z-3.699
G1X40.907Z-3.353
G1X40.590Z-2.806
G1X40.273Z-2.349
G1X39.956Z-1.984
G1X39.638Z-1.659
G1X39.321Z-1.391
G1X39.004Z-1.193
G1X38.687Z-1.039
G1X38.370Z-0.949
G1X38.052Z-0.897
G1X37.735Z-0.880
G1X37.259Z-0.940
G1X36.942Z-1.053
G1X36.625Z-1.189
G1X36.308Z-1.375
G1X36.149Z-1.491
G1X35.673Z-1.957
G1X35.356Z-2.353
G1X33.770Z-4.693
G1X32.660Z-6.115
G1X32.501Z-6.299
G1X31.550Z-7.166
G1X31.233Z-7.423
G1X30.598Z-7.827
G1X28.536Z-8.720
G1X28.219Z-8.899
G1X27.109Z-9.674
G1X26.950Z-9.767
G1X26.792Z-9.887
G1X26.633Z-10.045
G1X26.588Y10.970Z-10.069
G1X26.745Z-9.899
G1X27.060Z-9.659
G1X28.163Z-8.866
G1X28.478Z-8.690
G1X29.265Z-8.385
G1X30.525Z-7.832
G1X31.155Z-7.423
G1X31.785Z-6.896
G1X32.573Z-6.150
G1X33.675Z-4.750
G1X35.250Z-2.406
G1X35.565Z-2.004
G1X35.880Z-1.679
G1X36.195Z-1.406
G1X36.353Z-1.300
G1X36.668Z-1.146
G1X37.140Z-0.974
G1X37.455Z-0.906
G1X37.928Z-0.904
G1X38.400Z-0.992
G1X38.715Z-1.093
G1X39.030Z-1.268
G1X39.345Z-1.475
G1X39.660Z-1.747
G1X40.133Z-2.243
G1X40.448Z-2.675
G1X40.763Z-3.177
G1X41.078Z-3.828
G1X41.550Z-5.139
G1X41.865Z-6.265
G1X42.495Z-8.628
G1X42.653Z-9.154
G1X42.810Z-9.586
G1X42.968Z-9.931
G1X43.125Z-10.204
G1X43.091Y11.288Z-10.191
G1X42.933Z-9.925
G1X42.776Z-9.589
G1X42.460Z-8.610
G1X41.670Z-5.646
G1X41.513Z-5.111
G1X41.197Z-4.231
G1X40.881Z-3.516
G1X40.723Z-3.202
G1X40.565Z-2.930
G1X40.092Z-2.274
G1X39.460Z-1.635
G1X38.987Z-1.293
G1X38.829Z-1.199
G1X38.355Z-1.013
G1X37.882Z-0.912
G1X37.566Z-0.893
G1X37.250Z-0.938
G1X36.934Z-1.021
G1X36.461Z-1.212
G1X36.145Z-1.395
G1X35.987Z-1.512
G1X35.513Z-1.975
G1X35.198Z-2.382
G1X33.303Z-5.188
G1X32.514Z-6.139
G1X31.882Z-6.747
G1X30.935Z-7.526
G1X30.461Z-7.826
G1X29.672Z-8.184
G1X28.409Z-8.670
G1X28.093Z-8.830
G1X26.830Z-9.752
G1X26.673Z-9.885
G1X26.515Z-10.053
G1X26.408Y11.605Z-10.004
G1X26.725Z-9.726
G1X27.994Z-8.823
G1X28.311Z-8.658
G1X29.896Z-8.061
G1X30.372Z-7.840
G1X30.847Z-7.538
G1X31.798Z-6.757
G1X32.433Z-6.146
G1X33.225Z-5.213
G1X35.286Z-2.166
G1X35.603Z-1.811
G1X35.920Z-1.525
G1X36.079Z-1.397
G1X36.396Z-1.220
G1X36.713Z-1.081
G1X37.030Z-0.973
G1X37.347Z-0.915
G1X37.823Z-0.929
G1X38.298Z-1.038
G1X38.615Z-1.154
G1X38.932Z-1.327
G1X39.408Z-1.667
G1X39.725Z-1.964
G1X40.201Z-2.528
G1X40.518Z-2.940
G1X40.835Z-3.511
G1X41.152Z-4.188
G1X41.469Z-5.103
G1X41.786Z-6.242
G1X42.420Z-8.607
G1X42.737Z-9.566
G1X42.896Z-9.928
G1X43.054Z-10.171
G1X43.031Y11.764Z-10.162
G1X43.007Y11.923Z-10.182
G1X42.850Z-9.921
G1X42.692Z-9.571
G1X42.376Z-8.638
G1X41.429Z-5.145
G1X41.114Z-4.209
G1X40.798Z-3.519
G1X40.482Z-2.964
G1X40.009Z-2.361
G1X39.693Z-2.004
G1X39.377Z-1.721
G1X38.746Z-1.284
G1X38.430Z-1.129
G1X38.115Z-1.026
G1X37.641Z-0.933
G1X37.326Z-0.930
G1X37.010Z-0.966
G1X36.694Z-1.062
G1X36.221Z-1.273
G1X35.905Z-1.471
G1X35.590Z-1.756
G1X35.274Z-2.094
G1X34.800Z-2.765
G1X33.222Z-5.094
G1X32.433Z-6.052
G1X31.486Z-6.955
G1X30.697Z-7.590
G1X30.224Z-7.888
G1X29.750Z-8.078
G1X28.172Z-8.669
G1X27.856Z-8.841
G1X26.594Z-9.718
G1X26.278Z-9.986
G1X26.123Y12.240Z-9.997
G1X26.440Z-9.727
G1X27.870Z-8.759
G1X28.188Z-8.608
G1X30.094Z-7.910
G1X30.729Z-7.510
G1X31.206Z-7.121
G1X32.318Z-6.079
G1X33.271Z-4.906
G1X35.018Z-2.327
G1X35.177Z-2.116
G1X35.653Z-1.629
G1X35.971Z-1.363
G1X36.289Z-1.195
G1X36.606Z-1.071
G1X37.083Z-0.950
G1X37.401Z-0.936
G1X37.877Z-1.006
G1X38.195Z-1.092
G1X38.512Z-1.217
G1X39.307Z-1.746
G1X39.624Z-2.017
G1X40.101Z-2.524
G1X40.577Z-3.204
G1X40.736Z-3.491
G1X41.054Z-4.214
G1X41.372Z-5.108
G1X41.689Z-6.154
G1X42.325Z-8.572
G1X42.484Z-9.127
G1X42.642Z-9.596
G1X42.960Z-10.194
G1X42.933Y12.399Z-10.209
G1X42.905Y12.558Z-10.260
G1X42.588Z-9.591
G1X42.430Z-9.141
G1X41.954Z-7.380
G1X41.479Z-5.619
G1X41.162Z-4.649
G1X40.845Z-3.866
G1X40.528Z-3.229
G1X40.211Z-2.752
G1X39.894Z-2.360
G1X39.419Z-1.901
G1X38.626Z-1.332
G1X38.309Z-1.158
G1X37.992Z-1.042
G1X37.517Z-0.931
G1X37.200Z-0.922
G1X36.725Z-1.002
G1X36.249Z-1.164
G1X36.091Z-1.239
G1X35.774Z-1.457
G1X35.457Z-1.743
G1X35.140Z-2.065
G1X34.823Z-2.481
G1X33.238Z-4.824
G1X32.287Z-6.011
G1X31.019Z-7.203
G1X30.702Z-7.471
G1X30.068Z-7.864
G1X29.751Z-7.998
G1X28.008Z-8.631
G1X27.691Z-8.797
G1X26.265Z-9.759
G1X26.106Z-9.893
G1X25.948Z-10.071
G1X25.869Y12.697Z-10.080
G1X25.754Y12.875Z-10.040
G1X25.912Z-9.912
G1X27.653Z-8.745
G1X27.970Z-8.596
G1X29.870Z-7.919
G1X30.503Z-7.529
G1X30.819Z-7.282
G1X32.086Z-6.125
G1X32.244Z-5.957
G1X33.194Z-4.763
G1X34.777Z-2.422
G1X35.094Z-2.022
G1X35.727Z-1.416
G1X36.043Z-1.220
G1X36.360Z-1.080
G1X36.993Z-0.949
G1X37.310Z-0.923
G1X37.626Z-0.954
G1X38.101Z-1.091
G1X38.418Z-1.229
G1X38.735Z-1.421
G1X39.368Z-1.919
G1X39.684Z-2.207
G1X40.001Z-2.558
G1X40.318Z-3.025
G1X40.634Z-3.553
G1X40.792Z-3.890
G1X41.109Z-4.690
G1X41.426Z-5.697
G1X42.217Z-8.639
G1X42.376Z-9.180
G1X42.692Z-9.966
G1X42.850Z-10.237
G1X42.791Y13.193Z-10.217
G1X42.632Z-9.972
G1X42.316Z-9.199
G1X41.841Z-7.513
G1X41.366Z-5.756
G1X41.049Z-4.778
G1X40.574Z-3.567
G1X40.258Z-3.027
G1X39.941Z-2.576
G1X39.783Z-2.376
G1X39.466Z-2.061
G1X38.675Z-1.412
G1X38.358Z-1.214
G1X38.042Z-1.089
G1X37.567Z-0.959
G1X37.250Z-0.940
G1X36.617Z-0.989
G1X36.301Z-1.068
G1X35.984Z-1.197
G1X35.668Z-1.401
G1X35.509Z-1.518
G1X34.876Z-2.156
G1X34.085Z-3.304
G1X33.135Z-4.709
G1X32.185Z-5.904
G1X31.869Z-6.213
G1X30.761Z-7.208
G1X30.286Z-7.578
G1X29.811Z-7.885
G1X29.020Z-8.156
G1X28.070Z-8.484
G1X27.595Z-8.711
G1X26.962Z-9.115
G1X25.696Z-9.889
G1X25.537Z-10.019
G1X25.367Y13.423Z-9.980
G1X25.292Y13.510Z-9.980
G1X25.451Z-9.857
G1X27.194Z-8.841
G1X27.828Z-8.540
G1X28.145Z-8.383
G1X28.938Z-8.104
G1X29.572Z-7.899
G1X29.889Z-7.740
G1X30.206Z-7.534
G1X31.157Z-6.745
G1X31.950Z-6.020
G1X32.267Z-5.677
G1X33.059Z-4.658
G1X34.644Z-2.302
G1X34.961Z-1.941
G1X35.437Z-1.502
G1X35.754Z-1.281
G1X36.071Z-1.123
G1X36.388Z-1.011
G1X36.705Z-0.951
G1X37.339Z-0.954
G1X37.656Z-0.991
G1X37.973Z-1.083
G1X38.290Z-1.228
G1X38.448Z-1.313
G1X38.924Z-1.665
G1X39.558Z-2.211
G1X39.875Z-2.583
G1X40.192Z-3.022
G1X40.350Z-3.293
G1X40.668Z-3.961
G1X41.143Z-5.266
G1X41.460Z-6.377
G1X41.936Z-8.149
G1X42.253Z-9.213
G1X42.411Z-9.651
G1X42.570Z-9.991
G1X42.728Z-10.270
G1X42.664Y13.828Z-10.243
G1X42.506Z-9.993
G1X42.349Z-9.673
G1X42.033Z-8.790
G1X41.087Z-5.382
G1X40.772Z-4.419
G1X40.614Z-4.012
G1X40.299Z-3.343
G1X39.984Z-2.832
G1X39.668Z-2.423
G1X39.511Z-2.239
G1X39.038Z-1.815
G1X38.565Z-1.467
G1X38.249Z-1.257
G1X37.934Z-1.100
G1X37.619Z-1.003
G1X37.146Z-0.932
G1X36.673Z-0.935
G1X36.357Z-1.002
G1X35.884Z-1.173
G1X35.569Z-1.329
G1X35.254Z-1.553
G1X34.781Z-2.003
G1X34.465Z-2.387
G1X32.731Z-4.964
G1X32.258Z-5.548
G1X31.785Z-6.055
G1X30.997Z-6.759
G1X30.051Z-7.534
G1X29.420Z-7.876
G1X28.316Z-8.253
G1X27.686Z-8.562
G1X27.213Z-8.713
G1X26.740Z-8.937
G1X25.321Z-9.765
G1X25.163Z-9.875
G1X25.005Z-10.018
G1X24.656Y14.145Z-10.071
G1X24.973Z-9.806
G1X26.561Z-8.885
G1X27.196Z-8.610
G1X27.672Z-8.496
G1X27.831Z-8.442
G1X28.307Z-8.202
G1X29.101Z-7.918
G1X29.260Z-7.848
G1X29.895Z-7.480
G1X30.054Z-7.395
G1X30.372Z-7.150
G1X31.483Z-6.216
G1X31.959Z-5.727
G1X32.436Z-5.204
G1X32.753Z-4.782
G1X34.341Z-2.400
G1X34.817Z-1.841
G1X35.294Z-1.426
G1X35.611Z-1.237
G1X35.929Z-1.106
G1X36.246Z-1.047
G1X36.564Z-0.956
G1X36.881Z-0.932
G1X37.199Z-0.943
G1X37.516Z-0.995
G1X37.834Z-1.105
G1X38.152Z-1.263
G1X38.945Z-1.808
G1X39.104Z-1.937
G1X39.581Z-2.430
G1X40.057Z-3.085
G1X40.216Z-3.369
G1X40.692Z-4.458
G1X40.851Z-4.868
G1X41.168Z-5.873
G1X41.962Z-8.752
G1X42.280Z-9.652
G1X42.597Z-10.290
G1X42.564Y14.304Z-10.247
G1X42.530Y14.463Z-10.233
G1X42.373Z-9.960
G1X42.215Z-9.633
G1X41.900Z-8.802
G1X41.585Z-7.705
G1X40.955Z-5.459
G1X40.798Z-4.954
G1X40.325Z-3.772
G1X40.010Z-3.186
G1X39.852Z-2.926
G1X39.537Z-2.513
G1X39.222Z-2.150
G1X38.907Z-1.858
G1X37.962Z-1.212
G1X37.647Z-1.068
G1X37.332Z-0.977
G1X37.017Z-0.942
G1X36.702Z-0.949
G1X36.387Z-1.007
G1X36.072Z-1.034
G1X35.757Z-1.124
G1X35.442Z-1.257
G1X35.127Z-1.461
G1X34.812Z-1.728
G1X34.339Z-2.256
G1X34.024Z-2.698
G1X32.449Z-5.054
G1X31.504Z-6.076
G1X30.244Z-7.140
G1X29.456Z-7.604
G1X28.983Z-7.899
G1X28.511Z-8.062
G1X27.881Z-8.368
G1X27.093Z-8.546
G1X26.463Z-8.804
G1X25.990Z-9.043
G1X24.730Z-9.788
G1X24.258Z-9.993
G1X24.121Y14.564Z-9.979
G1X23.984Y14.665Z-9.940
G1X23.816Y14.780Z-9.935
G1X23.974Z-9.853
G1X24.923Z-9.529
G1X26.029Z-8.890
G1X26.819Z-8.537
G1X27.293Z-8.415
G1X27.925Z-8.285
G1X28.557Z-7.991
G1X28.873Z-7.848
G1X30.137Z-7.067
G1X30.295Z-6.977
G1X31.244Z-6.190
G1X31.876Z-5.527
G1X32.350Z-4.993
G1X32.824Z-4.324
G1X34.088Z-2.440
G1X34.404Z-2.040
G1X34.720Z-1.700
G1X35.194Z-1.334
G1X35.510Z-1.154
G1X35.826Z-1.038
G1X36.142Z-0.992
G1X36.933Z-0.956
G1X37.249Z-0.986
G1X37.565Z-1.072
G1X37.881Z-1.229
G1X38.671Z-1.758
G1X38.987Z-2.012
G1X39.461Z-2.540
G1X39.619Z-2.737
G1X40.093Z-3.512
G1X40.251Z-3.802
G1X40.567Z-4.591
G1X40.883Z-5.524
G1X41.357Z-7.153
G1X41.673Z-8.297
G1X41.831Z-8.813
G1X41.989Z-9.257
G1X42.306Z-9.997
G1X42.464Z-10.235
G1X42.430Y14.939Z-10.277
G1X42.397Y15.098Z-10.266
G1X42.080Z-9.694
G1X41.922Z-9.322
G1X41.447Z-7.797
G1X40.814Z-5.557
G1X40.498Z-4.644
G1X40.339Z-4.213
G1X40.023Z-3.563
G1X39.706Z-2.995
G1X39.390Z-2.567
G1X39.073Z-2.197
G1X38.757Z-1.902
G1X37.807Z-1.243
G1X37.490Z-1.096
G1X37.174Z-0.992
G1X36.699Z-0.942
G1X36.066Z-0.964
G1X35.750Z-1.025
G1X35.433Z-1.127
G1X35.117Z-1.300
G1X34.800Z-1.525
G1X34.483Z-1.822
G1X34.009Z-2.383
G1X32.743Z-4.229
G1X32.426Z-4.692
G1X31.951Z-5.283
G1X31.160Z-6.150
G1X30.369Z-6.793
G1X28.469Z-7.969
G1X27.995Z-8.173
G1X26.887Z-8.421
G1X26.412Z-8.600
G1X25.779Z-8.896
G1X25.146Z-9.258
G1X23.722Z-9.744
G1X23.247Z-9.962
G1X23.130Y15.128Z-10.005
G1X22.978Y15.186Z-10.015
G1X22.827Y15.245Z-10.046
G1X22.579Y15.358Z-10.050
G1X22.455Y15.415Z-10.032
G1X22.770Z-9.887
G1X23.401Z-9.656
G1X24.821Z-9.186
G1X25.294Z-9.021
G1X25.925Z-8.711
G1X26.713Z-8.398
G1X27.502Z-8.184
G1X27.975Z-8.082
G1X28.448Z-7.877
G1X30.341Z-6.682
G1X30.814Z-6.312
G1X31.287Z-5.856
G1X31.760Z-5.318
G1X32.549Z-4.313
G1X33.968Z-2.268
G1X34.126Z-2.056
G1X34.757Z-1.428
G1X35.072Z-1.210
G1X35.388Z-1.059
G1X35.703Z-0.963
G1X36.019Z-0.924
G1X36.650Z-0.913
G1X36.965Z-0.952
G1X37.438Z-1.094
G1X37.596Z-1.168
G1X38.069Z-1.485
G1X38.700Z-1.941
G1X38.858Z-2.074
G1X39.331Z-2.605
G1X39.489Z-2.812
G1X39.962Z-3.598
G1X40.119Z-3.921
G1X40.277Z-4.303
G1X40.750Z-5.677
G1X41.539Z-8.460
G1X41.697Z-8.969
G1X41.854Z-9.405
G1X42.012Z-9.767
G1X42.328Z-10.235
G1X42.282Y15.571Z-10.218
G1X42.207Y15.733Z-10.192
G0Z5.080
G0X10.258Y0.810
G1Z-10.055F635.0
G1X10.727Z-9.932F1524.0
G1X11.195Z-9.862
G1X12.288Z-9.749
G1X13.381Z-9.765
G1X14.006Z-9.863
G1X14.474Z-9.921
G1X14.943Z-10.017
G1X15.250Y0.868Z-9.988
G1X15.755Y0.993Z-10.010
G1X16.147Y1.128Z-9.969
G1X15.670Z-9.828
G1X15.352Z-9.656
G1X14.716Z-9.419
G1X13.921Z-9.133
G1X13.285Z-9.021
G1X12.808Z-8.975
G1X11.854Z-9.079
G1X11.059Z-9.273
G1X10.900Z-9.329
G1X10.105Z-9.763
G1X9.469Z-9.988
G1X9.312Y1.206Z-9.948
G1X8.767Y1.445Z-9.919
G1X9.084Z-9.734
G1X9.718Z-9.264
G1X10.193Z-8.969
G1X10.669Z-8.619
G1X10.986Z-8.451
G1X12.096Z-8.145
G1X12.571Z-8.081
G1X13.047Z-8.066
G1X13.523Z-8.129
G1X13.998Z-8.300
G1X14.632Z-8.568
G1X14.791Z-8.661
G1X15.108Z-8.906
G1X15.425Z-9.088
G1X15.742Z-9.263
G1X16.376Z-9.703
G1X16.852Z-9.964
G1X17.313Y1.700Z-9.993
G1X17.408Y1.763Z-9.979
G1X16.932Z-9.666
G1X16.297Z-9.090
G1X15.980Z-8.830
G1X15.504Z-8.356
G1X14.711Z-7.731
G1X14.394Z-7.537
G1X13.601Z-7.215
G1X13.283Z-7.116
G1X12.966Z-7.110
G1X12.490Z-7.133
G1X12.014Z-7.238
G1X11.062Z-7.509
G1X10.745Z-7.636
G1X10.428Z-7.845
G1X9.476Z-8.573
G1X9.000Z-9.016
G1X8.683Z-9.297
G1X8.365Z-9.603
G1X8.048Z-9.836
G1X7.786Y1.890Z-9.793
G1X7.392Y2.080Z-9.804
G1X8.505Z-8.600
G1X8.982Z-8.050
G1X9.300Z-7.711
G1X9.459Z-7.565
G1X9.777Z-7.341
G1X10.095Z-7.147
G1X10.572Z-6.798
G1X10.731Z-6.717
G1X11.367Z-6.489
G1X12.162Z-6.274
G1X12.639Z-6.229
G1X13.116Z-6.208
G1X13.434Z-6.232
G1X13.911Z-6.416
G1X14.229Z-6.554
G1X14.547Z-6.743
G1X15.182Z-7.244
G1X15.659Z-7.715
G1X16.613Z-8.767
G1X17.090Z-9.280
G1X17.408Z-9.648
G1X17.726Z-9.906
G1X17.885Z-10.015
G1X18.169Y2.295Z-10.009
G1X18.303Y2.398Z-10.023
G1X17.987Z-9.775
G1X17.357Z-9.067
G1X17.199Z-8.871
G1X16.727Z-8.173
G1X16.096Z-7.409
G1X15.308Z-6.574
G1X14.836Z-6.116
G1X14.521Z-5.874
G1X14.048Z-5.603
G1X13.890Z-5.532
G1X13.417Z-5.390
G1X12.787Z-5.364
G1X12.472Z-5.362
G1X11.999Z-5.430
G1X11.526Z-5.524
G1X10.581Z-5.859
G1X9.635Z-6.418
G1X9.320Z-6.671
G1X9.005Z-6.990
G1X8.532Z-7.550
G1X7.902Z-8.392
G1X7.745Z-8.577
G1X7.587Z-8.806
G1X7.272Z-9.168
G1X6.957Z-9.633
G1X6.799Z-9.831
G1X6.652Y2.477Z-9.842
G1X6.347Y2.667Z-9.910
G1X6.284Y2.715Z-9.906
G1X6.443Z-9.693
G1X6.761Z-9.222
G1X7.238Z-8.502
G1X7.714Z-7.672
G1X8.350Z-6.781
G1X8.826Z-6.179
G1X9.462Z-5.608
G1X9.780Z-5.388
G1X10.415Z-5.073
G1X10.892Z-4.898
G1X11.845Z-4.652
G1X12.322Z-4.604
G1X12.957Z-4.609
G1X13.434Z-4.677
G1X13.911Z-4.821
G1X14.228Z-4.969
G1X14.546Z-5.165
G1X15.499Z-5.996
G1X15.976Z-6.510
G1X16.453Z-7.090
G1X16.929Z-7.743
G1X17.565Z-8.711
G1X17.724Z-8.981
G1X18.359Z-9.795
G1X18.677Z-10.033
G1X18.820Y2.839Z-10.048
G1X19.011Y3.033Z-10.049
G1X18.696Z-9.799
G1X18.222Z-9.176
G1X18.064Z-8.934
G1X17.591Z-8.084
G1X17.117Z-7.310
G1X16.644Z-6.636
G1X16.013Z-5.822
G1X15.855Z-5.648
G1X15.224Z-5.069
G1X14.592Z-4.574
G1X14.119Z-4.285
G1X13.803Z-4.152
G1X13.172Z-3.994
G1X12.856Z-3.947
G1X12.067Z-3.944
G1X11.909Z-3.953
G1X10.805Z-4.201
G1X10.489Z-4.300
G1X9.700Z-4.649
G1X9.542Z-4.746
G1X9.069Z-5.129
G1X8.911Z-5.239
G1X8.595Z-5.518
G1X8.122Z-6.086
G1X7.806Z-6.537
G1X6.543Z-8.776
G1X6.070Z-9.642
G1X5.912Z-9.852
G1X5.567Y3.350Z-9.741
G1X5.725Z-9.511
G1X6.830Z-7.263
G1X7.619Z-5.854
G1X7.777Z-5.606
G1X8.409Z-4.895
G1X8.724Z-4.589
G1X9.198Z-4.255
G1X9.672Z-3.995
G1X10.461Z-3.670
G1X10.777Z-3.577
G1X11.408Z-3.469
G1X11.724Z-3.390
G1X12.040Z-3.351
G1X12.829Z-3.381
G1X13.303Z-3.471
G1X13.776Z-3.601
G1X14.092Z-3.726
G1X14.250Z-3.803
G1X15.197Z-4.434
G1X15.513Z-4.674
G1X16.302Z-5.499
G1X16.776Z-6.101
G1X17.250Z-6.858
G1X17.881Z-7.966
G1X18.355Z-8.855
G1X18.828Z-9.540
G1X18.986Z-9.757
G1X19.302Z-10.063
G1X19.519Y3.668Z-10.040
G1X19.360Z-9.834
G1X19.201Z-9.666
G1X18.883Z-9.215
G1X18.566Z-8.647
G1X17.930Z-7.404
G1X17.136Z-6.032
G1X16.818Z-5.577
G1X16.342Z-4.996
G1X15.865Z-4.463
G1X15.547Z-4.159
G1X14.753Z-3.588
G1X14.435Z-3.390
G1X13.959Z-3.181
G1X13.482Z-3.026
G1X13.006Z-2.921
G1X12.211Z-2.865
G1X11.735Z-2.889
G1X10.940Z-3.017
G1X10.464Z-3.135
G1X9.034Z-3.747
G1X8.716Z-3.928
G1X8.399Z-4.159
G1X7.922Z-4.615
G1X7.763Z-4.790
G1X7.287Z-5.461
G1X6.651Z-6.618
G1X5.857Z-8.406
G1X5.380Z-9.419
G1X5.222Z-9.665
G1X4.989Y3.888Z-9.667
G1X4.889Y3.985Z-9.689
G1X5.205Z-9.085
G1X5.521Z-8.341
G1X6.311Z-6.436
G1X6.627Z-5.759
G1X6.943Z-5.160
G1X7.101Z-4.922
G1X7.575Z-4.312
G1X7.891Z-3.969
G1X8.049Z-3.831
G1X8.682Z-3.390
G1X8.998Z-3.216
G1X10.104Z-2.773
G1X11.052Z-2.565
G1X11.684Z-2.492
G1X12.159Z-2.478
G1X12.949Z-2.529
G1X13.581Z-2.661
G1X14.529Z-3.021
G1X14.845Z-3.202
G1X15.636Z-3.769
G1X16.110Z-4.229
G1X16.426Z-4.598
G1X16.900Z-5.144
G1X17.216Z-5.611
G1X17.848Z-6.667
G1X18.322Z-7.601
G1X18.954Z-8.899
G1X19.271Z-9.446
G1X19.745Z-10.023
G1X20.034Y4.303Z-10.103
G1X19.404Z-9.269
G1X18.931Z-8.343
G1X17.985Z-6.395
G1X17.670Z-5.845
G1X17.197Z-5.128
G1X16.566Z-4.290
G1X15.936Z-3.654
G1X15.621Z-3.353
G1X15.305Z-3.126
G1X14.675Z-2.760
G1X14.360Z-2.616
G1X13.572Z-2.354
G1X13.099Z-2.272
G1X12.153Z-2.177
G1X11.365Z-2.186
G1X11.050Z-2.216
G1X10.104Z-2.403
G1X9.789Z-2.449
G1X9.473Z-2.544
G1X8.843Z-2.803
G1X8.528Z-2.968
G1X7.740Z-3.520
G1X7.424Z-3.856
G1X6.794Z-4.635
G1X6.479Z-5.193
G1X6.163Z-5.823
G1X5.375Z-7.780
G1X5.060Z-8.626
G1X4.745Z-9.355
G1X4.587Z-9.638
G1X4.437Y4.473Z-9.616
G1X4.310Y4.620Z-9.653
G1X4.625Z-8.888
G1X5.099Z-7.659
G1X5.572Z-6.352
G1X5.888Z-5.562
G1X6.203Z-4.902
G1X6.361Z-4.616
G1X6.834Z-3.925
G1X7.150Z-3.580
G1X7.623Z-3.150
G1X8.097Z-2.795
G1X8.412Z-2.600
G1X8.886Z-2.400
G1X9.044Z-2.316
G1X9.359Z-2.193
G1X9.833Z-2.086
G1X10.937Z-1.959
G1X12.200Z-1.951
G1X13.304Z-2.067
G1X13.620Z-2.132
G1X14.567Z-2.456
G1X15.040Z-2.699
G1X15.671Z-3.086
G1X16.460Z-3.822
G1X16.776Z-4.179
G1X17.723Z-5.507
G1X18.038Z-6.006
G1X19.616Z-9.226
G1X19.932Z-9.712
G1X20.247Z-10.087
G1X20.432Y4.938Z-10.100
G1X20.117Z-9.736
G1X19.802Z-9.221
G1X18.858Z-7.177
G1X18.228Z-5.976
G1X17.756Z-5.186
G1X17.284Z-4.517
G1X16.654Z-3.737
G1X16.182Z-3.289
G1X15.709Z-2.881
G1X15.237Z-2.601
G1X14.765Z-2.360
G1X14.450Z-2.238
G1X13.821Z-2.054
G1X13.506Z-1.970
G1X12.719Z-1.862
G1X12.089Z-1.799
G1X11.459Z-1.801
G1X10.987Z-1.757
G1X10.043Z-1.767
G1X9.570Z-1.841
G1X9.098Z-1.947
G1X8.468Z-2.214
G1X7.996Z-2.483
G1X7.681Z-2.701
G1X7.052Z-3.199
G1X6.737Z-3.503
G1X6.422Z-3.878
G1X6.107Z-4.367
G1X5.792Z-4.986
G1X5.478Z-5.757
G1X4.533Z-8.442
G1X4.061Z-9.693
G1X3.825Y5.255Z-9.728
G1X3.983Z-9.356
G1X5.249Z-5.528
G1X5.565Z-4.784
G1X5.724Z-4.425
G1X6.198Z-3.642
G1X6.357Z-3.445
G1X6.831Z-2.974
G1X7.148Z-2.729
G1X7.781Z-2.300
G1X8.572Z-1.857
G1X8.888Z-1.731
G1X9.204Z-1.655
G1X9.996Z-1.561
G1X10.470Z-1.575
G1X11.894Z-1.707
G1X12.369Z-1.729
G1X13.318Z-1.842
G1X13.635Z-1.901
G1X14.109Z-2.049
G1X14.584Z-2.165
G1X14.900Z-2.282
G1X15.533Z-2.600
G1X15.691Z-2.694
G1X16.324Z-3.215
G1X16.641Z-3.498
G1X17.115Z-4.039
G1X17.590Z-4.638
G1X18.223Z-5.611
G1X18.856Z-6.782
G1X19.489Z-8.155
G1X19.963Z-9.196
G1X20.280Z-9.748
G1X20.596Z-10.130
G1X20.744Y5.573Z-10.162
G1X20.429Z-9.733
G1X20.114Z-9.157
G1X19.012Z-6.747
G1X18.540Z-5.833
G1X17.910Z-4.866
G1X17.595Z-4.408
G1X16.966Z-3.680
G1X16.651Z-3.363
G1X15.864Z-2.710
G1X15.706Z-2.595
G1X15.234Z-2.339
G1X14.762Z-2.162
G1X14.289Z-2.028
G1X13.817Z-1.919
G1X13.502Z-1.842
G1X12.400Z-1.684
G1X11.770Z-1.632
G1X10.826Z-1.519
G1X10.354Z-1.415
G1X10.039Z-1.398
G1X9.724Z-1.402
G1X9.094Z-1.467
G1X8.779Z-1.535
G1X8.464Z-1.650
G1X7.992Z-1.901
G1X7.048Z-2.472
G1X6.418Z-2.990
G1X6.103Z-3.339
G1X5.788Z-3.773
G1X5.473Z-4.371
G1X5.158Z-5.072
G1X4.844Z-5.978
G1X4.056Z-8.510
G1X3.742Z-9.368
G1X3.584Z-9.740
G1X3.328Y5.890Z-9.831
G1X3.486Z-9.514
G1X3.960Z-8.092
G1X4.592Z-5.979
G1X4.908Z-5.126
G1X5.224Z-4.361
G1X5.540Z-3.730
G1X5.856Z-3.290
G1X6.172Z-2.918
G1X6.488Z-2.631
G1X6.962Z-2.265
G1X7.594Z-1.891
G1X8.226Z-1.539
G1X8.542Z-1.418
G1X8.858Z-1.333
G1X9.174Z-1.292
G1X9.806Z-1.271
G1X10.280Z-1.314
G1X10.754Z-1.414
G1X11.070Z-1.519
G1X13.440Z-1.836
G1X14.388Z-2.030
G1X15.021Z-2.225
G1X15.337Z-2.366
G1X15.811Z-2.626
G1X16.443Z-3.085
G1X16.759Z-3.352
G1X17.549Z-4.191
G1X17.865Z-4.615
G1X18.655Z-5.759
G1X19.287Z-6.967
G1X20.235Z-9.137
G1X20.393Z-9.453
G1X20.709Z-9.916
G1X20.867Z-10.128
G1X20.952Y6.109Z-10.122
G1X20.980Y6.208Z-10.106
G1X20.821Z-9.925
G1X20.504Z-9.436
G1X20.187Z-8.736
G1X19.395Z-6.896
G1X18.762Z-5.705
G1X18.445Z-5.229
G1X17.653Z-4.197
G1X17.019Z-3.549
G1X16.544Z-3.137
G1X16.069Z-2.780
G1X15.593Z-2.509
G1X15.276Z-2.356
G1X14.484Z-2.094
G1X13.375Z-1.870
G1X11.316Z-1.587
G1X10.841Z-1.414
G1X10.207Z-1.249
G1X9.890Z-1.198
G1X9.415Z-1.164
G1X8.940Z-1.186
G1X8.465Z-1.292
G1X7.989Z-1.453
G1X7.197Z-1.887
G1X6.564Z-2.341
G1X5.930Z-2.892
G1X5.771Z-3.063
G1X5.455Z-3.495
G1X5.138Z-4.024
G1X4.821Z-4.702
G1X4.504Z-5.566
G1X3.395Z-9.170
G1X3.237Z-9.535
G1X3.078Z-9.840
G1X2.867Y6.525Z-9.864
G1X3.184Z-9.166
G1X3.500Z-8.154
G1X4.291Z-5.528
G1X4.449Z-5.065
G1X4.924Z-4.002
G1X5.082Z-3.687
G1X5.241Z-3.420
G1X5.557Z-3.012
G1X5.715Z-2.836
G1X6.032Z-2.566
G1X6.665Z-2.056
G1X7.139Z-1.736
G1X7.772Z-1.395
G1X8.089Z-1.273
G1X8.563Z-1.150
G1X9.038Z-1.096
G1X9.354Z-1.101
G1X9.829Z-1.138
G1X10.146Z-1.209
G1X10.462Z-1.316
G1X11.253Z-1.599
G1X11.570Z-1.713
G1X11.886Z-1.773
G1X13.468Z-2.001
G1X14.418Z-2.190
G1X15.209Z-2.403
G1X15.525Z-2.522
G1X16.000Z-2.783
G1X16.475Z-3.096
G1X17.266Z-3.762
G1X17.582Z-4.048
G1X18.215Z-4.754
G1X18.690Z-5.385
G1X18.848Z-5.616
G1X19.164Z-6.202
G1X19.639Z-7.230
G1X20.430Z-9.047
G1X20.588Z-9.379
G1X20.905Z-9.900
G1X21.063Z-10.099
G1X21.125Y6.843Z-10.108
G1X20.810Z-9.637
G1X20.652Z-9.348
G1X19.392Z-6.425
G1X19.077Z-5.840
G1X18.605Z-5.123
G1X18.133Z-4.593
G1X17.660Z-4.118
G1X16.558Z-3.236
G1X16.085Z-2.931
G1X15.456Z-2.611
G1X15.141Z-2.496
G1X13.881Z-2.246
G1X11.991Z-1.943
G1X11.676Z-1.858
G1X10.889Z-1.539
G1X10.731Z-1.484
G1X10.416Z-1.324
G1X10.102Z-1.204
G1X9.787Z-1.143
G1X9.314Z-1.059
G1X8.999Z-1.047
G1X8.527Z-1.079
G1X8.212Z-1.130
G1X7.739Z-1.292
G1X6.952Z-1.686
G1X6.637Z-1.872
G1X5.692Z-2.589
G1X5.220Z-3.110
G1X5.062Z-3.316
G1X4.905Z-3.570
G1X4.590Z-4.213
G1X4.433Z-4.572
G1X3.960Z-5.937
G1X3.173Z-8.655
G1X2.858Z-9.501
G1X2.700Z-9.866
G1X2.620Y7.011Z-9.886
G1X2.585Y7.160Z-9.831
G1X3.057Z-8.484
G1X3.845Z-5.705
G1X4.160Z-4.778
G1X4.475Z-3.973
G1X4.790Z-3.373
G1X4.947Z-3.139
G1X5.419Z-2.594
G1X5.734Z-2.304
G1X6.364Z-1.857
G1X7.152Z-1.429
G1X7.467Z-1.277
G1X7.782Z-1.163
G1X8.097Z-1.084
G1X8.569Z-1.024
G1X8.884Z-1.030
G1X9.514Z-1.099
G1X9.829Z-1.182
G1X10.301Z-1.350
G1X11.403Z-1.903
G1X11.718Z-2.068
G1X11.876Z-2.128
G1X13.451Z-2.424
G1X14.238Z-2.524
G1X15.183Z-2.703
G1X15.340Z-2.752
G1X16.128Z-3.103
G1X16.600Z-3.382
G1X17.387Z-3.951
G1X17.545Z-4.055
G1X18.332Z-4.759
G1X18.647Z-5.102
G1X18.962Z-5.530
G1X19.435Z-6.333
G1X20.379Z-8.550
G1X20.694Z-9.306
G1X20.852Z-9.629
G1X21.167Z-10.136
G1X21.193Y7.478Z-10.111
G1X20.877Z-9.558
G1X20.560Z-8.857
G1X19.769Z-6.936
G1X19.452Z-6.274
G1X18.977Z-5.496
G1X18.661Z-5.106
G1X18.344Z-4.758
G1X17.711Z-4.242
G1X17.236Z-3.931
G1X16.287Z-3.368
G1X15.970Z-3.235
G1X15.495Z-3.087
G1X15.179Z-2.970
G1X14.545Z-2.849
G1X13.754Z-2.802
G1X13.279Z-2.729
G1X12.013Z-2.455
G1X11.855Z-2.414
G1X11.696Z-2.350
G1X10.747Z-1.703
G1X10.113Z-1.358
G1X9.797Z-1.222
G1X9.164Z-1.059
G1X8.689Z-1.017
G1X8.372Z-1.003
G1X7.897Z-1.053
G1X7.423Z-1.174
G1X6.948Z-1.367
G1X6.315Z-1.691
G1X5.681Z-2.104
G1X5.365Z-2.372
G1X5.048Z-2.706
G1X4.890Z-2.898
G1X4.415Z-3.695
G1X4.099Z-4.458
G1X3.940Z-4.879
G1X3.465Z-6.464
G1X2.832Z-8.749
G1X2.516Z-9.691
G1X2.393Y7.795Z-9.659
G1X2.710Z-8.696
G1X3.500Z-5.830
G1X3.816Z-4.776
G1X4.132Z-4.015
G1X4.448Z-3.340
G1X4.765Z-2.839
G1X5.081Z-2.443
G1X5.555Z-2.016
G1X6.029Z-1.666
G1X6.345Z-1.486
G1X6.978Z-1.208
G1X7.610Z-1.044
G1X8.084Z-0.990
G1X8.559Z-0.999
G1X8.875Z-1.067
G1X9.191Z-1.107
G1X9.507Z-1.214
G1X9.981Z-1.407
G1X10.297Z-1.588
G1X10.614Z-1.808
G1X11.246Z-2.357
G1X11.562Z-2.627
G1X11.878Z-2.787
G1X12.194Z-2.900
G1X12.669Z-3.042
G1X13.617Z-3.234
G1X13.775Z-3.253
G1X14.566Z-3.225
G1X15.040Z-3.255
G1X15.672Z-3.414
G1X16.146Z-3.552
G1X16.621Z-3.745
G1X17.253Z-4.057
G1X17.727Z-4.337
G1X18.201Z-4.687
G1X18.676Z-5.141
G1X18.992Z-5.508
G1X19.308Z-5.985
G1X19.624Z-6.554
G1X19.940Z-7.231
G1X20.731Z-9.170
G1X21.047Z-9.802
G1X21.205Z-10.074
G1X21.215Y8.113Z-10.018
G1X21.057Z-9.804
G1X20.741Z-9.179
G1X19.950Z-7.222
G1X19.634Z-6.570
G1X19.318Z-6.010
G1X18.844Z-5.381
G1X18.686Z-5.200
G1X18.212Z-4.786
G1X17.896Z-4.552
G1X17.422Z-4.291
G1X16.947Z-4.085
G1X16.473Z-3.917
G1X15.683Z-3.748
G1X15.209Z-3.682
G1X14.103Z-3.754
G1X13.787Z-3.799
G1X13.629Z-3.800
G1X12.680Z-3.605
G1X12.206Z-3.449
G1X11.574Z-3.020
G1X10.310Z-1.815
G1X9.993Z-1.576
G1X9.677Z-1.388
G1X9.361Z-1.248
G1X8.729Z-1.052
G1X8.255Z-0.987
G1X7.939Z-0.981
G1X7.307Z-1.038
G1X6.991Z-1.102
G1X6.358Z-1.338
G1X6.042Z-1.494
G1X5.726Z-1.732
G1X5.094Z-2.262
G1X4.936Z-2.417
G1X4.620Z-2.819
G1X4.462Z-3.046
G1X4.146Z-3.640
G1X3.830Z-4.330
G1X3.514Z-5.295
G1X2.882Z-7.597
G1X2.565Z-8.738
G1X2.249Z-9.707
G1X2.183Y8.258Z-9.731
G1X2.104Y8.430Z-9.732
G1X2.420Z-8.819
G1X3.368Z-5.308
G1X3.526Z-4.803
G1X3.842Z-3.973
G1X4.158Z-3.323
G1X4.316Z-3.052
G1X4.632Z-2.614
G1X4.948Z-2.254
G1X5.896Z-1.472
G1X6.054Z-1.371
G1X6.528Z-1.160
G1X6.844Z-1.052
G1X7.318Z-0.969
G1X8.108Z-0.998
G1X8.424Z-1.039
G1X8.898Z-1.175
G1X9.372Z-1.371
G1X9.688Z-1.557
G1X10.004Z-1.794
G1X10.636Z-2.432
G1X11.584Z-3.511
G1X11.742Z-3.665
G1X12.216Z-4.036
G1X12.374Z-4.129
G1X12.848Z-4.319
G1X13.637Z-4.481
G1X13.795Z-4.490
G1X14.427Z-4.329
G1X15.375Z-4.219
G1X15.533Z-4.184
G1X15.849Z-4.162
G1X16.481Z-4.239
G1X17.113Z-4.380
G1X17.429Z-4.479
G1X17.745Z-4.623
G1X18.219Z-4.912
G1X18.535Z-5.160
G1X18.851Z-5.489
G1X19.325Z-6.064
G1X19.799Z-6.937
G1X20.115Z-7.634
G1X20.747Z-9.189
G1X20.905Z-9.516
G1X21.063Z-9.800
G1X21.221Z-10.011
G1X21.219Y8.748Z-10.014
G1X21.062Z-9.804
G1X20.904Z-9.525
G1X20.588Z-8.835
G1X20.114Z-7.707
G1X19.798Z-7.060
G1X19.324Z-6.194
G1X19.008Z-5.792
G1X18.692Z-5.449
G1X18.376Z-5.183
G1X17.903Z-4.896
G1X17.587Z-4.756
G1X17.271Z-4.653
G1X16.955Z-4.592
G1X16.323Z-4.557
G1X15.849Z-4.605
G1X15.691Z-4.642
G1X15.059Z-4.874
G1X14.744Z-4.970
G1X14.586Z-5.034
G1X13.954Z-5.186
G1X13.638Z-5.173
G1X12.848Z-4.993
G1X12.532Z-4.835
G1X11.901Z-4.346
G1X11.743Z-4.193
G1X11.111Z-3.431
G1X10.795Z-2.970
G1X10.479Z-2.578
G1X9.847Z-1.905
G1X9.531Z-1.635
G1X9.057Z-1.346
G1X8.742Z-1.197
G1X8.268Z-1.056
G1X7.636Z-0.942
G1X7.162Z-0.927
G1X6.846Z-0.983
G1X6.530Z-1.077
G1X6.056Z-1.275
G1X5.741Z-1.485
G1X4.951Z-2.125
G1X4.793Z-2.270
G1X4.477Z-2.643
G1X4.161Z-3.075
G1X3.845Z-3.643
G1X3.371Z-4.878
G1X2.897Z-6.593
G1X2.266Z-8.926
G1X1.950Z-9.777
G1X1.795Y9.065Z-9.847
G1X1.953Z-9.447
G1X2.269Z-8.513
G1X3.058Z-5.520
G1X3.374Z-4.505
G1X3.532Z-4.075
G1X3.848Z-3.373
G1X4.006Z-3.112
G1X4.480Z-2.468
G1X4.795Z-2.129
G1X5.743Z-1.383
G1X5.901Z-1.283
G1X6.217Z-1.141
G1X6.848Z-0.960
G1X7.164Z-0.906
G1X7.480Z-0.916
G1X8.112Z-1.046
G1X8.427Z-1.148
G1X8.743Z-1.291
G1X9.059Z-1.478
G1X9.691Z-1.983
G1X9.849Z-2.152
G1X10.480Z-2.945
G1X11.428Z-4.321
G1X11.901Z-4.884
G1X12.375Z-5.275
G1X12.849Z-5.655
G1X13.007Z-5.721
G1X13.638Z-5.865
G1X14.112Z-5.878
G1X14.270Z-5.859
G1X14.586Z-5.772
G1X14.744Z-5.703
G1X15.217Z-5.430
G1X15.691Z-5.154
G1X16.007Z-5.023
G1X16.323Z-4.952
G1X16.797Z-4.889
G1X16.954Z-4.883
G1X17.270Z-4.919
G1X17.586Z-4.995
G1X18.060Z-5.196
G1X18.218Z-5.275
G1X18.691Z-5.626
G1X19.165Z-6.148
G1X19.323Z-6.373
G1X19.797Z-7.188
G1X20.113Z-7.839
G1X20.902Z-9.596
G1X21.060Z-9.864
G1X21.218Z-10.088
G1X21.217Y9.203Z-10.163
G1X21.206Y9.383Z-10.196
G1X20.733Z-9.352
G1X19.944Z-7.626
G1X19.629Z-7.038
G1X19.313Z-6.538
G1X19.155Z-6.319
G1X18.840Z-5.981
G1X18.524Z-5.714
G1X18.209Z-5.513
G1X17.893Z-5.365
G1X17.735Z-5.307
G1X17.420Z-5.241
G1X17.104Z-5.216
G1X16.789Z-5.230
G1X16.631Z-5.261
G1X16.316Z-5.379
G1X15.842Z-5.590
G1X15.053Z-6.176
G1X14.738Z-6.396
G1X14.580Z-6.484
G1X14.422Z-6.533
G1X14.264Z-6.554
G1X13.791Z-6.551
G1X13.160Z-6.397
G1X12.845Z-6.200
G1X12.687Z-6.084
G1X11.740Z-5.180
G1X11.267Z-4.536
G1X10.320Z-3.129
G1X10.005Z-2.689
G1X9.689Z-2.206
G1X9.531Z-2.026
G1X8.900Z-1.513
G1X8.742Z-1.395
G1X8.427Z-1.216
G1X8.111Z-1.097
G1X7.638Z-0.959
G1X7.323Z-0.917
G1X7.007Z-0.939
G1X6.218Z-1.086
G1X5.903Z-1.212
G1X5.587Z-1.401
G1X4.640Z-2.137
G1X4.325Z-2.494
G1X4.009Z-2.928
G1X3.852Z-3.178
G1X3.536Z-3.798
G1X3.378Z-4.168
G1X3.063Z-5.109
G1X2.116Z-8.681
G1X1.801Z-9.608
G1X1.643Z-9.899
G1X1.548Y9.635Z-9.977
G1X1.533Y9.700Z-9.984
G1X1.691Z-9.658
G1X1.849Z-9.218
G1X2.166Z-8.081
G1X2.642Z-6.202
G1X2.958Z-5.073
G1X3.275Z-4.181
G1X3.592Z-3.479
G1X3.909Z-2.896
G1X4.226Z-2.469
G1X4.701Z-1.978
G1X4.859Z-1.823
G1X5.176Z-1.571
G1X5.810Z-1.180
G1X6.127Z-1.070
G1X6.444Z-1.003
G1X7.236Z-0.941
G1X7.553Z-0.965
G1X7.870Z-1.057
G1X8.186Z-1.182
G1X8.503Z-1.351
G1X8.820Z-1.585
G1X9.295Z-2.016
G1X9.454Z-2.195
G1X9.929Z-2.902
G1X11.038Z-4.581
G1X11.513Z-5.244
G1X11.989Z-5.785
G1X12.464Z-6.276
G1X13.098Z-6.866
G1X13.414Z-7.015
G1X13.890Z-7.115
G1X14.365Z-7.134
G1X14.682Z-7.047
G1X14.999Z-6.818
G1X15.791Z-6.175
G1X16.266Z-5.819
G1X16.425Z-5.720
G1X16.741Z-5.603
G1X16.900Z-5.564
G1X17.217Z-5.541
G1X17.534Z-5.557
G1X17.850Z-5.620
G1X18.009Z-5.671
G1X18.484Z-5.933
G1X18.959Z-6.323
G1X19.118Z-6.483
G1X19.593Z-7.187
G1X19.910Z-7.789
G1X20.544Z-9.133
G1X20.860Z-9.719
G1X21.019Z-9.933
G1X21.177Z-10.191
G1X21.123Y10.018Z-10.207
G1X20.964Z-9.968
G1X20.806Z-9.799
G1X20.489Z-9.236
G1X19.696Z-7.640
G1X19.537Z-7.370
G1X19.062Z-6.709
G1X18.745Z-6.410
G1X18.428Z-6.168
G1X18.269Z-6.071
G1X17.952Z-5.941
G1X17.635Z-5.875
G1X17.159Z-5.877
G1X16.842Z-5.924
G1X16.684Z-5.972
G1X16.525Z-6.049
G1X16.208Z-6.276
G1X15.574Z-6.859
G1X14.781Z-7.491
G1X14.464Z-7.570
G1X14.305Z-7.581
G1X13.671Z-7.522
G1X13.513Z-7.474
G1X13.196Z-7.302
G1X12.561Z-6.701
G1X11.927Z-6.027
G1X11.452Z-5.448
G1X10.659Z-4.346
G1X9.390Z-2.396
G1X9.073Z-1.996
G1X8.756Z-1.668
G1X8.439Z-1.410
G1X8.122Z-1.216
G1X7.805Z-1.072
G1X7.488Z-0.994
G1X7.171Z-0.951
G1X6.537Z-0.962
G1X6.061Z-1.040
G1X5.744Z-1.144
G1X5.427Z-1.306
G1X5.110Z-1.511
G1X4.793Z-1.777
G1X4.158Z-2.448
G1X4.000Z-2.624
G1X3.683Z-3.135
G1X3.524Z-3.415
G1X3.366Z-3.758
G1X3.049Z-4.582
G1X2.731Z-5.593
G1X2.256Z-7.411
G1X1.939Z-8.642
G1X1.780Z-9.215
G1X1.622Z-9.667
G1X1.463Z-10.002
G1X1.423Y10.335Z-9.983
G1X1.740Z-9.145
G1X2.214Z-7.328
G1X2.688Z-5.487
G1X3.005Z-4.461
G1X3.321Z-3.672
G1X3.479Z-3.353
G1X3.954Z-2.575
G1X4.428Z-2.033
G1X4.744Z-1.728
G1X4.902Z-1.590
G1X5.377Z-1.280
G1X5.693Z-1.104
G1X6.009Z-1.002
G1X6.326Z-0.937
G1X7.117Z-0.947
G1X7.591Z-1.046
G1X7.907Z-1.187
G1X8.382Z-1.510
G1X8.698Z-1.780
G1X8.856Z-1.931
G1X9.172Z-2.344
G1X10.121Z-3.838
G1X10.754Z-4.783
G1X11.386Z-5.645
G1X12.019Z-6.441
G1X13.126Z-7.587
G1X13.284Z-7.700
G1X13.601Z-7.854
G1X14.391Z-7.934
G1X14.708Z-7.885
G1X14.866Z-7.836
G1X15.340Z-7.494
G1X16.447Z-6.497
G1X16.763Z-6.320
G1X16.922Z-6.258
G1X17.080Z-6.223
G1X17.554Z-6.195
G1X17.712Z-6.207
G1X17.870Z-6.244
G1X18.187Z-6.364
G1X18.661Z-6.686
G1X18.819Z-6.800
G1X18.977Z-6.961
G1X19.452Z-7.567
G1X19.768Z-8.087
G1X20.401Z-9.329
G1X20.559Z-9.616
G1X20.717Z-9.855
G1X20.875Z-10.007
G1X21.033Z-10.201
G1X20.977Y10.475Z-10.192
G1X20.899Y10.653Z-10.210
G1X20.582Z-9.862
G1X20.424Z-9.630
G1X19.948Z-8.805
G1X19.631Z-8.210
G1X19.314Z-7.741
G1X18.997Z-7.333
G1X18.839Z-7.165
G1X18.363Z-6.835
G1X18.205Z-6.736
G1X17.888Z-6.610
G1X17.729Z-6.570
G1X17.412Z-6.553
G1X17.254Z-6.562
G1X16.937Z-6.634
G1X16.778Z-6.693
G1X16.461Z-6.897
G1X15.352Z-7.876
G1X15.035Z-8.102
G1X14.876Z-8.157
G1X14.242Z-8.230
G1X13.925Z-8.210
G1X13.766Z-8.190
G1X13.449Z-8.093
G1X13.291Z-7.999
G1X12.815Z-7.568
G1X12.340Z-7.096
G1X11.706Z-6.328
G1X11.072Z-5.512
G1X10.438Z-4.636
G1X9.645Z-3.377
G1X9.011Z-2.342
G1X8.853Z-2.127
G1X8.694Z-1.945
G1X8.060Z-1.387
G1X7.743Z-1.178
G1X7.426Z-1.038
G1X7.109Z-0.959
G1X6.634Z-0.914
G1X6.317Z-0.915
G1X6.000Z-0.964
G1X5.683Z-1.066
G1X5.366Z-1.222
G1X4.732Z-1.643
G1X4.415Z-1.940
G1X3.939Z-2.487
G1X3.622Z-2.965
G1X3.305Z-3.543
G1X2.988Z-4.301
G1X2.671Z-5.301
G1X2.354Z-6.516
G1X1.879Z-8.440
G1X1.720Z-9.011
G1X1.403Z-9.906
G1X1.383Y10.845Z-9.888
G1X1.367Y10.970Z-9.889
G1X1.684Z-8.940
G1X2.002Z-7.717
G1X2.478Z-5.786
G1X2.795Z-4.702
G1X2.953Z-4.224
G1X3.271Z-3.496
G1X3.588Z-2.890
G1X4.064Z-2.230
G1X4.381Z-1.880
G1X4.698Z-1.601
G1X5.174Z-1.263
G1X5.492Z-1.105
G1X5.809Z-0.995
G1X6.126Z-0.932
G1X6.602Z-0.920
G1X6.919Z-0.945
G1X7.236Z-1.013
G1X7.554Z-1.144
G1X7.871Z-1.357
G1X8.505Z-1.891
G1X8.823Z-2.259
G1X10.409Z-4.853
G1X11.202Z-5.943
G1X12.313Z-7.286
G1X12.630Z-7.638
G1X13.264Z-8.191
G1X13.582Z-8.365
G1X13.740Z-8.407
G1X14.375Z-8.447
G1X14.851Z-8.397
G1X15.009Z-8.405
G1X15.168Z-8.369
G1X15.327Z-8.288
G1X16.437Z-7.332
G1X16.754Z-7.124
G1X17.072Z-7.006
G1X17.389Z-6.946
G1X17.547Z-6.933
G1X17.706Z-6.945
G1X18.023Z-7.021
G1X18.182Z-7.084
G1X18.658Z-7.386
G1X18.816Z-7.528
G1X19.292Z-8.148
G1X19.610Z-8.637
G1X19.768Z-8.927
G1X20.244Z-9.635
G1X20.403Z-9.851
G1X20.561Z-10.023
G1X20.720Z-10.262
G1X20.592Y11.172Z-10.269
G1X20.509Y11.288Z-10.225
G1X20.350Z-10.012
G1X20.033Z-9.705
G1X19.716Z-9.281
G1X19.557Z-9.009
G1X19.081Z-8.354
G1X18.764Z-7.967
G1X18.447Z-7.732
G1X18.130Z-7.533
G1X17.971Z-7.465
G1X17.654Z-7.394
G1X17.495Z-7.389
G1X17.178Z-7.446
G1X16.861Z-7.552
G1X16.544Z-7.739
G1X15.592Z-8.455
G1X15.434Z-8.589
G1X15.275Z-8.644
G1X14.006Z-8.578
G1X13.848Z-8.566
G1X13.530Z-8.455
G1X13.372Z-8.381
G1X13.213Z-8.263
G1X12.579Z-7.670
G1X11.786Z-6.822
G1X10.834Z-5.628
G1X10.200Z-4.737
G1X9.565Z-3.668
G1X9.089Z-2.841
G1X8.772Z-2.356
G1X8.455Z-1.972
G1X8.138Z-1.669
G1X7.662Z-1.283
G1X7.345Z-1.099
G1X7.028Z-0.981
G1X6.710Z-0.933
G1X6.393Z-0.919
G1X5.917Z-0.952
G1X5.600Z-1.023
G1X5.283Z-1.147
G1X4.966Z-1.344
G1X4.331Z-1.849
G1X4.014Z-2.189
G1X3.538Z-2.861
G1X3.380Z-3.131
G1X3.063Z-3.843
G1X2.904Z-4.245
G1X2.587Z-5.206
G1X2.270Z-6.415
G1X1.635Z-8.957
G1X1.477Z-9.458
G1X1.318Z-9.884
G1X1.265Y11.605Z-9.895
G1X1.424Z-9.511
G1X1.740Z-8.479
G1X2.533Z-5.299
G1X2.691Z-4.731
G1X3.008Z-3.806
G1X3.325Z-3.142
G1X3.642Z-2.611
G1X3.959Z-2.167
G1X4.117Z-1.984
G1X4.751Z-1.419
G1X5.068Z-1.197
G1X5.385Z-1.046
G1X5.702Z-0.947
G1X6.177Z-0.899
G1X6.653Z-0.917
G1X6.970Z-0.985
G1X7.286Z-1.122
G1X7.445Z-1.204
G1X7.920Z-1.553
G1X8.237Z-1.843
G1X8.713Z-2.451
G1X9.030Z-2.913
G1X10.139Z-4.785
G1X10.931Z-5.884
G1X11.565Z-6.667
G1X12.833Z-7.994
G1X13.149Z-8.280
G1X13.308Z-8.401
G1X13.625Z-8.535
G1X14.259Z-8.719
G1X14.892Z-8.795
G1X15.209Z-8.875
G1X15.368Z-8.890
G1X15.526Z-8.880
G1X15.685Z-8.849
G1X15.843Z-8.755
G1X16.477Z-8.299
G1X16.794Z-8.150
G1X17.269Z-7.985
G1X17.428Z-7.947
G1X17.586Z-7.939
G1X17.903Z-7.976
G1X18.062Z-8.029
G1X18.537Z-8.304
G1X19.012Z-8.760
G1X19.805Z-9.732
G1X20.122Z-10.045
G1X20.280Z-10.250
G1X20.186Y11.711Z-10.247
G1X19.998Y11.923Z-10.275
G1X19.840Z-10.079
G1X19.209Z-9.477
G1X18.578Z-8.902
G1X18.262Z-8.705
G1X17.946Z-8.575
G1X17.630Z-8.512
G1X17.472Z-8.512
G1X17.157Z-8.576
G1X16.367Z-8.897
G1X15.894Z-9.208
G1X15.736Z-9.202
G1X15.420Z-9.130
G1X14.947Z-8.943
G1X14.473Z-8.765
G1X13.368Z-8.478
G1X13.210Z-8.386
G1X12.736Z-7.974
G1X11.631Z-6.818
G1X10.684Z-5.654
G1X10.211Z-4.997
G1X8.948Z-2.919
G1X8.316Z-2.046
G1X8.000Z-1.679
G1X7.685Z-1.411
G1X7.211Z-1.120
G1X6.895Z-0.983
G1X6.580Z-0.897
G1X6.264Z-0.862
G1X5.790Z-0.885
G1X5.475Z-0.964
G1X5.159Z-1.095
G1X4.843Z-1.271
G1X4.527Z-1.520
G1X4.212Z-1.836
G1X3.738Z-2.405
G1X3.580Z-2.617
G1X3.422Z-2.876
G1X2.949Z-3.850
G1X2.633Z-4.720
G1X2.475Z-5.273
G1X1.686Z-8.436
G1X1.370Z-9.506
G1X1.212Z-9.904
G1X1.160Y12.240Z-9.897
G1X1.318Z-9.533
G1X1.476Z-9.026
G1X2.424Z-5.283
G1X2.582Z-4.771
G1X3.056Z-3.529
G1X3.372Z-2.889
G1X3.688Z-2.415
G1X4.004Z-2.012
G1X4.478Z-1.515
G1X4.793Z-1.257
G1X5.109Z-1.079
G1X5.583Z-0.889
G1X5.899Z-0.834
G1X6.373Z-0.846
G1X6.689Z-0.904
G1X7.005Z-1.015
G1X7.321Z-1.177
G1X7.795Z-1.519
G1X7.953Z-1.665
G1X8.585Z-2.478
G1X9.059Z-3.218
G1X10.165Z-5.024
G1X10.639Z-5.688
G1X11.429Z-6.649
G1X12.219Z-7.506
G1X12.693Z-8.001
G1X13.009Z-8.272
G1X13.325Z-8.435
G1X13.641Z-8.539
G1X14.431Z-8.750
G1X14.747Z-8.872
G1X15.063Z-9.042
G1X15.537Z-9.375
G1X16.011Z-9.562
G1X16.169Z-9.545
G1X16.959Z-9.188
G1X17.275Z-9.094
G1X17.433Z-9.087
G1X17.749Z-9.123
G1X18.381Z-9.347
G1X18.539Z-9.439
G1X19.329Z-9.984
G1X19.487Z-10.108
G1X19.645Z-10.273
G1X19.515Y12.349Z-10.282
G1X19.396Y12.419Z-10.261
G1X19.156Y12.558Z-10.283
G1X18.998Z-10.131
G1X18.840Z-10.028
G1X18.365Z-9.813
G1X18.048Z-9.716
G1X17.731Z-9.705
G1X17.415Z-9.662
G1X17.098Z-9.684
G1X16.940Z-9.724
G1X16.781Z-9.795
G1X16.465Z-9.872
G1X16.306Z-9.883
G1X16.148Z-9.855
G1X14.882Z-8.976
G1X14.565Z-8.808
G1X14.090Z-8.645
G1X13.457Z-8.463
G1X12.982Z-8.258
G1X12.823Z-8.157
G1X12.665Z-8.028
G1X11.715Z-7.017
G1X10.765Z-5.929
G1X10.290Z-5.296
G1X9.815Z-4.565
G1X8.549Z-2.492
G1X8.232Z-2.032
G1X7.915Z-1.652
G1X7.441Z-1.248
G1X7.282Z-1.142
G1X6.966Z-0.979
G1X6.649Z-0.877
G1X6.332Z-0.812
G1X5.857Z-0.804
G1X5.541Z-0.867
G1X5.224Z-0.989
G1X4.907Z-1.155
G1X4.591Z-1.384
G1X4.274Z-1.666
G1X3.958Z-2.011
G1X3.641Z-2.437
G1X3.324Z-2.942
G1X3.008Z-3.543
G1X2.691Z-4.345
G1X2.374Z-5.400
G1X1.424Z-9.091
G1X1.108Z-9.917
G1X1.056Y12.875Z-9.965
G1X1.373Z-9.088
G1X2.326Z-5.406
G1X2.644Z-4.357
G1X2.962Z-3.586
G1X3.438Z-2.715
G1X3.756Z-2.266
G1X4.233Z-1.702
G1X4.550Z-1.396
G1X4.868Z-1.151
G1X5.186Z-0.990
G1X5.662Z-0.829
G1X5.980Z-0.791
G1X6.456Z-0.828
G1X6.774Z-0.909
G1X7.092Z-1.042
G1X7.409Z-1.227
G1X7.886Z-1.639
G1X8.045Z-1.813
G1X8.521Z-2.494
G1X8.998Z-3.290
G1X9.792Z-4.621
G1X10.427Z-5.558
G1X10.904Z-6.133
G1X12.175Z-7.575
G1X12.492Z-7.906
G1X12.810Z-8.155
G1X13.445Z-8.437
G1X14.240Z-8.689
G1X14.557Z-8.831
G1X14.875Z-9.028
G1X15.828Z-9.674
G1X16.146Z-9.956
G1X16.305Z-10.157
G1X16.463Z-10.233
G1X16.781Z-10.176
G1X17.099Z-10.067
G1X17.258Z-10.034
G1X17.416Z-10.026
G1X17.575Z-10.042
G1X18.052Z-10.127
G1X18.211Z-10.179
G1X17.982Y12.920Z-10.189
G1X17.799Y12.934Z-10.181
G1X17.616Y12.948Z-10.138
G1X17.295Y12.962Z-10.135
G1X17.157Y12.962Z-10.160
G1X17.018Y12.962Z-10.206
G1X16.736Y12.960Z-10.337
G1X16.447Y12.956Z-10.374
G1X16.443Y13.193Z-10.827
G1X16.285Z-10.260
G1X16.128Z-10.004
G1X15.970Z-9.826
G1X15.813Z-9.691
G1X15.026Z-9.143
G1X14.554Z-8.820
G1X14.239Z-8.674
G1X13.452Z-8.417
G1X12.822Z-8.130
G1X12.665Z-8.040
G1X12.350Z-7.793
G1X11.563Z-6.914
G1X10.618Z-5.823
G1X9.831Z-4.737
G1X9.517Z-4.225
G1X8.572Z-2.592
G1X8.100Z-1.908
G1X7.942Z-1.716
G1X7.470Z-1.291
G1X7.155Z-1.094
G1X6.841Z-0.945
G1X6.526Z-0.853
G1X6.211Z-0.811
G1X5.896Z-0.802
G1X5.581Z-0.856
G1X5.266Z-0.960
G1X4.952Z-1.104
G1X4.794Z-1.200
G1X4.479Z-1.444
G1X4.165Z-1.757
G1X3.692Z-2.324
G1X3.378Z-2.778
G1X3.063Z-3.347
G1X2.591Z-4.473
G1X2.433Z-4.954
G1X2.118Z-6.062
G1X1.331Z-9.141
G1X1.174Z-9.618
G1X1.016Z-10.028
G1X0.984Y13.510Z-10.070
G1X1.142Z-9.718
G1X1.300Z-9.233
G1X2.089Z-6.145
G1X2.405Z-5.042
G1X2.563Z-4.560
G1X3.036Z-3.369
G1X3.352Z-2.797
G1X3.667Z-2.328
G1X3.983Z-1.932
G1X4.299Z-1.621
G1X4.772Z-1.234
G1X4.930Z-1.135
G1X5.403Z-0.937
G1X5.719Z-0.855
G1X6.035Z-0.829
G1X6.508Z-0.880
G1X6.824Z-0.969
G1X7.139Z-1.115
G1X7.297Z-1.199
G1X7.613Z-1.439
G1X7.928Z-1.722
G1X8.244Z-2.118
G1X8.560Z-2.579
G1X9.822Z-4.751
G1X10.769Z-6.029
G1X11.874Z-7.277
G1X12.347Z-7.785
G1X12.663Z-8.025
G1X13.452Z-8.390
G1X14.399Z-8.713
G1X14.715Z-8.870
G1X15.977Z-9.780
G1X16.135Z-9.925
G1X16.293Z-10.121
G1X16.451Z-10.423
G1X16.468Y13.828Z-10.230
G1X16.309Z-10.005
G1X16.151Z-9.845
G1X15.676Z-9.491
G1X14.885Z-8.929
G1X14.569Z-8.759
G1X13.303Z-8.291
G1X12.670Z-7.999
G1X12.512Z-7.909
G1X12.353Z-7.781
G1X10.929Z-6.239
G1X9.980Z-5.008
G1X8.555Z-2.573
G1X8.081Z-1.894
G1X7.922Z-1.709
G1X7.606Z-1.434
G1X7.289Z-1.220
G1X6.973Z-1.071
G1X6.498Z-0.916
G1X6.024Z-0.866
G1X5.707Z-0.895
G1X5.391Z-0.973
G1X5.074Z-1.088
G1X4.916Z-1.166
G1X4.441Z-1.501
G1X4.125Z-1.766
G1X3.650Z-2.330
G1X3.333Z-2.812
G1X3.017Z-3.389
G1X2.700Z-4.165
G1X2.384Z-5.140
G1X2.067Z-6.246
G1X1.276Z-9.341
G1X1.118Z-9.766
G1X0.960Z-10.093
G1X0.948Y14.145Z-10.104
G1X1.106Z-9.787
G1X1.422Z-8.906
G1X2.370Z-5.247
G1X2.686Z-4.209
G1X3.002Z-3.419
G1X3.318Z-2.830
G1X3.634Z-2.336
G1X4.109Z-1.767
G1X4.583Z-1.396
G1X4.899Z-1.191
G1X5.215Z-1.033
G1X5.689Z-0.884
G1X6.005Z-0.852
G1X6.321Z-0.865
G1X6.637Z-0.929
G1X6.953Z-1.037
G1X7.269Z-1.202
G1X7.744Z-1.541
G1X7.902Z-1.678
G1X8.218Z-2.061
G1X8.534Z-2.514
G1X8.850Z-3.056
G1X9.798Z-4.699
G1X10.114Z-5.226
G1X10.746Z-6.018
G1X12.327Z-7.739
G1X12.485Z-7.865
G1X12.959Z-8.099
G1X13.433Z-8.299
G1X14.223Z-8.582
G1X14.698Z-8.746
G1X15.014Z-8.913
G1X16.120Z-9.696
G1X16.278Z-9.819
G1X16.436Z-9.970
G1X16.594Z-10.178
G1X16.691Y14.304Z-10.198
G1X16.787Y14.463Z-10.155
G1X16.471Z-9.850
G1X15.203Z-8.919
G1X14.728Z-8.671
G1X14.253Z-8.503
G1X13.302Z-8.207
G1X12.985Z-8.075
G1X12.510Z-7.789
G1X12.351Z-7.681
G1X11.084Z-6.366
G1X10.450Z-5.650
G1X9.816Z-4.760
G1X8.549Z-2.502
G1X8.074Z-1.817
G1X7.915Z-1.629
G1X7.440Z-1.246
G1X7.281Z-1.139
G1X6.964Z-0.992
G1X6.648Z-0.889
G1X6.331Z-0.841
G1X6.014Z-0.838
G1X5.697Z-0.869
G1X5.380Z-0.969
G1X5.063Z-1.112
G1X4.746Z-1.274
G1X4.430Z-1.486
G1X4.113Z-1.770
G1X3.637Z-2.322
G1X3.320Z-2.814
G1X3.004Z-3.428
G1X2.687Z-4.252
G1X2.528Z-4.743
G1X1.419Z-8.941
G1X1.102Z-9.813
G1X0.944Z-10.107
G1X0.949Y14.780Z-10.108
G1X1.106Z-9.827
G1X1.421Z-8.975
G1X2.523Z-4.830
G1X2.680Z-4.306
G1X2.995Z-3.470
G1X3.310Z-2.849
G1X3.625Z-2.346
G1X4.255Z-1.641
G1X4.569Z-1.355
G1X4.884Z-1.142
G1X5.357Z-0.926
G1X5.671Z-0.827
G1X5.986Z-0.791
G1X6.301Z-0.791
G1X6.616Z-0.828
G1X6.931Z-0.922
G1X7.246Z-1.057
G1X7.560Z-1.273
G1X7.875Z-1.528
G1X8.033Z-1.701
G1X8.347Z-2.137
G1X8.662Z-2.622
G1X9.607Z-4.339
G1X10.079Z-5.057
G1X10.394Z-5.469
G1X11.024Z-6.215
G1X11.811Z-7.049
G1X12.440Z-7.650
G1X13.070Z-8.053
G1X14.487Z-8.493
G1X15.116Z-8.771
G1X15.589Z-9.076
G1X16.376Z-9.655
G1X16.691Z-9.852
G1X16.848Z-9.985
G1X17.005Z-10.166
G1X17.180Y15.007Z-10.160
G1X17.273Y15.098Z-10.132
G1X16.798Z-9.779
G1X16.006Z-9.280
G1X15.373Z-8.825
G1X15.056Z-8.662
G1X14.106Z-8.281
G1X13.156Z-7.989
G1X12.681Z-7.704
G1X12.523Z-7.593
G1X11.256Z-6.369
G1X10.781Z-5.819
G1X10.148Z-5.056
G1X9.515Z-4.083
G1X9.198Z-3.539
G1X8.565Z-2.394
G1X8.248Z-1.927
G1X7.932Z-1.534
G1X7.457Z-1.137
G1X7.298Z-1.026
G1X6.982Z-0.879
G1X6.665Z-0.776
G1X6.348Z-0.739
G1X6.032Z-0.736
G1X5.715Z-0.772
G1X5.398Z-0.867
G1X5.082Z-1.006
G1X4.765Z-1.189
G1X4.448Z-1.453
G1X3.815Z-2.124
G1X3.657Z-2.329
G1X3.340Z-2.838
G1X3.023Z-3.477
G1X2.707Z-4.327
G1X2.390Z-5.336
G1X1.440Z-8.982
G1X1.282Z-9.426
G1X1.123Z-9.813
G1X0.965Z-10.084
G1X0.993Y15.415Z-10.064
G1X1.152Z-9.788
G1X1.310Z-9.428
G1X1.469Z-8.966
G1X2.421Z-5.286
G1X2.580Z-4.748
G1X2.897Z-3.860
G1X3.215Z-3.138
G1X3.374Z-2.820
G1X3.532Z-2.554
G1X4.008Z-1.905
G1X4.485Z-1.418
G1X4.802Z-1.160
G1X5.119Z-0.973
G1X5.437Z-0.828
G1X5.754Z-0.742
G1X6.072Z-0.697
G1X6.548Z-0.717
G1X6.865Z-0.796
G1X7.183Z-0.922
G1X7.341Z-1.012
G1X7.818Z-1.379
G1X7.976Z-1.535
G1X8.452Z-2.166
G1X8.611Z-2.392
G1X9.405Z-3.779
G1X9.881Z-4.505
G1X10.357Z-5.175
G1X11.151Z-6.116
G1X12.103Z-7.059
G1X12.420Z-7.365
G1X12.738Z-7.610
G1X13.214Z-7.910
G1X14.166Z-8.228
G1X14.801Z-8.493
G1X15.277Z-8.692
G1X15.595Z-8.868
G1X16.071Z-9.198
G1X16.864Z-9.624
G1X17.340Z-9.858
G1X17.499Z-9.962
G1X17.817Z-10.080
G0Z5.080
G0X42.049Y15.733
G1Z-9.984F635.0
G1X41.890Z-9.717F1524.0
G1X41.732Z-9.345
G1X41.574Z-8.884
G1X40.623Z-5.563
G1X40.307Z-4.610
G1X39.990Z-3.849
G1X39.673Z-3.252
G1X39.356Z-2.756
G1X38.881Z-2.197
G1X38.565Z-1.911
G1X37.931Z-1.427
G1X37.614Z-1.218
G1X37.298Z-1.065
G1X36.822Z-0.922
G1X36.347Z-0.857
G1X36.031Z-0.859
G1X35.714Z-0.895
G1X35.239Z-1.038
G1X34.922Z-1.187
G1X34.605Z-1.433
G1X34.130Z-1.883
G1X33.972Z-2.073
G1X32.388Z-4.311
G1X31.438Z-5.512
G1X31.279Z-5.687
G1X30.329Z-6.562
G1X28.429Z-7.773
G1X28.112Z-7.932
G1X27.953Z-7.992
G1X27.320Z-8.147
G1X26.686Z-8.333
G1X25.578Z-8.762
G1X24.944Z-8.954
G1X23.361Z-9.486
G1X22.252Z-9.814
G1X21.460Z-10.070
G1X21.143Z-10.222
G1X20.193Z-10.148
G1X20.035Z-10.117
G1X19.876Z-10.061
G1X19.718Z-10.031
G1X18.451Z-9.978
G1X18.293Z-9.966
G1X17.342Z-9.606
G1X16.392Z-9.157
G1X15.759Z-8.821
G1X14.967Z-8.499
G1X14.492Z-8.317
G1X13.858Z-8.039
G1X13.383Z-7.880
G1X13.225Z-7.799
G1X12.591Z-7.360
G1X12.274Z-7.099
G1X11.482Z-6.311
G1X10.849Z-5.641
G1X10.532Z-5.254
G1X9.265Z-3.426
G1X8.790Z-2.589
G1X8.157Z-1.703
G1X7.840Z-1.360
G1X7.365Z-1.018
G1X7.206Z-0.925
G1X6.890Z-0.803
G1X6.573Z-0.719
G1X6.256Z-0.701
G1X5.939Z-0.718
G1X5.623Z-0.786
G1X5.306Z-0.903
G1X4.831Z-1.168
G1X4.514Z-1.422
G1X4.039Z-1.909
G1X3.564Z-2.561
G1X3.405Z-2.826
G1X2.930Z-3.850
G1X2.613Z-4.748
G1X2.297Z-5.907
G1X1.663Z-8.389
G1X1.505Z-8.931
G1X1.346Z-9.405
G1X1.188Z-9.768
G1X1.030Z-10.038
G1X1.071Y16.030Z-10.014
G1X1.075Y16.050Z-10.014
G1X1.233Z-9.732
G1X1.391Z-9.369
G1X1.708Z-8.392
G1X2.499Z-5.340
G1X2.657Z-4.796
G1X2.974Z-3.857
G1X3.290Z-3.148
G1X3.607Z-2.584
G1X4.240Z-1.759
G1X4.556Z-1.442
G1X4.872Z-1.196
G1X5.347Z-0.923
G1X5.664Z-0.816
G1X5.980Z-0.746
G1X6.296Z-0.723
G1X6.613Z-0.749
G1X6.929Z-0.824
G1X7.246Z-0.956
G1X7.720Z-1.255
G1X8.037Z-1.521
G1X8.195Z-1.691
G1X8.670Z-2.332
G1X9.303Z-3.315
G1X10.727Z-5.360
G1X11.043Z-5.710
G1X12.151Z-6.854
G1X12.467Z-7.120
G1X12.942Z-7.472
G1X13.417Z-7.790
G1X14.682Z-8.343
G1X14.999Z-8.438
G1X15.790Z-8.651
G1X17.214Z-9.308
G1X17.847Z-9.521
G1X18.322Z-9.694
G1X20.062Z-9.770
G1X21.170Z-9.854
G1X22.594Z-9.516
G1X23.701Z-9.192
G1X24.809Z-8.821
G1X25.758Z-8.587
G1X25.916Z-8.551
G1X26.866Z-8.201
G1X27.973Z-7.892
G1X28.290Z-7.743
G1X29.872Z-6.723
G1X30.347Z-6.362
G1X31.138Z-5.638
G1X31.612Z-5.073
G1X32.245Z-4.251
G1X33.195Z-2.947
G1X33.828Z-2.046
G1X33.986Z-1.853
G1X34.302Z-1.558
G1X34.777Z-1.205
G1X35.093Z-1.018
G1X35.410Z-0.910
G1X35.885Z-0.814
G1X36.201Z-0.813
G1X36.517Z-0.844
G1X36.992Z-0.970
G1X37.309Z-1.107
G1X37.625Z-1.270
G1X37.942Z-1.488
G1X38.574Z-2.013
G1X38.733Z-2.162
G1X39.049Z-2.518
G1X39.366Z-2.924
G1X39.682Z-3.446
G1X39.998Z-4.122
G1X40.315Z-4.924
G1X40.790Z-6.509
G1X41.581Z-9.213
G1X41.897Z-9.945
G1X42.055Z-10.223
G1X42.024Y16.368Z-10.318
G1X41.708Z-9.751
G1X41.551Z-9.402
G1X41.393Z-8.964
G1X40.919Z-7.375
G1X40.445Z-5.723
G1X40.130Z-4.736
G1X39.972Z-4.328
G1X39.656Z-3.663
G1X39.340Z-3.070
G1X39.024Z-2.644
G1X38.551Z-2.108
G1X37.919Z-1.562
G1X37.604Z-1.333
G1X37.288Z-1.131
G1X36.972Z-0.991
G1X36.656Z-0.895
G1X36.341Z-0.817
G1X36.025Z-0.790
G1X35.709Z-0.803
G1X35.393Z-0.855
G1X35.077Z-0.954
G1X34.762Z-1.104
G1X34.130Z-1.553
G1X33.814Z-1.857
G1X33.499Z-2.274
G1X32.867Z-3.154
G1X32.236Z-4.004
G1X31.604Z-4.863
G1X31.130Z-5.429
G1X30.815Z-5.758
G1X30.183Z-6.309
G1X29.394Z-6.895
G1X28.289Z-7.627
G1X28.131Z-7.718
G1X27.657Z-7.902
G1X26.710Z-8.176
G1X26.236Z-8.355
G1X24.499Z-8.756
G1X23.236Z-9.141
G1X21.342Z-9.563
G1X21.184Z-9.589
G1X19.447Z-9.473
G1X18.500Z-9.435
G1X18.342Z-9.418
G1X18.026Z-9.323
G1X17.237Z-9.045
G1X16.921Z-8.939
G1X16.132Z-8.611
G1X15.342Z-8.395
G1X14.395Z-8.154
G1X13.764Z-7.861
G1X12.816Z-7.243
G1X12.027Z-6.583
G1X10.922Z-5.427
G1X10.606Z-5.018
G1X8.711Z-2.320
G1X8.396Z-1.887
G1X8.080Z-1.532
G1X7.764Z-1.272
G1X7.606Z-1.165
G1X7.133Z-0.928
G1X6.817Z-0.824
G1X6.501Z-0.762
G1X6.185Z-0.758
G1X5.870Z-0.799
G1X5.396Z-0.941
G1X5.080Z-1.112
G1X4.764Z-1.320
G1X4.449Z-1.606
G1X3.975Z-2.176
G1X3.659Z-2.586
G1X3.501Z-2.836
G1X3.344Z-3.135
G1X3.028Z-3.863
G1X2.554Z-5.318
G1X1.765Z-8.341
G1X1.607Z-8.883
G1X1.449Z-9.338
G1X1.291Z-9.691
G1X1.133Z-9.987
G1X1.203Y16.685Z-9.983
G1X1.361Z-9.690
G1X1.519Z-9.283
G1X1.677Z-8.811
G1X2.625Z-5.205
G1X2.941Z-4.194
G1X3.257Z-3.440
G1X3.573Z-2.804
G1X3.731Z-2.555
G1X4.362Z-1.759
G1X4.678Z-1.456
G1X4.994Z-1.215
G1X5.310Z-1.026
G1X5.784Z-0.853
G1X6.258Z-0.782
G1X6.574Z-0.800
G1X6.890Z-0.870
G1X7.364Z-1.032
G1X7.679Z-1.195
G1X7.995Z-1.435
G1X8.311Z-1.737
G1X8.627Z-2.102
G1X10.049Z-4.059
G1X10.681Z-4.934
G1X11.312Z-5.706
G1X11.786Z-6.185
G1X12.418Z-6.734
G1X13.366Z-7.427
G1X14.156Z-7.946
G1X14.472Z-8.044
G1X16.209Z-8.485
G1X16.841Z-8.689
G1X17.631Z-8.902
G1X18.263Z-9.108
G1X19.052Z-9.196
G1X20.000Z-9.241
G1X21.106Z-9.314
G1X21.422Z-9.280
G1X22.053Z-9.163
G1X23.633Z-8.828
G1X26.002Z-8.284
G1X26.476Z-8.182
G1X27.266Z-7.930
G1X28.056Z-7.617
G1X28.214Z-7.537
G1X29.162Z-6.898
G1X30.267Z-6.052
G1X30.741Z-5.635
G1X31.373Z-4.933
G1X32.795Z-2.985
G1X33.110Z-2.588
G1X33.584Z-1.934
G1X33.742Z-1.752
G1X34.058Z-1.469
G1X34.374Z-1.239
G1X34.690Z-1.052
G1X35.006Z-0.922
G1X35.322Z-0.836
G1X35.796Z-0.804
G1X36.270Z-0.834
G1X36.585Z-0.913
G1X37.059Z-1.091
G1X37.375Z-1.256
G1X38.165Z-1.871
G1X38.639Z-2.353
G1X38.955Z-2.713
G1X39.271Z-3.182
G1X39.429Z-3.443
G1X39.745Z-4.087
G1X40.061Z-4.919
G1X40.376Z-5.873
G1X41.166Z-8.616
G1X41.482Z-9.517
G1X41.640Z-9.841
G1X41.956Z-10.310
G1X41.850Y17.003Z-10.366
G1X41.534Z-9.852
G1X41.376Z-9.501
G1X40.902Z-8.138
G1X40.113Z-5.402
G1X39.797Z-4.498
G1X39.482Z-3.808
G1X39.166Z-3.235
G1X38.850Z-2.783
G1X38.219Z-2.061
G1X37.745Z-1.630
G1X37.430Z-1.384
G1X37.272Z-1.282
G1X36.640Z-0.963
G1X36.325Z-0.873
G1X35.693Z-0.800
G1X35.377Z-0.808
G1X35.062Z-0.852
G1X34.746Z-0.956
G1X34.430Z-1.096
G1X34.115Z-1.288
G1X33.799Z-1.539
G1X33.483Z-1.846
G1X32.852Z-2.634
G1X31.273Z-4.797
G1X30.484Z-5.670
G1X30.010Z-6.074
G1X28.590Z-7.138
G1X28.116Z-7.433
G1X27.958Z-7.522
G1X26.695Z-8.005
G1X24.327Z-8.533
G1X24.012Z-8.607
G1X23.222Z-8.672
G1X21.960Z-8.919
G1X21.170Z-9.050
G1X19.276Z-8.930
G1X18.329Z-8.860
G1X17.382Z-8.601
G1X16.592Z-8.465
G1X15.645Z-8.198
G1X14.540Z-7.925
G1X14.225Z-7.798
G1X13.277Z-7.165
G1X12.646Z-6.656
G1X12.172Z-6.345
G1X11.541Z-5.752
G1X10.752Z-4.818
G1X10.120Z-3.953
G1X8.857Z-2.161
G1X8.542Z-1.808
G1X8.384Z-1.656
G1X7.595Z-1.116
G1X7.279Z-0.975
G1X6.805Z-0.860
G1X6.332Z-0.815
G1X6.016Z-0.845
G1X5.700Z-0.924
G1X5.227Z-1.129
G1X4.911Z-1.345
G1X4.437Z-1.772
G1X4.122Z-2.107
G1X3.964Z-2.299
G1X3.648Z-2.783
G1X3.332Z-3.357
G1X3.017Z-4.163
G1X2.701Z-5.201
G1X2.227Z-6.972
G1X1.754Z-8.812
G1X1.438Z-9.686
G1X1.280Z-9.996
G1X1.357Y17.320Z-9.998
G1X1.516Z-9.671
G1X1.674Z-9.247
G1X1.990Z-8.068
G1X2.623Z-5.622
G1X2.940Z-4.557
G1X3.256Z-3.685
G1X3.572Z-3.012
G1X3.889Z-2.472
G1X4.047Z-2.261
G1X4.680Z-1.634
G1X4.996Z-1.360
G1X5.154Z-1.243
G1X5.471Z-1.076
G1X5.787Z-0.958
G1X6.262Z-0.839
G1X6.736Z-0.823
G1X7.053Z-0.873
G1X7.369Z-0.960
G1X7.527Z-1.032
G1X7.844Z-1.202
G1X8.160Z-1.365
G1X8.319Z-1.468
G1X8.793Z-1.891
G1X9.110Z-2.258
G1X10.692Z-4.472
G1X11.324Z-5.272
G1X11.641Z-5.608
G1X12.274Z-6.167
G1X12.748Z-6.507
G1X13.539Z-7.145
G1X14.172Z-7.562
G1X14.647Z-7.766
G1X15.121Z-7.931
G1X16.229Z-8.215
G1X16.387Z-8.263
G1X17.494Z-8.447
G1X17.969Z-8.568
G1X18.285Z-8.664
G1X19.551Z-8.696
G1X21.133Z-8.793
G1X22.873Z-8.514
G1X23.664Z-8.483
G1X23.981Z-8.472
G1X24.455Z-8.374
G1X26.512Z-7.907
G1X26.828Z-7.812
G1X27.303Z-7.617
G1X27.778Z-7.444
G1X28.252Z-7.176
G1X29.676Z-6.143
G1X30.151Z-5.766
G1X30.784Z-5.099
G1X31.100Z-4.747
G1X32.682Z-2.599
G1X33.315Z-1.846
G1X33.631Z-1.543
G1X34.106Z-1.178
G1X34.422Z-1.017
G1X34.739Z-0.901
G1X35.055Z-0.825
G1X35.372Z-0.784
G1X35.846Z-0.815
G1X36.321Z-0.898
G1X36.637Z-0.996
G1X36.954Z-1.166
G1X37.428Z-1.476
G1X37.903Z-1.901
G1X38.377Z-2.401
G1X38.852Z-2.985
G1X39.327Z-3.784
G1X39.485Z-4.086
G1X39.801Z-4.847
G1X39.959Z-5.297
G1X40.909Z-8.526
G1X41.067Z-8.982
G1X41.383Z-9.764
G1X41.542Z-10.059
G1X41.700Z-10.299
G1X41.645Y17.428Z-10.244
G1X41.544Y17.638Z-10.203
G1X41.386Z-9.995
G1X41.228Z-9.706
G1X41.070Z-9.336
G1X40.754Z-8.400
G1X39.807Z-5.221
G1X39.492Z-4.405
G1X39.176Z-3.760
G1X38.860Z-3.208
G1X38.387Z-2.588
G1X37.755Z-1.909
G1X37.440Z-1.609
G1X36.808Z-1.154
G1X36.493Z-1.001
G1X36.019Z-0.863
G1X35.546Z-0.785
G1X35.072Z-0.789
G1X34.599Z-0.897
G1X34.283Z-1.004
G1X33.809Z-1.268
G1X33.494Z-1.490
G1X32.862Z-2.166
G1X32.389Z-2.721
G1X30.968Z-4.645
G1X30.179Z-5.499
G1X29.548Z-6.011
G1X27.969Z-7.143
G1X27.654Z-7.322
G1X27.022Z-7.568
G1X26.706Z-7.710
G1X25.444Z-8.023
G1X24.181Z-8.301
G1X23.550Z-8.336
G1X22.603Z-8.362
G1X21.182Z-8.597
G1X19.288Z-8.501
G1X18.341Z-8.480
G1X17.552Z-8.305
G1X16.131Z-8.049
G1X15.500Z-7.877
G1X14.553Z-7.528
G1X14.079Z-7.304
G1X13.606Z-6.983
G1X12.343Z-5.966
G1X11.554Z-5.248
G1X11.396Z-5.079
G1X10.291Z-3.642
G1X9.344Z-2.317
G1X9.186Z-2.123
G1X8.555Z-1.508
G1X8.239Z-1.284
G1X7.923Z-1.123
G1X7.450Z-0.928
G1X6.976Z-0.825
G1X6.503Z-0.821
G1X6.029Z-0.910
G1X5.556Z-1.108
G1X5.240Z-1.259
G1X4.924Z-1.475
G1X4.609Z-1.740
G1X4.135Z-2.262
G1X3.977Z-2.458
G1X3.661Z-3.001
G1X3.504Z-3.290
G1X3.346Z-3.635
G1X3.030Z-4.515
G1X2.557Z-6.172
G1X1.925Z-8.614
G1X1.767Z-9.198
G1X1.452Z-9.962
G1X1.501Y17.796Z-9.935
G1X1.550Y17.955Z-9.868
G1X1.708Z-9.532
G1X1.867Z-9.080
G1X2.183Z-7.954
G1X2.657Z-6.052
G1X2.973Z-4.913
G1X3.289Z-3.998
G1X3.606Z-3.280
G1X3.922Z-2.691
G1X4.396Z-2.071
G1X4.712Z-1.740
G1X5.028Z-1.473
G1X5.503Z-1.172
G1X5.819Z-1.020
G1X6.135Z-0.912
G1X6.767Z-0.811
G1X7.084Z-0.805
G1X7.400Z-0.850
G1X7.716Z-0.941
G1X8.032Z-1.062
G1X8.348Z-1.227
G1X8.665Z-1.466
G1X9.297Z-2.063
G1X9.613Z-2.430
G1X10.720Z-3.909
G1X11.194Z-4.534
G1X11.668Z-5.063
G1X12.617Z-5.947
G1X13.882Z-6.975
G1X14.040Z-7.073
G1X14.672Z-7.372
G1X16.095Z-7.885
G1X17.518Z-8.153
G1X18.466Z-8.303
G1X19.889Z-8.342
G1X21.154Z-8.414
G1X22.261Z-8.239
G1X23.367Z-8.190
G1X24.000Z-8.164
G1X24.474Z-8.111
G1X25.581Z-7.853
G1X26.687Z-7.567
G1X27.636Z-7.148
G1X29.217Z-6.001
G1X30.324Z-5.071
G1X31.114Z-4.181
G1X32.221Z-2.646
G1X32.537Z-2.281
G1X33.169Z-1.642
G1X33.485Z-1.372
G1X33.644Z-1.257
G1X34.118Z-0.997
G1X34.434Z-0.872
G1X34.750Z-0.799
G1X35.383Z-0.782
G1X35.857Z-0.865
G1X36.331Z-1.009
G1X36.647Z-1.145
G1X36.805Z-1.248
G1X37.122Z-1.512
G1X37.438Z-1.747
G1X37.912Z-2.209
G1X38.228Z-2.562
G1X38.861Z-3.434
G1X39.177Z-4.032
G1X39.335Z-4.374
G1X39.493Z-4.770
G1X39.809Z-5.660
G1X40.442Z-7.767
G1X40.758Z-8.821
G1X40.916Z-9.281
G1X41.074Z-9.668
G1X41.232Z-9.985
G1X41.390Z-10.182
G1X41.237Y18.273Z-10.217
G1X41.078Z-9.951
G1X40.920Z-9.612
G1X40.762Z-9.222
G1X40.128Z-7.130
G1X39.653Z-5.606
G1X39.495Z-5.120
G1X39.178Z-4.352
G1X38.861Z-3.684
G1X38.703Z-3.404
G1X38.070Z-2.535
G1X37.753Z-2.188
G1X37.436Z-1.889
G1X36.803Z-1.356
G1X36.486Z-1.142
G1X36.011Z-0.944
G1X35.694Z-0.833
G1X35.378Z-0.777
G1X34.903Z-0.757
G1X34.586Z-0.796
G1X34.269Z-0.892
G1X33.794Z-1.111
G1X33.161Z-1.495
G1X32.844Z-1.739
G1X32.211Z-2.375
G1X31.736Z-3.009
G1X31.102Z-3.870
G1X30.310Z-4.763
G1X29.994Z-5.051
G1X28.569Z-6.235
G1X27.302Z-7.138
G1X26.827Z-7.368
G1X26.510Z-7.466
G1X24.610Z-7.951
G1X23.660Z-8.037
G1X22.076Z-8.100
G1X21.126Z-8.230
G1X19.226Z-8.135
G1X18.593Z-8.123
G1X17.801Z-8.030
G1X17.326Z-7.971
G1X16.534Z-7.813
G1X15.901Z-7.614
G1X14.792Z-7.214
G1X14.159Z-6.907
G1X13.842Z-6.725
G1X12.892Z-5.975
G1X11.942Z-5.051
G1X10.992Z-3.980
G1X9.883Z-2.529
G1X9.567Z-2.162
G1X8.933Z-1.545
G1X8.616Z-1.288
G1X8.300Z-1.093
G1X7.825Z-0.904
G1X7.508Z-0.821
G1X7.191Z-0.779
G1X6.716Z-0.802
G1X6.241Z-0.925
G1X5.766Z-1.096
G1X5.608Z-1.166
G1X5.291Z-1.363
G1X4.974Z-1.610
G1X4.499Z-2.110
G1X4.183Z-2.493
G1X3.866Z-3.007
G1X3.708Z-3.354
G1X3.549Z-3.654
G1X3.391Z-4.037
G1X3.074Z-4.971
G1X2.599Z-6.630
G1X2.124Z-8.531
G1X1.966Z-9.104
G1X1.807Z-9.504
G1X1.649Z-9.800
G1X1.761Y18.590Z-9.797
G1X1.918Z-9.496
G1X2.076Z-9.046
G1X2.392Z-7.839
G1X2.866Z-6.002
G1X3.182Z-4.955
G1X3.340Z-4.462
G1X3.656Z-3.691
G1X3.814Z-3.334
G1X4.129Z-2.780
G1X4.287Z-2.539
G1X4.603Z-2.147
G1X5.077Z-1.639
G1X5.393Z-1.379
G1X5.551Z-1.273
G1X5.867Z-1.126
G1X6.182Z-0.951
G1X6.498Z-0.853
G1X6.814Z-0.790
G1X7.130Z-0.761
G1X7.446Z-0.769
G1X7.762Z-0.837
G1X8.393Z-1.066
G1X8.709Z-1.235
G1X9.025Z-1.464
G1X9.815Z-2.221
G1X10.288Z-2.761
G1X10.920Z-3.588
G1X11.868Z-4.678
G1X12.183Z-5.029
G1X13.131Z-5.968
G1X13.289Z-6.100
G1X14.394Z-6.747
G1X15.026Z-7.097
G1X16.447Z-7.593
G1X17.395Z-7.837
G1X18.658Z-7.936
G1X19.764Z-7.977
G1X21.185Z-8.052
G1X21.659Z-7.978
G1X23.870Z-7.868
G1X24.501Z-7.785
G1X26.396Z-7.320
G1X26.712Z-7.227
G1X27.028Z-7.094
G1X28.291Z-6.183
G1X30.187Z-4.579
G1X31.134Z-3.505
G1X31.924Z-2.443
G1X32.239Z-2.084
G1X32.713Z-1.652
G1X32.871Z-1.527
G1X33.187Z-1.338
G1X33.977Z-0.981
G1X34.450Z-0.827
G1X34.766Z-0.770
G1X35.082Z-0.766
G1X35.556Z-0.831
G1X35.872Z-0.927
G1X36.345Z-1.154
G1X36.661Z-1.351
G1X37.609Z-2.190
G1X37.925Z-2.524
G1X38.398Z-3.168
G1X38.556Z-3.390
G1X38.714Z-3.667
G1X39.188Z-4.681
G1X39.346Z-5.088
G1X39.978Z-7.131
G1X40.451Z-8.727
G1X40.767Z-9.594
G1X40.925Z-9.918
G1X41.083Z-10.121
G1X41.006Y18.749Z-10.104
G1X40.930Y18.908Z-10.119
G1X40.772Z-9.916
G1X40.613Z-9.578
G1X40.297Z-8.722
G1X39.823Z-7.180
G1X39.190Z-5.103
G1X38.874Z-4.295
G1X38.558Z-3.639
G1X38.242Z-3.136
G1X37.925Z-2.716
G1X37.451Z-2.184
G1X36.819Z-1.611
G1X36.502Z-1.354
G1X36.186Z-1.156
G1X35.870Z-1.005
G1X35.554Z-0.901
G1X35.079Z-0.805
G1X34.605Z-0.806
G1X33.815Z-0.972
G1X33.498Z-1.077
G1X33.024Z-1.288
G1X32.708Z-1.473
G1X32.392Z-1.712
G1X32.075Z-1.998
G1X31.759Z-2.362
G1X30.969Z-3.374
G1X30.020Z-4.431
G1X27.806Z-6.292
G1X27.174Z-6.732
G1X26.858Z-6.915
G1X26.383Z-7.139
G1X24.328Z-7.618
G1X23.695Z-7.703
G1X22.905Z-7.744
G1X21.798Z-7.824
G1X21.166Z-7.872
G1X19.584Z-7.763
G1X19.110Z-7.716
G1X17.845Z-7.671
G1X17.371Z-7.631
G1X16.580Z-7.433
G1X15.474Z-7.036
G1X14.050Z-6.261
G1X13.102Z-5.676
G1X12.311Z-4.896
G1X11.046Z-3.416
G1X10.730Z-3.058
G1X10.256Z-2.477
G1X9.781Z-1.967
G1X9.149Z-1.413
G1X8.833Z-1.197
G1X8.517Z-1.049
G1X8.042Z-0.906
G1X7.568Z-0.789
G1X7.252Z-0.762
G1X6.935Z-0.778
G1X6.461Z-0.885
G1X6.145Z-0.997
G1X5.671Z-1.284
G1X5.354Z-1.508
G1X5.038Z-1.824
G1X4.564Z-2.358
G1X4.089Z-3.081
G1X3.931Z-3.340
G1X3.615Z-4.067
G1X3.299Z-4.920
G1X2.983Z-5.952
G1X2.192Z-8.965
G1X2.034Z-9.439
G1X1.876Z-9.837
G1X1.933Y19.066Z-9.812
G1X1.991Y19.225Z-9.763
G1X2.149Z-9.387
G1X2.308Z-8.922
G1X3.258Z-5.440
G1X3.574Z-4.508
G1X3.891Z-3.693
G1X4.366Z-2.838
G1X4.682Z-2.393
G1X5.157Z-1.840
G1X5.474Z-1.525
G1X5.949Z-1.189
G1X6.265Z-1.023
G1X6.582Z-0.901
G1X6.899Z-0.823
G1X7.215Z-0.785
G1X7.690Z-0.811
G1X8.007Z-0.868
G1X8.482Z-0.985
G1X8.798Z-1.098
G1X9.115Z-1.255
G1X9.590Z-1.602
G1X9.906Z-1.875
G1X11.173Z-3.238
G1X12.439Z-4.753
G1X12.756Z-5.073
G1X13.231Z-5.464
G1X14.339Z-6.131
G1X15.764Z-6.902
G1X16.714Z-7.270
G1X17.188Z-7.378
G1X17.505Z-7.426
G1X19.088Z-7.485
G1X20.196Z-7.609
G1X21.146Z-7.663
G1X23.046Z-7.524
G1X23.837Z-7.498
G1X24.629Z-7.354
G1X25.895Z-7.011
G1X26.054Z-6.964
G1X27.003Z-6.554
G1X27.478Z-6.231
G1X27.953Z-5.888
G1X30.011Z-4.127
G1X31.119Z-2.866
G1X31.753Z-2.074
G1X32.069Z-1.777
G1X32.386Z-1.520
G1X32.702Z-1.318
G1X33.177Z-1.099
G1X33.494Z-0.992
G1X33.811Z-0.924
G1X34.286Z-0.869
G1X34.760Z-0.840
G1X35.077Z-0.868
G1X35.394Z-0.930
G1X35.869Z-1.093
G1X36.185Z-1.259
G1X36.660Z-1.610
G1X37.135Z-2.013
G1X37.452Z-2.342
G1X38.085Z-3.155
G1X38.402Z-3.674
G1X38.560Z-3.990
G1X38.876Z-4.737
G1X39.035Z-5.152
G1X39.510Z-6.687
G1X40.143Z-8.778
G1X40.459Z-9.591
G1X40.618Z-9.921
G1X40.776Z-10.126
G1X40.699Y19.384Z-10.139
G1X40.623Y19.543Z-10.193
G1X40.465Z-9.965
G1X40.307Z-9.641
G1X39.991Z-8.845
G1X39.044Z-5.705
G1X38.728Z-4.795
G1X38.413Z-4.036
G1X37.939Z-3.184
G1X37.308Z-2.345
G1X36.992Z-2.019
G1X36.203Z-1.393
G1X35.887Z-1.204
G1X35.413Z-1.016
G1X34.940Z-0.916
G1X34.151Z-0.880
G1X33.677Z-0.916
G1X33.203Z-0.996
G1X32.888Z-1.084
G1X32.730Z-1.146
G1X32.256Z-1.429
G1X31.941Z-1.654
G1X31.467Z-2.125
G1X30.836Z-2.871
G1X29.731Z-4.039
G1X28.941Z-4.775
G1X28.310Z-5.318
G1X27.205Z-6.114
G1X26.889Z-6.268
G1X25.784Z-6.757
G1X24.679Z-7.078
G1X23.732Z-7.273
G1X23.101Z-7.323
G1X21.996Z-7.378
G1X21.207Z-7.435
G1X20.575Z-7.435
G1X19.944Z-7.366
G1X18.997Z-7.223
G1X18.365Z-7.180
G1X17.260Z-7.142
G1X16.787Z-7.048
G1X16.155Z-6.809
G1X15.208Z-6.314
G1X14.261Z-5.797
G1X13.314Z-5.173
G1X12.525Z-4.496
G1X12.367Z-4.348
G1X10.946Z-2.662
G1X10.315Z-2.065
G1X9.999Z-1.740
G1X9.841Z-1.609
G1X9.210Z-1.193
G1X8.894Z-1.070
G1X8.105Z-0.858
G1X7.631Z-0.799
G1X7.158Z-0.832
G1X6.842Z-0.898
G1X6.368Z-1.075
G1X6.053Z-1.227
G1X5.737Z-1.442
G1X5.263Z-1.876
G1X4.948Z-2.217
G1X4.632Z-2.627
G1X4.316Z-3.138
G1X4.158Z-3.412
G1X3.843Z-4.095
G1X3.527Z-4.980
G1X3.369Z-5.470
G1X2.422Z-8.939
G1X2.264Z-9.401
G1X2.106Z-9.698
G1X2.164Y19.701Z-9.713
G1X2.222Y19.860Z-9.757
G1X2.380Z-9.366
G1X2.538Z-8.905
G1X3.486Z-5.471
G1X3.802Z-4.505
G1X4.276Z-3.431
G1X4.434Z-3.142
G1X4.750Z-2.657
G1X5.066Z-2.242
G1X5.699Z-1.612
G1X5.857Z-1.472
G1X6.015Z-1.361
G1X6.489Z-1.125
G1X6.963Z-0.935
G1X7.279Z-0.856
G1X7.753Z-0.811
G1X8.069Z-0.827
G1X9.018Z-1.027
G1X9.334Z-1.147
G1X9.966Z-1.513
G1X10.440Z-1.898
G1X10.914Z-2.325
G1X12.021Z-3.584
G1X12.337Z-3.933
G1X13.285Z-4.778
G1X13.601Z-5.012
G1X14.391Z-5.569
G1X16.446Z-6.674
G1X17.078Z-6.852
G1X18.659Z-6.927
G1X19.607Z-7.049
G1X20.397Z-7.174
G1X21.345Z-7.204
G1X22.768Z-7.105
G1X23.716Z-7.006
G1X24.980Z-6.717
G1X25.455Z-6.575
G1X27.035Z-5.861
G1X27.509Z-5.593
G1X28.299Z-5.012
G1X29.248Z-4.140
G1X30.986Z-2.339
G1X31.460Z-1.896
G1X31.776Z-1.602
G1X32.093Z-1.377
G1X32.567Z-1.106
G1X32.883Z-0.979
G1X33.199Z-0.911
G1X33.673Z-0.872
G1X34.305Z-0.925
G1X34.937Z-0.994
G1X35.254Z-1.073
G1X35.570Z-1.192
G1X36.044Z-1.442
G1X36.676Z-1.923
G1X36.992Z-2.198
G1X37.150Z-2.359
G1X37.782Z-3.194
G1X38.256Z-4.084
G1X38.573Z-4.870
G1X38.889Z-5.772
G1X39.837Z-8.885
G1X39.995Z-9.321
G1X40.311Z-9.989
G1X40.469Z-10.274
G1X40.392Y20.019Z-10.215
G1X40.316Y20.178Z-10.186
G1X40.157Z-9.974
G1X39.999Z-9.709
G1X39.841Z-9.365
G1X39.366Z-7.945
G1X38.733Z-5.839
G1X38.258Z-4.526
G1X38.100Z-4.129
G1X37.784Z-3.482
G1X37.625Z-3.208
G1X37.151Z-2.575
G1X36.834Z-2.238
G1X36.518Z-1.970
G1X36.043Z-1.635
G1X35.568Z-1.346
G1X35.094Z-1.128
G1X34.461Z-0.933
G1X33.986Z-0.843
G1X33.669Z-0.819
G1X33.195Z-0.832
G1X32.878Z-0.901
G1X32.562Z-1.007
G1X31.929Z-1.328
G1X31.770Z-1.428
G1X31.137Z-1.916
G1X30.821Z-2.151
G1X30.504Z-2.451
G1X28.764Z-4.239
G1X27.972Z-4.941
G1X27.656Z-5.172
G1X26.707Z-5.683
G1X25.124Z-6.394
G1X24.649Z-6.519
G1X23.542Z-6.767
G1X21.959Z-6.910
G1X21.326Z-6.929
G1X20.218Z-6.882
G1X19.111Z-6.723
G1X18.161Z-6.627
G1X17.528Z-6.592
G1X16.895Z-6.502
G1X16.421Z-6.357
G1X16.104Z-6.206
G1X14.680Z-5.438
G1X14.363Z-5.218
G1X13.414Z-4.513
G1X12.306Z-3.521
G1X11.198Z-2.296
G1X10.882Z-1.995
G1X10.249Z-1.513
G1X9.616Z-1.172
G1X9.300Z-1.042
G1X8.825Z-0.913
G1X8.192Z-0.833
G1X7.717Z-0.838
G1X7.401Z-0.882
G1X7.084Z-0.977
G1X6.293Z-1.320
G1X6.135Z-1.412
G1X5.660Z-1.803
G1X5.185Z-2.288
G1X4.869Z-2.701
G1X4.552Z-3.175
G1X4.394Z-3.446
G1X3.919Z-4.550
G1X3.761Z-4.995
G1X3.128Z-7.206
G1X2.653Z-8.950
G1X2.337Z-9.755
G1X2.353Y20.222Z-9.747
G1X2.437Y20.495Z-9.812
G1X2.753Z-9.029
G1X2.911Z-8.511
G1X3.542Z-6.183
G1X3.858Z-5.101
G1X4.174Z-4.250
G1X4.489Z-3.566
G1X4.805Z-3.019
G1X5.279Z-2.380
G1X5.594Z-2.055
G1X6.226Z-1.515
G1X6.541Z-1.321
G1X7.173Z-1.039
G1X7.488Z-0.933
G1X7.962Z-0.848
G1X8.278Z-0.832
G1X8.909Z-0.894
G1X9.225Z-0.947
G1X9.540Z-1.045
G1X10.172Z-1.306
G1X10.961Z-1.795
G1X11.119Z-1.905
G1X11.434Z-2.189
G1X12.224Z-3.055
G1X13.329Z-4.045
G1X14.276Z-4.804
G1X14.907Z-5.268
G1X15.854Z-5.769
G1X16.643Z-6.097
G1X16.959Z-6.170
G1X17.748Z-6.284
G1X19.327Z-6.492
G1X20.116Z-6.588
G1X21.221Z-6.623
G1X22.799Z-6.552
G1X23.431Z-6.489
G1X24.851Z-6.156
G1X25.167Z-6.031
G1X26.587Z-5.379
G1X27.535Z-4.896
G1X27.850Z-4.681
G1X28.482Z-4.130
G1X30.060Z-2.497
G1X30.376Z-2.193
G1X31.323Z-1.498
G1X31.639Z-1.328
G1X32.428Z-0.984
G1X32.743Z-0.872
G1X33.059Z-0.808
G1X33.375Z-0.779
G1X33.848Z-0.793
G1X34.322Z-0.900
G1X34.795Z-1.072
G1X35.111Z-1.236
G1X36.374Z-2.043
G1X36.690Z-2.294
G1X37.163Z-2.811
G1X37.321Z-3.024
G1X37.637Z-3.534
G1X37.794Z-3.834
G1X38.110Z-4.567
G1X38.584Z-5.943
G1X39.215Z-8.055
G1X39.689Z-9.412
G1X39.846Z-9.746
G1X40.004Z-10.016
G1X40.162Z-10.203
G1X40.147Y20.527Z-10.211
G1X40.110Y20.704Z-10.308
G1X40.070Y20.813Z-10.289
G1X39.912Z-10.060
G1X39.753Z-9.897
G1X39.595Z-9.604
G1X39.278Z-8.780
G1X38.328Z-5.678
G1X38.011Z-4.780
G1X37.695Z-4.034
G1X37.536Z-3.733
G1X37.219Z-3.210
G1X37.061Z-2.981
G1X36.586Z-2.444
G1X36.269Z-2.145
G1X35.794Z-1.793
G1X34.685Z-1.095
G1X34.369Z-0.949
G1X34.052Z-0.849
G1X33.577Z-0.786
G1X33.102Z-0.794
G1X32.627Z-0.867
G1X32.152Z-1.030
G1X31.676Z-1.143
G1X31.201Z-1.341
G1X30.726Z-1.645
G1X30.251Z-1.952
G1X29.934Z-2.221
G1X28.667Z-3.538
G1X27.717Z-4.373
G1X27.400Z-4.588
G1X25.500Z-5.530
G1X25.025Z-5.733
G1X24.550Z-5.872
G1X23.441Z-6.148
G1X22.649Z-6.223
G1X20.749Z-6.291
G1X19.640Z-6.245
G1X17.739Z-5.948
G1X16.789Z-5.778
G1X15.522Z-5.266
G1X15.364Z-5.189
G1X14.572Z-4.637
G1X13.938Z-4.114
G1X13.463Z-3.704
G1X12.830Z-3.212
G1X12.196Z-2.644
G1X11.721Z-2.139
G1X11.404Z-1.859
G1X10.771Z-1.459
G1X10.454Z-1.282
G1X10.137Z-1.141
G1X9.821Z-1.046
G1X9.187Z-0.907
G1X8.870Z-0.877
G1X8.237Z-0.863
G1X7.920Z-0.893
G1X7.604Z-0.968
G1X6.970Z-1.227
G1X6.653Z-1.389
G1X6.337Z-1.609
G1X5.703Z-2.155
G1X5.386Z-2.490
G1X4.911Z-3.180
G1X4.594Z-3.732
G1X4.436Z-4.028
G1X4.278Z-4.398
G1X3.803Z-5.759
G1X2.852Z-9.133
G1X2.536Z-9.937
G1X2.647Y21.130Z-9.973
G1X2.805Z-9.630
G1X2.963Z-9.235
G1X3.121Z-8.744
G1X3.911Z-5.966
G1X4.227Z-5.006
G1X4.385Z-4.569
G1X4.543Z-4.201
G1X5.016Z-3.329
G1X5.332Z-2.827
G1X5.648Z-2.430
G1X5.964Z-2.129
G1X6.596Z-1.586
G1X6.912Z-1.375
G1X7.544Z-1.083
G1X7.860Z-0.970
G1X8.175Z-0.903
G1X8.965Z-0.869
G1X9.281Z-0.891
G1X9.913Z-0.963
G1X10.229Z-1.034
G1X10.703Z-1.219
G1X11.335Z-1.581
G1X11.651Z-1.786
G1X11.966Z-2.050
G1X12.756Z-2.739
G1X13.546Z-3.329
G1X14.652Z-4.289
G1X15.441Z-4.810
G1X15.915Z-5.040
G1X16.389Z-5.234
G1X17.179Z-5.463
G1X18.127Z-5.662
G1X19.706Z-5.889
G1X20.496Z-5.914
G1X22.549Z-5.840
G1X23.339Z-5.784
G1X23.497Z-5.780
G1X24.761Z-5.436
G1X25.077Z-5.332
G1X25.866Z-4.967
G1X27.130Z-4.321
G1X27.762Z-3.909
G1X28.868Z-2.936
G1X29.657Z-2.123
G1X30.131Z-1.737
G1X30.921Z-1.276
G1X31.395Z-1.084
G1X31.869Z-0.982
G1X32.974Z-0.810
G1X33.290Z-0.813
G1X33.922Z-0.877
G1X34.238Z-0.963
G1X34.554Z-1.112
G1X35.186Z-1.510
G1X35.976Z-2.113
G1X36.291Z-2.400
G1X36.923Z-3.146
G1X37.081Z-3.358
G1X37.397Z-3.903
G1X37.713Z-4.542
G1X38.029Z-5.398
G1X39.135Z-8.907
G1X39.293Z-9.314
G1X39.451Z-9.667
G1X39.608Z-9.902
G1X39.924Z-10.287
G1X39.705Y21.448Z-10.290
G1X39.388Z-9.858
G1X39.230Z-9.568
G1X38.913Z-8.815
G1X37.804Z-5.403
G1X37.645Z-4.988
G1X37.012Z-3.626
G1X36.695Z-3.179
G1X36.220Z-2.596
G1X35.903Z-2.275
G1X35.428Z-1.855
G1X35.111Z-1.572
G1X34.794Z-1.343
G1X34.477Z-1.176
G1X34.160Z-1.044
G1X33.843Z-0.973
G1X33.526Z-0.908
G1X33.210Z-0.840
G1X32.417Z-0.832
G1X31.467Z-0.941
G1X31.150Z-1.016
G1X30.675Z-1.203
G1X30.358Z-1.370
G1X30.200Z-1.441
G1X29.724Z-1.751
G1X29.407Z-2.005
G1X28.932Z-2.450
G1X27.982Z-3.262
G1X26.873Z-4.039
G1X26.556Z-4.200
G1X24.813Z-4.982
G1X24.179Z-5.171
G1X23.546Z-5.354
G1X22.120Z-5.480
G1X20.060Z-5.536
G1X19.744Z-5.526
G1X18.635Z-5.353
G1X17.842Z-5.185
G1X17.367Z-5.101
G1X16.258Z-4.762
G1X15.941Z-4.634
G1X15.308Z-4.294
G1X14.516Z-3.713
G1X13.407Z-2.774
G1X12.139Z-1.838
G1X11.981Z-1.733
G1X11.506Z-1.470
G1X11.030Z-1.193
G1X10.555Z-1.006
G1X10.080Z-0.915
G1X9.604Z-0.872
G1X8.971Z-0.875
G1X8.337Z-0.939
G1X8.020Z-1.003
G1X7.703Z-1.118
G1X7.228Z-1.340
G1X6.911Z-1.526
G1X6.436Z-1.909
G1X5.961Z-2.330
G1X5.644Z-2.686
G1X5.327Z-3.108
G1X5.010Z-3.659
G1X4.693Z-4.304
G1X4.218Z-5.586
G1X3.267Z-8.755
G1X3.109Z-9.226
G1X2.792Z-9.947
G1X2.949Y21.765Z-9.989
G1X3.107Z-9.666
G1X3.423Z-8.809
G1X4.371Z-5.696
G1X4.687Z-4.792
G1X5.003Z-4.057
G1X5.319Z-3.460
G1X5.635Z-2.973
G1X6.109Z-2.417
G1X6.425Z-2.115
G1X6.899Z-1.713
G1X7.215Z-1.503
G1X7.847Z-1.180
G1X8.163Z-1.062
G1X8.795Z-0.943
G1X9.427Z-0.855
G1X9.901Z-0.837
G1X10.375Z-0.874
G1X10.849Z-0.976
G1X11.322Z-1.168
G1X11.638Z-1.309
G1X12.270Z-1.599
G1X12.744Z-1.862
G1X13.534Z-2.428
G1X14.798Z-3.460
G1X15.114Z-3.679
G1X16.220Z-4.259
G1X17.484Z-4.711
G1X18.274Z-4.847
G1X19.696Z-5.154
G1X21.908Z-5.106
G1X23.488Z-4.960
G1X24.594Z-4.611
G1X26.806Z-3.598
G1X26.964Z-3.508
G1X28.070Z-2.716
G1X28.544Z-2.320
G1X29.175Z-1.851
G1X29.965Z-1.368
G1X30.755Z-1.021
G1X31.229Z-0.884
G1X31.703Z-0.815
G1X32.493Z-0.797
G1X32.967Z-0.834
G1X33.441Z-0.947
G1X34.231Z-1.184
G1X34.547Z-1.327
G1X34.863Z-1.531
G1X35.337Z-1.941
G1X35.811Z-2.421
G1X36.285Z-2.975
G1X36.601Z-3.378
G1X36.917Z-3.905
G1X37.391Z-4.941
G1X37.549Z-5.341
G1X38.497Z-8.239
G1X38.813Z-9.094
G1X39.129Z-9.763
G1X39.445Z-10.222
G1X39.231Y22.026Z-10.199
G1X39.183Y22.083Z-10.180
G1X38.709Z-9.436
G1X38.392Z-8.618
G1X37.443Z-5.693
G1X37.285Z-5.260
G1X36.810Z-4.201
G1X36.494Z-3.583
G1X35.861Z-2.704
G1X35.545Z-2.342
G1X35.070Z-1.896
G1X34.595Z-1.521
G1X34.279Z-1.334
G1X33.963Z-1.192
G1X33.172Z-0.928
G1X32.855Z-0.846
G1X32.381Z-0.787
G1X31.748Z-0.771
G1X31.432Z-0.786
G1X31.115Z-0.837
G1X30.799Z-0.923
G1X30.641Z-0.987
G1X30.166Z-1.117
G1X29.850Z-1.252
G1X29.533Z-1.407
G1X29.059Z-1.637
G1X28.742Z-1.832
G1X28.426Z-2.054
G1X27.951Z-2.339
G1X27.002Z-3.014
G1X25.737Z-3.608
G1X24.629Z-4.107
G1X23.522Z-4.453
G1X23.047Z-4.551
G1X21.782Z-4.726
G1X20.991Z-4.743
G1X19.883Z-4.709
G1X18.934Z-4.564
G1X17.985Z-4.363
G1X17.827Z-4.339
G1X16.878Z-4.004
G1X16.403Z-3.833
G1X14.979Z-3.095
G1X14.663Z-2.886
G1X13.714Z-2.127
G1X13.081Z-1.719
G1X12.290Z-1.354
G1X11.974Z-1.242
G1X11.499Z-1.071
G1X10.866Z-0.891
G1X10.392Z-0.815
G1X10.075Z-0.795
G1X9.759Z-0.811
G1X9.126Z-0.927
G1X8.651Z-1.059
G1X8.335Z-1.125
G1X8.019Z-1.242
G1X7.386Z-1.562
G1X7.070Z-1.768
G1X6.437Z-2.308
G1X6.120Z-2.670
G1X5.646Z-3.302
G1X5.329Z-3.831
G1X5.013Z-4.475
G1X4.697Z-5.304
G1X3.747Z-8.403
G1X3.431Z-9.279
G1X3.115Z-9.966
G1X3.294Y22.400Z-9.937
G1X3.610Z-9.332
G1X3.927Z-8.436
G1X4.877Z-5.378
G1X5.194Z-4.542
G1X5.352Z-4.189
G1X5.669Z-3.616
G1X6.144Z-2.896
G1X6.619Z-2.353
G1X7.252Z-1.826
G1X7.886Z-1.456
G1X8.361Z-1.237
G1X9.469Z-0.883
G1X9.944Z-0.793
G1X10.261Z-0.774
G1X10.736Z-0.806
G1X11.528Z-0.956
G1X12.003Z-1.042
G1X12.478Z-1.196
G1X13.269Z-1.548
G1X14.061Z-1.976
G1X14.378Z-2.184
G1X14.695Z-2.430
G1X16.278Z-3.262
G1X16.595Z-3.410
G1X17.862Z-3.876
G1X18.178Z-3.970
G1X18.970Z-4.104
G1X20.078Z-4.258
G1X21.345Z-4.296
G1X22.137Z-4.199
G1X23.087Z-4.058
G1X23.879Z-3.854
G1X24.671Z-3.592
G1X25.146Z-3.400
G1X26.887Z-2.586
G1X27.046Z-2.510
G1X27.679Z-2.095
G1X28.154Z-1.839
G1X28.629Z-1.605
G1X29.104Z-1.364
G1X29.896Z-1.057
G1X30.371Z-0.922
G1X31.321Z-0.776
G1X31.638Z-0.764
G1X32.430Z-0.832
G1X32.746Z-0.881
G1X33.221Z-1.020
G1X34.013Z-1.359
G1X34.330Z-1.533
G1X34.805Z-1.890
G1X35.122Z-2.154
G1X35.438Z-2.479
G1X35.913Z-3.087
G1X36.230Z-3.559
G1X36.388Z-3.823
G1X37.022Z-5.224
G1X37.180Z-5.640
G1X38.130Z-8.595
G1X38.289Z-9.021
G1X38.447Z-9.389
G1X38.764Z-9.966
G1X38.922Z-10.174
G1X38.806Y22.560Z-10.227
G1X38.753Y22.718Z-10.267
G1X38.595Z-10.023
G1X38.437Z-9.843
G1X38.279Z-9.545
G1X38.120Z-9.199
G1X37.013Z-5.829
G1X36.538Z-4.634
G1X36.380Z-4.270
G1X36.064Z-3.676
G1X35.906Z-3.429
G1X35.115Z-2.410
G1X34.798Z-2.114
G1X34.324Z-1.734
G1X34.007Z-1.533
G1X33.217Z-1.127
G1X32.900Z-1.008
G1X32.426Z-0.903
G1X31.635Z-0.801
G1X31.160Z-0.791
G1X30.527Z-0.822
G1X29.895Z-0.933
G1X29.104Z-1.176
G1X28.629Z-1.357
G1X27.838Z-1.674
G1X27.047Z-2.054
G1X25.624Z-2.703
G1X24.991Z-2.975
G1X24.200Z-3.262
G1X23.409Z-3.479
G1X22.776Z-3.623
G1X21.669Z-3.772
G1X21.353Z-3.803
G1X19.929Z-3.744
G1X18.189Z-3.500
G1X17.398Z-3.227
G1X16.607Z-2.916
G1X15.658Z-2.452
G1X15.183Z-2.228
G1X13.760Z-1.495
G1X13.285Z-1.309
G1X12.652Z-1.079
G1X12.178Z-0.955
G1X11.229Z-0.818
G1X10.912Z-0.814
G1X10.438Z-0.770
G1X10.121Z-0.801
G1X9.805Z-0.852
G1X9.330Z-0.994
G1X8.698Z-1.229
G1X8.223Z-1.455
G1X7.274Z-2.026
G1X6.958Z-2.275
G1X6.641Z-2.589
G1X6.167Z-3.169
G1X5.692Z-3.944
G1X5.376Z-4.660
G1X5.059Z-5.444
G1X4.585Z-6.921
G1X3.952Z-8.937
G1X3.794Z-9.372
G1X3.477Z-9.972
G1X3.664Y23.035Z-10.016
G1X3.822Z-9.735
G1X3.980Z-9.404
G1X4.612Z-7.546
G1X5.086Z-5.999
G1X5.559Z-4.727
G1X6.033Z-3.759
G1X6.191Z-3.499
G1X6.823Z-2.702
G1X6.981Z-2.523
G1X7.296Z-2.251
G1X8.402Z-1.533
G1X8.876Z-1.267
G1X9.507Z-1.021
G1X10.139Z-0.836
G1X10.455Z-0.807
G1X10.770Z-0.810
G1X11.244Z-0.791
G1X11.876Z-0.844
G1X12.350Z-0.886
G1X12.665Z-0.944
G1X12.981Z-1.040
G1X13.613Z-1.189
G1X14.087Z-1.371
G1X14.560Z-1.588
G1X15.350Z-1.890
G1X16.771Z-2.518
G1X17.245Z-2.683
G1X17.876Z-2.911
G1X18.350Z-3.038
G1X19.298Z-3.145
G1X19.929Z-3.232
G1X20.403Z-3.213
G1X20.877Z-3.243
G1X21.192Z-3.293
G1X21.350Z-3.302
G1X22.140Z-3.234
G1X22.772Z-3.136
G1X24.193Z-2.771
G1X25.140Z-2.435
G1X25.456Z-2.325
G1X26.877Z-1.757
G1X27.351Z-1.582
G1X27.509Z-1.542
G1X27.983Z-1.357
G1X28.930Z-1.063
G1X29.404Z-0.960
G1X29.878Z-0.855
G1X30.351Z-0.806
G1X31.141Z-0.818
G1X31.615Z-0.861
G1X32.404Z-1.000
G1X32.720Z-1.078
G1X33.194Z-1.266
G1X33.983Z-1.710
G1X34.457Z-2.091
G1X34.931Z-2.513
G1X35.404Z-3.105
G1X35.720Z-3.545
G1X36.036Z-4.110
G1X36.352Z-4.757
G1X36.668Z-5.534
G1X37.457Z-7.880
G1X37.773Z-8.833
G1X38.089Z-9.629
G1X38.247Z-9.917
G1X38.563Z-10.280
G1X38.429Y23.215Z-10.314
G1X38.322Y23.353Z-10.263
G1X38.006Z-9.875
G1X37.690Z-9.189
G1X37.057Z-7.444
G1X36.583Z-6.061
G1X36.266Z-5.213
G1X35.950Z-4.495
G1X35.476Z-3.610
G1X35.160Z-3.128
G1X34.843Z-2.732
G1X34.369Z-2.276
G1X33.895Z-1.884
G1X33.578Z-1.656
G1X32.788Z-1.264
G1X32.155Z-1.048
G1X31.365Z-0.895
G1X30.732Z-0.829
G1X30.416Z-0.788
G1X29.942Z-0.790
G1X29.467Z-0.847
G1X28.835Z-0.951
G1X28.044Z-1.123
G1X26.621Z-1.523
G1X25.514Z-1.923
G1X23.933Z-2.342
G1X22.510Z-2.698
G1X22.036Z-2.757
G1X21.403Z-2.790
G1X21.087Z-2.772
G1X20.612Z-2.691
G1X20.296Z-2.682
G1X19.822Z-2.707
G1X18.873Z-2.596
G1X18.399Z-2.546
G1X16.817Z-2.141
G1X16.659Z-2.113
G1X15.394Z-1.579
G1X14.604Z-1.336
G1X13.971Z-1.093
G1X13.023Z-0.899
G1X12.706Z-0.852
G1X12.390Z-0.807
G1X11.916Z-0.795
G1X10.967Z-0.830
G1X10.334Z-0.873
G1X10.018Z-0.927
G1X9.386Z-1.156
G1X9.070Z-1.306
G1X7.646Z-2.240
G1X7.330Z-2.488
G1X6.698Z-3.201
G1X6.540Z-3.399
G1X6.223Z-3.897
G1X5.907Z-4.501
G1X5.591Z-5.252
G1X5.116Z-6.655
G1X4.642Z-8.158
G1X4.326Z-9.060
G1X4.010Z-9.813
G1X3.852Z-10.017
G1X3.923Y23.474Z-10.011
G1X4.046Y23.670Z-10.041
G1X4.204Z-9.808
G1X4.521Z-9.156
G1X4.996Z-7.848
G1X5.629Z-5.907
G1X6.103Z-4.690
G1X6.262Z-4.338
G1X6.578Z-3.767
G1X6.895Z-3.341
G1X7.528Z-2.625
G1X7.844Z-2.339
G1X8.635Z-1.806
G1X8.952Z-1.559
G1X9.427Z-1.261
G1X9.901Z-1.059
G1X10.218Z-0.975
G1X10.693Z-0.935
G1X11.009Z-0.865
G1X11.642Z-0.793
G1X12.275Z-0.761
G1X12.908Z-0.802
G1X13.699Z-0.882
G1X14.174Z-0.975
G1X14.649Z-1.104
G1X15.440Z-1.356
G1X15.915Z-1.482
G1X16.390Z-1.684
G1X16.548Z-1.736
G1X17.972Z-1.985
G1X18.605Z-2.098
G1X20.029Z-2.208
G1X20.346Z-2.255
G1X20.820Z-2.247
G1X21.612Z-2.290
G1X22.403Z-2.231
G1X22.878Z-2.135
G1X23.669Z-1.985
G1X24.144Z-1.911
G1X24.460Z-1.846
G1X26.043Z-1.453
G1X26.517Z-1.319
G1X27.467Z-1.091
G1X28.733Z-0.873
G1X29.524Z-0.786
G1X29.999Z-0.775
G1X30.474Z-0.810
G1X30.948Z-0.897
G1X31.740Z-1.065
G1X32.214Z-1.226
G1X33.164Z-1.668
G1X33.480Z-1.841
G1X33.639Z-1.941
G1X34.430Z-2.611
G1X34.905Z-3.188
G1X35.221Z-3.674
G1X35.538Z-4.233
G1X36.012Z-5.264
G1X37.595Z-9.523
G1X37.911Z-10.031
G1X38.070Z-10.242
G1X37.789Y23.988Z-10.225
G1X37.631Z-9.998
G1X37.314Z-9.429
G1X37.156Z-9.069
G1X35.730Z-5.307
G1X35.254Z-4.266
G1X34.779Z-3.456
G1X34.462Z-3.015
G1X34.145Z-2.658
G1X33.511Z-2.134
G1X33.194Z-1.932
G1X31.927Z-1.298
G1X31.452Z-1.116
G1X30.659Z-0.894
G1X30.026Z-0.800
G1X29.550Z-0.776
G1X29.233Z-0.783
G1X27.966Z-0.894
G1X27.807Z-0.920
G1X27.490Z-0.932
G1X27.015Z-1.045
G1X26.064Z-1.254
G1X25.589Z-1.326
G1X24.955Z-1.448
G1X24.163Z-1.565
G1X23.846Z-1.649
G1X22.420Z-1.832
G1X21.469Z-1.871
G1X20.677Z-1.841
G1X20.202Z-1.853
G1X19.885Z-1.799
G1X18.300Z-1.679
G1X17.191Z-1.527
G1X16.399Z-1.382
G1X15.765Z-1.211
G1X15.290Z-1.100
G1X14.656Z-0.933
G1X14.181Z-0.848
G1X13.547Z-0.771
G1X12.755Z-0.739
G1X12.121Z-0.765
G1X11.487Z-0.840
G1X11.012Z-0.935
G1X10.378Z-1.128
G1X10.061Z-1.181
G1X9.744Z-1.297
G1X9.427Z-1.456
G1X9.111Z-1.672
G1X8.635Z-2.032
G1X8.318Z-2.252
G1X7.843Z-2.678
G1X7.209Z-3.362
G1X6.892Z-3.775
G1X6.575Z-4.322
G1X6.259Z-5.029
G1X5.625Z-6.746
G1X4.991Z-8.614
G1X4.674Z-9.391
G1X4.516Z-9.738
G1X4.357Z-9.981
G1X4.376Y24.002Z-9.973
G1X4.454Y24.118Z-9.987
G1X4.592Y24.305Z-10.044
G1X4.908Z-9.479
G1X5.067Z-9.141
G1X6.333Z-5.585
G1X6.649Z-4.880
G1X6.966Z-4.245
G1X7.282Z-3.698
G1X7.599Z-3.333
G1X8.390Z-2.519
G1X8.864Z-2.101
G1X9.656Z-1.566
G1X10.130Z-1.348
G1X11.238Z-0.990
G1X11.713Z-0.868
G1X12.662Z-0.736
G1X13.137Z-0.705
G1X13.612Z-0.714
G1X14.719Z-0.833
G1X16.460Z-1.154
G1X17.410Z-1.311
G1X18.517Z-1.416
G1X19.941Z-1.489
G1X21.840Z-1.519
G1X22.632Z-1.501
G1X23.898Z-1.333
G1X24.214Z-1.278
G1X24.847Z-1.222
G1X26.271Z-1.057
G1X26.588Z-1.012
G1X27.379Z-0.838
G1X27.695Z-0.811
G1X28.328Z-0.805
G1X29.594Z-0.801
G1X29.911Z-0.839
G1X30.544Z-0.969
G1X31.335Z-1.237
G1X33.076Z-2.128
G1X33.392Z-2.346
G1X33.867Z-2.760
G1X34.183Z-3.095
G1X34.500Z-3.505
G1X34.975Z-4.370
G1X35.291Z-5.033
G1X35.449Z-5.396
G1X36.557Z-8.322
G1X36.874Z-9.089
G1X37.032Z-9.428
G1X37.348Z-9.943
G1X37.507Z-10.169
G1X37.407Y24.411Z-10.156
G1X37.207Y24.623Z-10.181
G1X36.891Z-9.718
G1X36.576Z-9.074
G1X36.102Z-7.997
G1X34.998Z-5.091
G1X34.682Z-4.402
G1X34.367Z-3.827
G1X34.051Z-3.385
G1X33.894Z-3.196
G1X33.263Z-2.572
G1X33.105Z-2.440
G1X32.631Z-2.146
G1X31.685Z-1.645
G1X31.369Z-1.438
G1X30.738Z-1.147
G1X30.107Z-0.949
G1X29.634Z-0.869
G1X29.003Z-0.821
G1X28.372Z-0.794
G1X27.583Z-0.772
G1X27.110Z-0.819
G1X26.479Z-0.924
G1X25.217Z-1.020
G1X24.743Z-1.068
G1X24.112Z-1.079
G1X22.692Z-1.242
G1X21.272Z-1.261
G1X19.222Z-1.216
G1X17.802Z-1.152
G1X17.171Z-1.106
G1X16.224Z-0.974
G1X15.751Z-0.913
G1X15.120Z-0.803
G1X14.173Z-0.726
G1X13.700Z-0.691
G1X13.069Z-0.718
G1X12.595Z-0.781
G1X11.807Z-0.949
G1X11.176Z-1.161
G1X10.702Z-1.370
G1X10.229Z-1.526
G1X9.913Z-1.672
G1X9.440Z-1.943
G1X9.125Z-2.163
G1X8.809Z-2.447
G1X8.178Z-3.073
G1X7.547Z-3.829
