(VECTRIC POST REVISION)
(FC16A22438222CB0A5088D1738135480)
T1
G17
G21
G90
G0Z20.320
G0X0.000Y0.000
S18000M3
G0X10.283Y-0.025Z5.080
G1X10.283Y-0.025Z-1.559F889.0
G1X13.048Y0.805Z-2.018
G2X25.235Y4.380I342.552J-1145.206F1524.0
G2X37.459Y7.825I330.365J-1148.781
G2X49.718Y11.140I318.141J-1152.226
G2X62.012Y14.325I305.882J-1155.541
G2X74.340Y17.379I293.587J-1158.726
G2X86.699Y20.301I281.260J-1161.779
G2X99.088Y23.093I268.901J-1164.702
G2X111.507Y25.752I256.512J-1167.493
G2X179.164Y37.847I244.093J-1170.153
G2X185.290Y38.745I176.436J-1182.247
G2X191.421Y39.611I170.310J-1183.145
G2X368.300Y50.872I164.179J-1184.012
G0X368.300Y50.872Z5.080
G0X10.283Y-0.025Z5.080
G1X10.283Y-0.025Z-2.018F889.0
G1X13.048Y0.805Z-2.018F1524.0
G1X15.483Y1.531Z-2.421F889.0
G1X17.918Y2.251Z-2.825
G1X20.356Y2.966Z-3.229
G1X22.795Y3.676Z-3.632
G1X25.235Y4.380Z-4.036
G2X37.459Y7.825I330.365J-1148.781F1524.0
G2X49.718Y11.140I318.141J-1152.226
G2X62.012Y14.325I305.882J-1155.541
G2X74.340Y17.379I293.587J-1158.726
G2X86.699Y20.301I281.260J-1161.779
G2X99.088Y23.093I268.901J-1164.702
G2X111.507Y25.752I256.512J-1167.493
G2X179.164Y37.847I244.093J-1170.153
G2X185.290Y38.745I176.436J-1182.247
G2X191.421Y39.611I170.310J-1183.145
G2X368.300Y50.872I164.179J-1184.012
G0X368.300Y50.872Z5.080
G0X10.283Y-0.025Z5.080
G1X10.283Y-0.025Z-4.036F889.0
G1X13.048Y0.805Z-4.036F1524.0
G2X25.235Y4.380I342.552J-1145.206
G1X27.677Y5.080Z-4.439F889.0
G1X30.120Y5.774Z-4.843
G1X32.565Y6.463Z-5.247
G1X35.011Y7.147Z-5.650
G1X37.459Y7.825Z-6.054
G2X49.718Y11.140I318.141J-1152.226F1524.0
G2X62.012Y14.325I305.882J-1155.541
G2X74.340Y17.379I293.587J-1158.726
G2X86.699Y20.301I281.260J-1161.779
G2X99.088Y23.093I268.901J-1164.702
G2X111.507Y25.752I256.512J-1167.493
G2X179.164Y37.847I244.093J-1170.153
G2X185.290Y38.745I176.436J-1182.247
G2X191.421Y39.611I170.310J-1183.145
G2X368.300Y50.872I164.179J-1184.012
G0X368.300Y50.872Z5.080
G0X10.283Y-0.025Z5.080
G1X10.283Y-0.025Z-6.054F889.0
G1X13.048Y0.805Z-6.054F1524.0
G2X25.235Y4.380I342.552J-1145.206
G2X37.459Y7.825I330.365J-1148.781
G1X39.908Y8.499Z-6.457F889.0
G1X42.358Y9.167Z-6.861
G1X44.810Y9.830Z-7.264
G1X47.264Y10.488Z-7.668
G1X49.718Y11.140Z-8.072
G2X62.012Y14.325I305.882J-1155.541F1524.0
G2X74.340Y17.379I293.587J-1158.726
G2X86.699Y20.301I281.260J-1161.779
G2X99.088Y23.093I268.901J-1164.702
G2X111.507Y25.752I256.512J-1167.493
G2X179.164Y37.847I244.093J-1170.153
G2X185.290Y38.745I176.436J-1182.247
G2X191.421Y39.611I170.310J-1183.145
G2X368.300Y50.872I164.179J-1184.012
G0X368.300Y50.872Z5.080
G0X10.283Y-0.025Z5.080
G1X10.283Y-0.025Z-8.072F889.0
G1X13.048Y0.805Z-8.072F1524.0
G2X25.235Y4.380I342.552J-1145.206
G2X37.459Y7.825I330.365J-1148.781
G2X49.718Y11.140I318.141J-1152.226
G1X52.174Y11.788Z-8.475F889.0
G1X54.632Y12.430Z-8.879
G1X57.091Y13.067Z-9.282
G1X59.551Y13.698Z-9.686
G1X62.012Y14.325Z-10.089
G2X74.340Y17.379I293.587J-1158.726F1524.0
G2X86.699Y20.301I281.260J-1161.779
G2X99.088Y23.093I268.901J-1164.702
G2X111.507Y25.752I256.512J-1167.493
G2X179.164Y37.847I244.093J-1170.153
G2X185.290Y38.745I176.436J-1182.247
G2X191.421Y39.611I170.310J-1183.145
G2X368.300Y50.872I164.179J-1184.012
G0X368.300Y50.872Z5.080
G0X10.283Y-0.025Z5.080
G1X10.283Y-0.025Z-10.089F889.0
G1X13.048Y0.805Z-10.089F1524.0
G2X25.235Y4.380I342.552J-1145.206
G2X37.459Y7.825I330.365J-1148.781
G2X49.718Y11.140I318.141J-1152.226
G2X62.012Y14.325I305.882J-1155.541
G1X64.475Y14.946Z-10.493F889.0
G1X66.940Y15.562Z-10.897
G1X69.405Y16.173Z-11.300
G1X71.872Y16.778Z-11.704
G1X74.340Y17.379Z-12.107
G2X86.699Y20.301I281.260J-1161.779F1524.0
G2X99.088Y23.093I268.901J-1164.702
G2X111.507Y25.752I256.512J-1167.493
G2X179.164Y37.847I244.093J-1170.153
G1X182.226Y38.300Z-11.959
G1X185.290Y38.745Z-11.811
G1X188.355Y39.182Z-11.959
G1X191.421Y39.611Z-12.107
G2X368.300Y50.872I164.179J-1184.012F1524.0
G0X368.300Y50.872Z5.080
G0X10.283Y-0.025Z5.080
G1X10.283Y-0.025Z-12.107F889.0
G1X13.048Y0.805Z-12.107F1524.0
G2X25.235Y4.380I342.552J-1145.206
G2X37.459Y7.825I330.365J-1148.781
G2X49.718Y11.140I318.141J-1152.226
G2X62.012Y14.325I305.882J-1155.541
G2X74.340Y17.379I293.587J-1158.726
G1X76.809Y17.974Z-12.511F889.0
G1X79.280Y18.564Z-12.914
G1X81.752Y19.148Z-13.318
G1X84.225Y19.727Z-13.722
G1X86.699Y20.301Z-14.125
G2X99.088Y23.093I268.901J-1164.702F1524.0
G2X111.507Y25.752I256.512J-1167.493
G2X179.164Y37.847I244.093J-1170.153
G1X182.226Y38.300Z-12.968
G1X185.290Y38.745Z-11.811
G1X188.355Y39.182Z-12.968
G1X191.421Y39.611Z-14.125
G2X368.300Y50.872I164.179J-1184.012F1524.0
G0X368.300Y50.872Z5.080
G0X10.283Y-0.025Z5.080
G1X10.283Y-0.025Z-14.125F889.0
G1X13.048Y0.805Z-14.125F1524.0
G2X25.235Y4.380I342.552J-1145.206
G2X37.459Y7.825I330.365J-1148.781
G2X49.718Y11.140I318.141J-1152.226
G2X62.012Y14.325I305.882J-1155.541
G2X74.340Y17.379I293.587J-1158.726
G2X86.699Y20.301I281.260J-1161.779
G1X89.174Y20.870Z-14.529F889.0
G1X91.651Y21.434Z-14.932
G1X94.129Y21.992Z-15.336
G1X96.608Y22.545Z-15.740
G1X99.088Y23.093Z-16.143
G2X111.507Y25.752I256.512J-1167.493F1524.0
G2X179.164Y37.847I244.093J-1170.153
G1X182.226Y38.300Z-13.977
G1X185.290Y38.745Z-11.811
G1X188.355Y39.182Z-13.977
G1X191.421Y39.611Z-16.143
G2X368.300Y50.872I164.179J-1184.012F1524.0
G0X368.300Y50.872Z5.080
G0X10.283Y-0.025Z5.080
G1X10.283Y-0.025Z-16.143F889.0
G1X13.048Y0.805Z-16.143F1524.0
G2X25.235Y4.380I342.552J-1145.206
G2X37.459Y7.825I330.365J-1148.781
G2X49.718Y11.140I318.141J-1152.226
G2X62.012Y14.325I305.882J-1155.541
G2X74.340Y17.379I293.587J-1158.726
G2X86.699Y20.301I281.260J-1161.779
G2X99.088Y23.093I268.901J-1164.702
G1X101.570Y23.635Z-16.547F889.0
G1X104.052Y24.172Z-16.950
G1X106.536Y24.704Z-17.354
G1X109.021Y25.231Z-17.757
G1X111.507Y25.752Z-18.161
G2X179.164Y37.847I244.093J-1170.153F1524.0
G1X182.226Y38.300Z-14.986
G1X185.290Y38.745Z-11.811
G1X188.355Y39.182Z-14.986
G1X191.421Y39.611Z-18.161
G2X368.300Y50.872I164.179J-1184.012F1524.0
G0X368.300Y50.872Z5.080
G0X10.283Y-0.025Z5.080
G1X10.283Y-0.025Z-18.161F889.0
G1X13.048Y0.805Z-18.161F1524.0
G2X25.235Y4.380I342.552J-1145.206
G2X37.459Y7.825I330.365J-1148.781
G2X49.718Y11.140I318.141J-1152.226
G2X62.012Y14.325I305.882J-1155.541
G2X74.340Y17.379I293.587J-1158.726
G2X86.699Y20.301I281.260J-1161.779
G2X99.088Y23.093I268.901J-1164.702
G2X111.507Y25.752I256.512J-1167.493
G0X111.507Y25.752Z5.080
M5
G0Z20.320
G0X0.000Y0.000
M2
