(VECTRIC POST REVISION)
(FC16A22438222CB0A5088D1738135480)
T1
G17
G21
G90
G0Z20.320
G0X0.000Y0.000
S18000M3
G0X-12.700Y50.872Z5.080
G1X-12.700Y50.872Z-2.018F889.0
G2X216.903Y31.096I12.700J-1195.273F1524.0
G2X222.960Y29.962I-216.903J-1175.496
G2X229.011Y28.797I-222.960J-1174.363
G2X345.317Y-0.025I-229.011J-1173.199
G0X345.317Y-0.025Z5.080
G0X-12.700Y50.872Z5.080
G1X-12.700Y50.872Z-4.036F889.0
G2X216.903Y31.096I12.700J-1195.273F1524.0
G2X222.960Y29.962I-216.903J-1175.496
G2X229.011Y28.797I-222.960J-1174.363
G2X345.317Y-0.025I-229.011J-1173.199
G0X345.317Y-0.025Z5.080
G0X-12.700Y50.872Z5.080
G1X-12.700Y50.872Z-6.054F889.0
G2X216.903Y31.096I12.700J-1195.273F1524.0
G2X222.960Y29.962I-216.903J-1175.496
G2X229.011Y28.797I-222.960J-1174.363
G2X345.317Y-0.025I-229.011J-1173.199
G0X345.317Y-0.025Z5.080
G0X-12.700Y50.872Z5.080
G1X-12.700Y50.872Z-8.072F889.0
G2X216.903Y31.096I12.700J-1195.273F1524.0
G2X222.960Y29.962I-216.903J-1175.496
G2X229.011Y28.797I-222.960J-1174.363
G2X345.317Y-0.025I-229.011J-1173.199
G0X345.317Y-0.025Z5.080
G0X-12.700Y50.872Z5.080
G1X-12.700Y50.872Z-10.089F889.0
G2X216.903Y31.096I12.700J-1195.273F1524.0
G2X222.960Y29.962I-216.903J-1175.496
G2X229.011Y28.797I-222.960J-1174.363
G2X345.317Y-0.025I-229.011J-1173.199
G0X345.317Y-0.025Z5.080
G0X-12.700Y50.872Z5.080
G1X-12.700Y50.872Z-12.107F889.0
G2X216.903Y31.096I12.700J-1195.273F1524.0
G1X219.932Y30.533Z-11.959
G1X222.960Y29.962Z-11.811
G1X225.986Y29.383Z-11.959
G1X229.011Y28.797Z-12.107
G2X345.317Y-0.025I-229.011J-1173.199F1524.0
G0X345.317Y-0.025Z5.080
G0X-12.700Y50.872Z5.080
G1X-12.700Y50.872Z-14.125F889.0
G2X216.903Y31.096I12.700J-1195.273F1524.0
G1X219.932Y30.533Z-12.968
G1X222.960Y29.962Z-11.811
G1X225.986Y29.383Z-12.968
G1X229.011Y28.797Z-14.125
G2X345.317Y-0.025I-229.011J-1173.199F1524.0
G0X345.317Y-0.025Z5.080
G0X-12.700Y50.872Z5.080
G1X-12.700Y50.872Z-16.143F889.0
G2X216.903Y31.096I12.700J-1195.273F1524.0
G1X219.932Y30.533Z-13.977
G1X222.960Y29.962Z-11.811
G1X225.986Y29.383Z-13.977
G1X229.011Y28.797Z-16.143
G2X345.317Y-0.025I-229.011J-1173.199F1524.0
G0X345.317Y-0.025Z5.080
G0X-12.700Y50.872Z5.080
G1X-12.700Y50.872Z-18.161F889.0
G2X216.903Y31.096I12.700J-1195.273F1524.0
G1X219.932Y30.533Z-14.986
G1X222.960Y29.962Z-11.811
G1X225.986Y29.383Z-14.986
G1X229.011Y28.797Z-18.161
G2X345.317Y-0.025I-229.011J-1173.199F1524.0
G0X345.317Y-0.025Z5.080
M5
G0Z20.320
G0X0.000Y0.000
M2
